nealockwood/nealockwood.github.io/pages/bcei_errors_unscheduled.csv
event_date,variable,Qahead,bcei_pub_date,target_qtr,forecast,realized,error
1988-02-04,cpi,0,1988-01-01,1988Q1,3.9,3.158114197810713,-0.7418858021892869
1988-02-04,cpi,1,1988-01-01,1988Q2,4.0,4.668029748448688,0.6680297484486877
1988-02-04,cpi,2,1988-01-01,1988Q3,4.3,4.966574789357625,0.6665747893576253
1988-02-04,cpi,3,1988-01-01,1988Q4,4.5,4.441875929858252,-0.05812407014174781
1988-02-04,cpi,4,1988-01-01,1989Q1,4.7,4.6222196185139675,-0.07778038148603272
1988-02-04,cpi,5,1988-01-01,1989Q2,4.7,6.624222048547779,1.9242220485477786
1988-02-04,gdp_price,0,1988-01-01,1988Q1,3.6,3.1273258569216145,-0.4726741430783856
1988-02-04,gdp_price,1,1988-01-01,1988Q2,3.7,4.051719280722343,0.35171928072234326
1988-02-04,gdp_price,2,1988-01-01,1988Q3,3.9,4.9944833312649095,1.0944833312649096
1988-02-04,gdp_price,3,1988-01-01,1988Q4,4.0,3.7386706127772618,-0.26132938722273824
1988-02-04,gdp_price,4,1988-01-01,1989Q1,4.2,3.9250963154181977,-0.2749036845818025
1988-02-04,gdp_price,5,1988-01-01,1989Q2,4.3,4.413653055154065,0.11365305515406554
1988-02-04,industrial_production,0,1988-01-01,1988Q1,1.3,3.7915034537730152,2.4915034537730154
1988-02-04,industrial_production,1,1988-01-01,1988Q2,1.8,3.5454275144150893,1.7454275144150893
1988-02-04,industrial_production,2,1988-01-01,1988Q3,2.3,1.4902244289339617,-0.8097755710660381
1988-02-04,industrial_production,3,1988-01-01,1988Q4,2.8,2.8400965562221714,0.040096556222171564
1988-02-04,industrial_production,4,1988-01-01,1989Q1,3.0,1.872051537694697,-1.127948462305303
1988-02-04,industrial_production,5,1988-01-01,1989Q2,3.2,-1.5034442233530454,-4.703444223353046
1988-02-04,real_gdp,0,1988-01-01,1988Q1,1.2,2.490682124492305,1.290682124492305
1988-02-04,real_gdp,1,1988-01-01,1988Q2,1.6,5.135245132428312,3.535245132428312
1988-02-04,real_gdp,2,1988-01-01,1988Q3,2.2,2.125209750302459,-0.074790249697541
1988-02-04,real_gdp,3,1988-01-01,1988Q4,2.4,5.587104405539067,3.1871044055390674
1988-02-04,real_gdp,4,1988-01-01,1989Q1,2.4,4.058268956464417,1.658268956464417
1988-02-04,real_gdp,5,1988-01-01,1989Q2,2.1,2.9904340112270944,0.8904340112270943
1988-02-04,unrate,0,1988-01-01,1988Q1,6.1,5.7,-0.39999999999999947
1988-02-04,unrate,1,1988-01-01,1988Q2,6.2,5.466666666666666,-0.7333333333333343
1988-02-04,unrate,2,1988-01-01,1988Q3,6.2,5.466666666666666,-0.7333333333333343
1988-02-04,unrate,3,1988-01-01,1988Q4,6.2,5.333333333333333,-0.8666666666666671
1988-02-04,unrate,4,1988-01-01,1989Q1,6.2,5.2,-1.0
1988-02-04,unrate,5,1988-01-01,1989Q2,6.2,5.233333333333333,-0.9666666666666668
1988-02-05,cpi,0,1988-01-01,1988Q1,3.9,3.158114197810713,-0.7418858021892869
1988-02-05,cpi,1,1988-01-01,1988Q2,4.0,4.668029748448688,0.6680297484486877
1988-02-05,cpi,2,1988-01-01,1988Q3,4.3,4.966574789357625,0.6665747893576253
1988-02-05,cpi,3,1988-01-01,1988Q4,4.5,4.441875929858252,-0.05812407014174781
1988-02-05,cpi,4,1988-01-01,1989Q1,4.7,4.6222196185139675,-0.07778038148603272
1988-02-05,cpi,5,1988-01-01,1989Q2,4.7,6.624222048547779,1.9242220485477786
1988-02-05,gdp_price,0,1988-01-01,1988Q1,3.6,3.1273258569216145,-0.4726741430783856
1988-02-05,gdp_price,1,1988-01-01,1988Q2,3.7,4.051719280722343,0.35171928072234326
1988-02-05,gdp_price,2,1988-01-01,1988Q3,3.9,4.9944833312649095,1.0944833312649096
1988-02-05,gdp_price,3,1988-01-01,1988Q4,4.0,3.7386706127772618,-0.26132938722273824
1988-02-05,gdp_price,4,1988-01-01,1989Q1,4.2,3.9250963154181977,-0.2749036845818025
1988-02-05,gdp_price,5,1988-01-01,1989Q2,4.3,4.413653055154065,0.11365305515406554
1988-02-05,industrial_production,0,1988-01-01,1988Q1,1.3,3.7915034537730152,2.4915034537730154
1988-02-05,industrial_production,1,1988-01-01,1988Q2,1.8,3.5454275144150893,1.7454275144150893
1988-02-05,industrial_production,2,1988-01-01,1988Q3,2.3,1.4902244289339617,-0.8097755710660381
1988-02-05,industrial_production,3,1988-01-01,1988Q4,2.8,2.8400965562221714,0.040096556222171564
1988-02-05,industrial_production,4,1988-01-01,1989Q1,3.0,1.872051537694697,-1.127948462305303
1988-02-05,industrial_production,5,1988-01-01,1989Q2,3.2,-1.5034442233530454,-4.703444223353046
1988-02-05,real_gdp,0,1988-01-01,1988Q1,1.2,2.490682124492305,1.290682124492305
1988-02-05,real_gdp,1,1988-01-01,1988Q2,1.6,5.135245132428312,3.535245132428312
1988-02-05,real_gdp,2,1988-01-01,1988Q3,2.2,2.125209750302459,-0.074790249697541
1988-02-05,real_gdp,3,1988-01-01,1988Q4,2.4,5.587104405539067,3.1871044055390674
1988-02-05,real_gdp,4,1988-01-01,1989Q1,2.4,4.058268956464417,1.658268956464417
1988-02-05,real_gdp,5,1988-01-01,1989Q2,2.1,2.9904340112270944,0.8904340112270943
1988-02-05,unrate,0,1988-01-01,1988Q1,6.1,5.7,-0.39999999999999947
1988-02-05,unrate,1,1988-01-01,1988Q2,6.2,5.466666666666666,-0.7333333333333343
1988-02-05,unrate,2,1988-01-01,1988Q3,6.2,5.466666666666666,-0.7333333333333343
1988-02-05,unrate,3,1988-01-01,1988Q4,6.2,5.333333333333333,-0.8666666666666671
1988-02-05,unrate,4,1988-01-01,1989Q1,6.2,5.2,-1.0
1988-02-05,unrate,5,1988-01-01,1989Q2,6.2,5.233333333333333,-0.9666666666666668
1988-04-04,cpi,0,1988-03-01,1988Q1,3.7,3.158114197810713,-0.5418858021892872
1988-04-04,cpi,1,1988-03-01,1988Q2,4.0,4.668029748448688,0.6680297484486877
1988-04-04,cpi,2,1988-03-01,1988Q3,4.3,4.966574789357625,0.6665747893576253
1988-04-04,cpi,3,1988-03-01,1988Q4,4.5,4.441875929858252,-0.05812407014174781
1988-04-04,cpi,4,1988-03-01,1989Q1,4.6,4.6222196185139675,0.02221961851396781
1988-04-04,cpi,5,1988-03-01,1989Q2,4.8,6.624222048547779,1.824222048547779
1988-04-04,gdp_price,0,1988-03-01,1988Q1,3.3,3.1273258569216145,-0.17267414307838536
1988-04-04,gdp_price,1,1988-03-01,1988Q2,3.6,4.051719280722343,0.45171928072234335
1988-04-04,gdp_price,2,1988-03-01,1988Q3,3.8,4.9944833312649095,1.1944833312649097
1988-04-04,gdp_price,3,1988-03-01,1988Q4,4.1,3.7386706127772618,-0.3613293872227379
1988-04-04,gdp_price,4,1988-03-01,1989Q1,4.5,3.9250963154181977,-0.5749036845818023
1988-04-04,gdp_price,5,1988-03-01,1989Q2,4.4,4.413653055154065,0.013653055154065008
1988-04-04,industrial_production,0,1988-03-01,1988Q1,1.6,3.7915034537730152,2.191503453773015
1988-04-04,industrial_production,1,1988-03-01,1988Q2,1.9,3.5454275144150893,1.6454275144150894
1988-04-04,industrial_production,2,1988-03-01,1988Q3,2.9,1.4902244289339617,-1.4097755710660382
1988-04-04,industrial_production,3,1988-03-01,1988Q4,3.2,2.8400965562221714,-0.3599034437778288
1988-04-04,industrial_production,4,1988-03-01,1989Q1,3.6,1.872051537694697,-1.7279484623053032
1988-04-04,industrial_production,5,1988-03-01,1989Q2,3.1,-1.5034442233530454,-4.603444223353046
1988-04-04,real_gdp,0,1988-03-01,1988Q1,0.7,2.490682124492305,1.790682124492305
1988-04-04,real_gdp,1,1988-03-01,1988Q2,1.8,5.135245132428312,3.3352451324283123
1988-04-04,real_gdp,2,1988-03-01,1988Q3,2.4,2.125209750302459,-0.27479024969754073
1988-04-04,real_gdp,3,1988-03-01,1988Q4,2.5,5.587104405539067,3.0871044055390673
1988-04-04,real_gdp,4,1988-03-01,1989Q1,2.4,4.058268956464417,1.658268956464417
1988-04-04,real_gdp,5,1988-03-01,1989Q2,2.2,2.9904340112270944,0.7904340112270942
1988-04-04,unrate,0,1988-03-01,1988Q1,5.9,5.7,-0.20000000000000018
1988-04-04,unrate,1,1988-03-01,1988Q2,6.0,5.466666666666666,-0.5333333333333341
1988-04-04,unrate,2,1988-03-01,1988Q3,6.0,5.466666666666666,-0.5333333333333341
1988-04-04,unrate,3,1988-03-01,1988Q4,6.0,5.333333333333333,-0.666666666666667
1988-04-04,unrate,4,1988-03-01,1989Q1,6.0,5.2,-0.7999999999999998
1988-04-04,unrate,5,1988-03-01,1989Q2,6.1,5.233333333333333,-0.8666666666666663
1988-04-05,cpi,0,1988-03-01,1988Q1,3.7,3.158114197810713,-0.5418858021892872
1988-04-05,cpi,1,1988-03-01,1988Q2,4.0,4.668029748448688,0.6680297484486877
1988-04-05,cpi,2,1988-03-01,1988Q3,4.3,4.966574789357625,0.6665747893576253
1988-04-05,cpi,3,1988-03-01,1988Q4,4.5,4.441875929858252,-0.05812407014174781
1988-04-05,cpi,4,1988-03-01,1989Q1,4.6,4.6222196185139675,0.02221961851396781
1988-04-05,cpi,5,1988-03-01,1989Q2,4.8,6.624222048547779,1.824222048547779
1988-04-05,gdp_price,0,1988-03-01,1988Q1,3.3,3.1273258569216145,-0.17267414307838536
1988-04-05,gdp_price,1,1988-03-01,1988Q2,3.6,4.051719280722343,0.45171928072234335
1988-04-05,gdp_price,2,1988-03-01,1988Q3,3.8,4.9944833312649095,1.1944833312649097
1988-04-05,gdp_price,3,1988-03-01,1988Q4,4.1,3.7386706127772618,-0.3613293872227379
1988-04-05,gdp_price,4,1988-03-01,1989Q1,4.5,3.9250963154181977,-0.5749036845818023
1988-04-05,gdp_price,5,1988-03-01,1989Q2,4.4,4.413653055154065,0.013653055154065008
1988-04-05,industrial_production,0,1988-03-01,1988Q1,1.6,3.7915034537730152,2.191503453773015
1988-04-05,industrial_production,1,1988-03-01,1988Q2,1.9,3.5454275144150893,1.6454275144150894
1988-04-05,industrial_production,2,1988-03-01,1988Q3,2.9,1.4902244289339617,-1.4097755710660382
1988-04-05,industrial_production,3,1988-03-01,1988Q4,3.2,2.8400965562221714,-0.3599034437778288
1988-04-05,industrial_production,4,1988-03-01,1989Q1,3.6,1.872051537694697,-1.7279484623053032
1988-04-05,industrial_production,5,1988-03-01,1989Q2,3.1,-1.5034442233530454,-4.603444223353046
1988-04-05,real_gdp,0,1988-03-01,1988Q1,0.7,2.490682124492305,1.790682124492305
1988-04-05,real_gdp,1,1988-03-01,1988Q2,1.8,5.135245132428312,3.3352451324283123
1988-04-05,real_gdp,2,1988-03-01,1988Q3,2.4,2.125209750302459,-0.27479024969754073
1988-04-05,real_gdp,3,1988-03-01,1988Q4,2.5,5.587104405539067,3.0871044055390673
1988-04-05,real_gdp,4,1988-03-01,1989Q1,2.4,4.058268956464417,1.658268956464417
1988-04-05,real_gdp,5,1988-03-01,1989Q2,2.2,2.9904340112270944,0.7904340112270942
1988-04-05,unrate,0,1988-03-01,1988Q1,5.9,5.7,-0.20000000000000018
1988-04-05,unrate,1,1988-03-01,1988Q2,6.0,5.466666666666666,-0.5333333333333341
1988-04-05,unrate,2,1988-03-01,1988Q3,6.0,5.466666666666666,-0.5333333333333341
1988-04-05,unrate,3,1988-03-01,1988Q4,6.0,5.333333333333333,-0.666666666666667
1988-04-05,unrate,4,1988-03-01,1989Q1,6.0,5.2,-0.7999999999999998
1988-04-05,unrate,5,1988-03-01,1989Q2,6.1,5.233333333333333,-0.8666666666666663
1988-04-06,cpi,0,1988-03-01,1988Q1,3.7,3.158114197810713,-0.5418858021892872
1988-04-06,cpi,1,1988-03-01,1988Q2,4.0,4.668029748448688,0.6680297484486877
1988-04-06,cpi,2,1988-03-01,1988Q3,4.3,4.966574789357625,0.6665747893576253
1988-04-06,cpi,3,1988-03-01,1988Q4,4.5,4.441875929858252,-0.05812407014174781
1988-04-06,cpi,4,1988-03-01,1989Q1,4.6,4.6222196185139675,0.02221961851396781
1988-04-06,cpi,5,1988-03-01,1989Q2,4.8,6.624222048547779,1.824222048547779
1988-04-06,gdp_price,0,1988-03-01,1988Q1,3.3,3.1273258569216145,-0.17267414307838536
1988-04-06,gdp_price,1,1988-03-01,1988Q2,3.6,4.051719280722343,0.45171928072234335
1988-04-06,gdp_price,2,1988-03-01,1988Q3,3.8,4.9944833312649095,1.1944833312649097
1988-04-06,gdp_price,3,1988-03-01,1988Q4,4.1,3.7386706127772618,-0.3613293872227379
1988-04-06,gdp_price,4,1988-03-01,1989Q1,4.5,3.9250963154181977,-0.5749036845818023
1988-04-06,gdp_price,5,1988-03-01,1989Q2,4.4,4.413653055154065,0.013653055154065008
1988-04-06,industrial_production,0,1988-03-01,1988Q1,1.6,3.7915034537730152,2.191503453773015
1988-04-06,industrial_production,1,1988-03-01,1988Q2,1.9,3.5454275144150893,1.6454275144150894
1988-04-06,industrial_production,2,1988-03-01,1988Q3,2.9,1.4902244289339617,-1.4097755710660382
1988-04-06,industrial_production,3,1988-03-01,1988Q4,3.2,2.8400965562221714,-0.3599034437778288
1988-04-06,industrial_production,4,1988-03-01,1989Q1,3.6,1.872051537694697,-1.7279484623053032
1988-04-06,industrial_production,5,1988-03-01,1989Q2,3.1,-1.5034442233530454,-4.603444223353046
1988-04-06,real_gdp,0,1988-03-01,1988Q1,0.7,2.490682124492305,1.790682124492305
1988-04-06,real_gdp,1,1988-03-01,1988Q2,1.8,5.135245132428312,3.3352451324283123
1988-04-06,real_gdp,2,1988-03-01,1988Q3,2.4,2.125209750302459,-0.27479024969754073
1988-04-06,real_gdp,3,1988-03-01,1988Q4,2.5,5.587104405539067,3.0871044055390673
1988-04-06,real_gdp,4,1988-03-01,1989Q1,2.4,4.058268956464417,1.658268956464417
1988-04-06,real_gdp,5,1988-03-01,1989Q2,2.2,2.9904340112270944,0.7904340112270942
1988-04-06,unrate,0,1988-03-01,1988Q1,5.9,5.7,-0.20000000000000018
1988-04-06,unrate,1,1988-03-01,1988Q2,6.0,5.466666666666666,-0.5333333333333341
1988-04-06,unrate,2,1988-03-01,1988Q3,6.0,5.466666666666666,-0.5333333333333341
1988-04-06,unrate,3,1988-03-01,1988Q4,6.0,5.333333333333333,-0.666666666666667
1988-04-06,unrate,4,1988-03-01,1989Q1,6.0,5.2,-0.7999999999999998
1988-04-06,unrate,5,1988-03-01,1989Q2,6.1,5.233333333333333,-0.8666666666666663
1988-05-09,cpi,0,1988-04-01,1988Q2,3.9,4.668029748448688,0.7680297484486878
1988-05-09,cpi,1,1988-04-01,1988Q3,4.2,4.966574789357625,0.7665747893576249
1988-05-09,cpi,2,1988-04-01,1988Q4,4.5,4.441875929858252,-0.05812407014174781
1988-05-09,cpi,3,1988-04-01,1989Q1,4.7,4.6222196185139675,-0.07778038148603272
1988-05-09,cpi,4,1988-04-01,1989Q2,4.7,6.624222048547779,1.9242220485477786
1988-05-09,cpi,5,1988-04-01,1989Q3,4.8,3.164399566443765,-1.6356004335562346
1988-05-09,gdp_price,0,1988-04-01,1988Q2,3.6,4.051719280722343,0.45171928072234335
1988-05-09,gdp_price,1,1988-04-01,1988Q3,3.8,4.9944833312649095,1.1944833312649097
1988-05-09,gdp_price,2,1988-04-01,1988Q4,4.1,3.7386706127772618,-0.3613293872227379
1988-05-09,gdp_price,3,1988-04-01,1989Q1,4.4,3.9250963154181977,-0.47490368458180265
1988-05-09,gdp_price,4,1988-04-01,1989Q2,4.4,4.413653055154065,0.013653055154065008
1988-05-09,gdp_price,5,1988-04-01,1989Q3,4.4,3.009550597717392,-1.3904494022826084
1988-05-09,industrial_production,0,1988-04-01,1988Q2,2.5,3.5454275144150893,1.0454275144150893
1988-05-09,industrial_production,1,1988-04-01,1988Q3,2.9,1.4902244289339617,-1.4097755710660382
1988-05-09,industrial_production,2,1988-04-01,1988Q4,3.3,2.8400965562221714,-0.45990344377782844
1988-05-09,industrial_production,3,1988-04-01,1989Q1,3.3,1.872051537694697,-1.427948462305303
1988-05-09,industrial_production,4,1988-04-01,1989Q2,3.2,-1.5034442233530454,-4.703444223353046
1988-05-09,industrial_production,5,1988-04-01,1989Q3,2.2,-2.4442069761216434,-4.644206976121644
1988-05-09,real_gdp,0,1988-04-01,1988Q2,1.9,5.135245132428312,3.2352451324283122
1988-05-09,real_gdp,1,1988-04-01,1988Q3,2.3,2.125209750302459,-0.17479024969754065
1988-05-09,real_gdp,2,1988-04-01,1988Q4,2.5,5.587104405539067,3.0871044055390673
1988-05-09,real_gdp,3,1988-04-01,1989Q1,2.5,4.058268956464417,1.558268956464417
1988-05-09,real_gdp,4,1988-04-01,1989Q2,2.3,2.9904340112270944,0.6904340112270946
1988-05-09,real_gdp,5,1988-04-01,1989Q3,1.7,3.153118781389397,1.4531187813893969
1988-05-09,unrate,0,1988-04-01,1988Q2,5.8,5.466666666666666,-0.3333333333333339
1988-05-09,unrate,1,1988-04-01,1988Q3,5.8,5.466666666666666,-0.3333333333333339
1988-05-09,unrate,2,1988-04-01,1988Q4,5.8,5.333333333333333,-0.4666666666666668
1988-05-09,unrate,3,1988-04-01,1989Q1,5.8,5.2,-0.5999999999999996
1988-05-09,unrate,4,1988-04-01,1989Q2,5.8,5.233333333333333,-0.5666666666666664
1988-05-09,unrate,5,1988-04-01,1989Q3,5.9,5.233333333333333,-0.666666666666667
1988-05-10,cpi,0,1988-05-01,1988Q2,4.1,4.668029748448688,0.568029748448688
1988-05-10,cpi,1,1988-05-01,1988Q3,4.4,4.966574789357625,0.5665747893576247
1988-05-10,cpi,2,1988-05-01,1988Q4,4.6,4.441875929858252,-0.15812407014174745
1988-05-10,cpi,3,1988-05-01,1989Q1,4.7,4.6222196185139675,-0.07778038148603272
1988-05-10,cpi,4,1988-05-01,1989Q2,4.7,6.624222048547779,1.9242220485477786
1988-05-10,cpi,5,1988-05-01,1989Q3,4.8,3.164399566443765,-1.6356004335562346
1988-05-10,gdp_price,0,1988-05-01,1988Q2,3.6,4.051719280722343,0.45171928072234335
1988-05-10,gdp_price,1,1988-05-01,1988Q3,3.8,4.9944833312649095,1.1944833312649097
1988-05-10,gdp_price,2,1988-05-01,1988Q4,4.0,3.7386706127772618,-0.26132938722273824
1988-05-10,gdp_price,3,1988-05-01,1989Q1,4.3,3.9250963154181977,-0.3749036845818021
1988-05-10,gdp_price,4,1988-05-01,1989Q2,4.3,4.413653055154065,0.11365305515406554
1988-05-10,gdp_price,5,1988-05-01,1989Q3,4.4,3.009550597717392,-1.3904494022826084
1988-05-10,industrial_production,0,1988-05-01,1988Q2,2.7,3.5454275144150893,0.8454275144150891
1988-05-10,industrial_production,1,1988-05-01,1988Q3,3.0,1.4902244289339617,-1.5097755710660383
1988-05-10,industrial_production,2,1988-05-01,1988Q4,3.4,2.8400965562221714,-0.5599034437778285
1988-05-10,industrial_production,3,1988-05-01,1989Q1,3.0,1.872051537694697,-1.127948462305303
1988-05-10,industrial_production,4,1988-05-01,1989Q2,2.5,-1.5034442233530454,-4.003444223353045
1988-05-10,industrial_production,5,1988-05-01,1989Q3,1.6,-2.4442069761216434,-4.044206976121643
1988-05-10,real_gdp,0,1988-05-01,1988Q2,2.0,5.135245132428312,3.135245132428312
1988-05-10,real_gdp,1,1988-05-01,1988Q3,2.4,2.125209750302459,-0.27479024969754073
1988-05-10,real_gdp,2,1988-05-01,1988Q4,2.5,5.587104405539067,3.0871044055390673
1988-05-10,real_gdp,3,1988-05-01,1989Q1,2.3,4.058268956464417,1.7582689564644172
1988-05-10,real_gdp,4,1988-05-01,1989Q2,2.1,2.9904340112270944,0.8904340112270943
1988-05-10,real_gdp,5,1988-05-01,1989Q3,1.4,3.153118781389397,1.753118781389397
1988-05-10,unrate,0,1988-05-01,1988Q2,5.7,5.466666666666666,-0.23333333333333428
1988-05-10,unrate,1,1988-05-01,1988Q3,5.6,5.466666666666666,-0.13333333333333375
1988-05-10,unrate,2,1988-05-01,1988Q4,5.6,5.333333333333333,-0.2666666666666666
1988-05-10,unrate,3,1988-05-01,1989Q1,5.7,5.2,-0.5
1988-05-10,unrate,4,1988-05-01,1989Q2,5.7,5.233333333333333,-0.4666666666666668
1988-05-10,unrate,5,1988-05-01,1989Q3,5.8,5.233333333333333,-0.5666666666666664
1988-05-25,cpi,0,1988-05-01,1988Q2,4.1,4.668029748448688,0.568029748448688
1988-05-25,cpi,1,1988-05-01,1988Q3,4.4,4.966574789357625,0.5665747893576247
1988-05-25,cpi,2,1988-05-01,1988Q4,4.6,4.441875929858252,-0.15812407014174745
1988-05-25,cpi,3,1988-05-01,1989Q1,4.7,4.6222196185139675,-0.07778038148603272
1988-05-25,cpi,4,1988-05-01,1989Q2,4.7,6.624222048547779,1.9242220485477786
1988-05-25,cpi,5,1988-05-01,1989Q3,4.8,3.164399566443765,-1.6356004335562346
1988-05-25,gdp_price,0,1988-05-01,1988Q2,3.6,4.051719280722343,0.45171928072234335
1988-05-25,gdp_price,1,1988-05-01,1988Q3,3.8,4.9944833312649095,1.1944833312649097
1988-05-25,gdp_price,2,1988-05-01,1988Q4,4.0,3.7386706127772618,-0.26132938722273824
1988-05-25,gdp_price,3,1988-05-01,1989Q1,4.3,3.9250963154181977,-0.3749036845818021
1988-05-25,gdp_price,4,1988-05-01,1989Q2,4.3,4.413653055154065,0.11365305515406554
1988-05-25,gdp_price,5,1988-05-01,1989Q3,4.4,3.009550597717392,-1.3904494022826084
1988-05-25,industrial_production,0,1988-05-01,1988Q2,2.7,3.5454275144150893,0.8454275144150891
1988-05-25,industrial_production,1,1988-05-01,1988Q3,3.0,1.4902244289339617,-1.5097755710660383
1988-05-25,industrial_production,2,1988-05-01,1988Q4,3.4,2.8400965562221714,-0.5599034437778285
1988-05-25,industrial_production,3,1988-05-01,1989Q1,3.0,1.872051537694697,-1.127948462305303
1988-05-25,industrial_production,4,1988-05-01,1989Q2,2.5,-1.5034442233530454,-4.003444223353045
1988-05-25,industrial_production,5,1988-05-01,1989Q3,1.6,-2.4442069761216434,-4.044206976121643
1988-05-25,real_gdp,0,1988-05-01,1988Q2,2.0,5.135245132428312,3.135245132428312
1988-05-25,real_gdp,1,1988-05-01,1988Q3,2.4,2.125209750302459,-0.27479024969754073
1988-05-25,real_gdp,2,1988-05-01,1988Q4,2.5,5.587104405539067,3.0871044055390673
1988-05-25,real_gdp,3,1988-05-01,1989Q1,2.3,4.058268956464417,1.7582689564644172
1988-05-25,real_gdp,4,1988-05-01,1989Q2,2.1,2.9904340112270944,0.8904340112270943
1988-05-25,real_gdp,5,1988-05-01,1989Q3,1.4,3.153118781389397,1.753118781389397
1988-05-25,unrate,0,1988-05-01,1988Q2,5.7,5.466666666666666,-0.23333333333333428
1988-05-25,unrate,1,1988-05-01,1988Q3,5.6,5.466666666666666,-0.13333333333333375
1988-05-25,unrate,2,1988-05-01,1988Q4,5.6,5.333333333333333,-0.2666666666666666
1988-05-25,unrate,3,1988-05-01,1989Q1,5.7,5.2,-0.5
1988-05-25,unrate,4,1988-05-01,1989Q2,5.7,5.233333333333333,-0.4666666666666668
1988-05-25,unrate,5,1988-05-01,1989Q3,5.8,5.233333333333333,-0.5666666666666664
1988-05-26,cpi,0,1988-05-01,1988Q2,4.1,4.668029748448688,0.568029748448688
1988-05-26,cpi,1,1988-05-01,1988Q3,4.4,4.966574789357625,0.5665747893576247
1988-05-26,cpi,2,1988-05-01,1988Q4,4.6,4.441875929858252,-0.15812407014174745
1988-05-26,cpi,3,1988-05-01,1989Q1,4.7,4.6222196185139675,-0.07778038148603272
1988-05-26,cpi,4,1988-05-01,1989Q2,4.7,6.624222048547779,1.9242220485477786
1988-05-26,cpi,5,1988-05-01,1989Q3,4.8,3.164399566443765,-1.6356004335562346
1988-05-26,gdp_price,0,1988-05-01,1988Q2,3.6,4.051719280722343,0.45171928072234335
1988-05-26,gdp_price,1,1988-05-01,1988Q3,3.8,4.9944833312649095,1.1944833312649097
1988-05-26,gdp_price,2,1988-05-01,1988Q4,4.0,3.7386706127772618,-0.26132938722273824
1988-05-26,gdp_price,3,1988-05-01,1989Q1,4.3,3.9250963154181977,-0.3749036845818021
1988-05-26,gdp_price,4,1988-05-01,1989Q2,4.3,4.413653055154065,0.11365305515406554
1988-05-26,gdp_price,5,1988-05-01,1989Q3,4.4,3.009550597717392,-1.3904494022826084
1988-05-26,industrial_production,0,1988-05-01,1988Q2,2.7,3.5454275144150893,0.8454275144150891
1988-05-26,industrial_production,1,1988-05-01,1988Q3,3.0,1.4902244289339617,-1.5097755710660383
1988-05-26,industrial_production,2,1988-05-01,1988Q4,3.4,2.8400965562221714,-0.5599034437778285
1988-05-26,industrial_production,3,1988-05-01,1989Q1,3.0,1.872051537694697,-1.127948462305303
1988-05-26,industrial_production,4,1988-05-01,1989Q2,2.5,-1.5034442233530454,-4.003444223353045
1988-05-26,industrial_production,5,1988-05-01,1989Q3,1.6,-2.4442069761216434,-4.044206976121643
1988-05-26,real_gdp,0,1988-05-01,1988Q2,2.0,5.135245132428312,3.135245132428312
1988-05-26,real_gdp,1,1988-05-01,1988Q3,2.4,2.125209750302459,-0.27479024969754073
1988-05-26,real_gdp,2,1988-05-01,1988Q4,2.5,5.587104405539067,3.0871044055390673
1988-05-26,real_gdp,3,1988-05-01,1989Q1,2.3,4.058268956464417,1.7582689564644172
1988-05-26,real_gdp,4,1988-05-01,1989Q2,2.1,2.9904340112270944,0.8904340112270943
1988-05-26,real_gdp,5,1988-05-01,1989Q3,1.4,3.153118781389397,1.753118781389397
1988-05-26,unrate,0,1988-05-01,1988Q2,5.7,5.466666666666666,-0.23333333333333428
1988-05-26,unrate,1,1988-05-01,1988Q3,5.6,5.466666666666666,-0.13333333333333375
1988-05-26,unrate,2,1988-05-01,1988Q4,5.6,5.333333333333333,-0.2666666666666666
1988-05-26,unrate,3,1988-05-01,1989Q1,5.7,5.2,-0.5
1988-05-26,unrate,4,1988-05-01,1989Q2,5.7,5.233333333333333,-0.4666666666666668
1988-05-26,unrate,5,1988-05-01,1989Q3,5.8,5.233333333333333,-0.5666666666666664
1988-06-17,cpi,0,1988-06-01,1988Q2,4.4,4.668029748448688,0.2680297484486873
1988-06-17,cpi,1,1988-06-01,1988Q3,4.5,4.966574789357625,0.4665747893576251
1988-06-17,cpi,2,1988-06-01,1988Q4,4.6,4.441875929858252,-0.15812407014174745
1988-06-17,cpi,3,1988-06-01,1989Q1,4.8,4.6222196185139675,-0.17778038148603237
1988-06-17,cpi,4,1988-06-01,1989Q2,4.8,6.624222048547779,1.824222048547779
1988-06-17,cpi,5,1988-06-01,1989Q3,4.8,3.164399566443765,-1.6356004335562346
1988-06-17,gdp_price,0,1988-06-01,1988Q2,3.6,4.051719280722343,0.45171928072234335
1988-06-17,gdp_price,1,1988-06-01,1988Q3,3.8,4.9944833312649095,1.1944833312649097
1988-06-17,gdp_price,2,1988-06-01,1988Q4,3.9,3.7386706127772618,-0.16132938722273815
1988-06-17,gdp_price,3,1988-06-01,1989Q1,4.3,3.9250963154181977,-0.3749036845818021
1988-06-17,gdp_price,4,1988-06-01,1989Q2,4.4,4.413653055154065,0.013653055154065008
1988-06-17,gdp_price,5,1988-06-01,1989Q3,4.4,3.009550597717392,-1.3904494022826084
1988-06-17,industrial_production,0,1988-06-01,1988Q2,3.6,3.5454275144150893,-0.05457248558491079
1988-06-17,industrial_production,1,1988-06-01,1988Q3,3.5,1.4902244289339617,-2.0097755710660383
1988-06-17,industrial_production,2,1988-06-01,1988Q4,3.4,2.8400965562221714,-0.5599034437778285
1988-06-17,industrial_production,3,1988-06-01,1989Q1,2.9,1.872051537694697,-1.027948462305303
1988-06-17,industrial_production,4,1988-06-01,1989Q2,2.3,-1.5034442233530454,-3.803444223353045
1988-06-17,industrial_production,5,1988-06-01,1989Q3,1.8,-2.4442069761216434,-4.244206976121643
1988-06-17,real_gdp,0,1988-06-01,1988Q2,2.3,5.135245132428312,2.8352451324283123
1988-06-17,real_gdp,1,1988-06-01,1988Q3,2.4,2.125209750302459,-0.27479024969754073
1988-06-17,real_gdp,2,1988-06-01,1988Q4,2.6,5.587104405539067,2.987104405539067
1988-06-17,real_gdp,3,1988-06-01,1989Q1,2.3,4.058268956464417,1.7582689564644172
1988-06-17,real_gdp,4,1988-06-01,1989Q2,2.0,2.9904340112270944,0.9904340112270944
1988-06-17,real_gdp,5,1988-06-01,1989Q3,1.5,3.153118781389397,1.6531187813893968
1988-06-17,unrate,0,1988-06-01,1988Q2,5.5,5.466666666666666,-0.0333333333333341
1988-06-17,unrate,1,1988-06-01,1988Q3,5.5,5.466666666666666,-0.0333333333333341
1988-06-17,unrate,2,1988-06-01,1988Q4,5.4,5.333333333333333,-0.06666666666666732
1988-06-17,unrate,3,1988-06-01,1989Q1,5.5,5.2,-0.2999999999999998
1988-06-17,unrate,4,1988-06-01,1989Q2,5.6,5.233333333333333,-0.36666666666666625
1988-06-17,unrate,5,1988-06-01,1989Q3,5.7,5.233333333333333,-0.4666666666666668
1988-06-20,cpi,0,1988-06-01,1988Q2,4.4,4.668029748448688,0.2680297484486873
1988-06-20,cpi,1,1988-06-01,1988Q3,4.5,4.966574789357625,0.4665747893576251
1988-06-20,cpi,2,1988-06-01,1988Q4,4.6,4.441875929858252,-0.15812407014174745
1988-06-20,cpi,3,1988-06-01,1989Q1,4.8,4.6222196185139675,-0.17778038148603237
1988-06-20,cpi,4,1988-06-01,1989Q2,4.8,6.624222048547779,1.824222048547779
1988-06-20,cpi,5,1988-06-01,1989Q3,4.8,3.164399566443765,-1.6356004335562346
1988-06-20,gdp_price,0,1988-06-01,1988Q2,3.6,4.051719280722343,0.45171928072234335
1988-06-20,gdp_price,1,1988-06-01,1988Q3,3.8,4.9944833312649095,1.1944833312649097
1988-06-20,gdp_price,2,1988-06-01,1988Q4,3.9,3.7386706127772618,-0.16132938722273815
1988-06-20,gdp_price,3,1988-06-01,1989Q1,4.3,3.9250963154181977,-0.3749036845818021
1988-06-20,gdp_price,4,1988-06-01,1989Q2,4.4,4.413653055154065,0.013653055154065008
1988-06-20,gdp_price,5,1988-06-01,1989Q3,4.4,3.009550597717392,-1.3904494022826084
1988-06-20,industrial_production,0,1988-06-01,1988Q2,3.6,3.5454275144150893,-0.05457248558491079
1988-06-20,industrial_production,1,1988-06-01,1988Q3,3.5,1.4902244289339617,-2.0097755710660383
1988-06-20,industrial_production,2,1988-06-01,1988Q4,3.4,2.8400965562221714,-0.5599034437778285
1988-06-20,industrial_production,3,1988-06-01,1989Q1,2.9,1.872051537694697,-1.027948462305303
1988-06-20,industrial_production,4,1988-06-01,1989Q2,2.3,-1.5034442233530454,-3.803444223353045
1988-06-20,industrial_production,5,1988-06-01,1989Q3,1.8,-2.4442069761216434,-4.244206976121643
1988-06-20,real_gdp,0,1988-06-01,1988Q2,2.3,5.135245132428312,2.8352451324283123
1988-06-20,real_gdp,1,1988-06-01,1988Q3,2.4,2.125209750302459,-0.27479024969754073
1988-06-20,real_gdp,2,1988-06-01,1988Q4,2.6,5.587104405539067,2.987104405539067
1988-06-20,real_gdp,3,1988-06-01,1989Q1,2.3,4.058268956464417,1.7582689564644172
1988-06-20,real_gdp,4,1988-06-01,1989Q2,2.0,2.9904340112270944,0.9904340112270944
1988-06-20,real_gdp,5,1988-06-01,1989Q3,1.5,3.153118781389397,1.6531187813893968
1988-06-20,unrate,0,1988-06-01,1988Q2,5.5,5.466666666666666,-0.0333333333333341
1988-06-20,unrate,1,1988-06-01,1988Q3,5.5,5.466666666666666,-0.0333333333333341
1988-06-20,unrate,2,1988-06-01,1988Q4,5.4,5.333333333333333,-0.06666666666666732
1988-06-20,unrate,3,1988-06-01,1989Q1,5.5,5.2,-0.2999999999999998
1988-06-20,unrate,4,1988-06-01,1989Q2,5.6,5.233333333333333,-0.36666666666666625
1988-06-20,unrate,5,1988-06-01,1989Q3,5.7,5.233333333333333,-0.4666666666666668
1988-07-19,cpi,0,1988-07-01,1988Q3,4.7,4.966574789357625,0.2665747893576249
1988-07-19,cpi,1,1988-07-01,1988Q4,4.8,4.441875929858252,-0.35812407014174763
1988-07-19,cpi,2,1988-07-01,1989Q1,5.0,4.6222196185139675,-0.37778038148603255
1988-07-19,cpi,3,1988-07-01,1989Q2,5.0,6.624222048547779,1.6242220485477787
1988-07-19,cpi,4,1988-07-01,1989Q3,4.9,3.164399566443765,-1.7356004335562352
1988-07-19,cpi,5,1988-07-01,1989Q4,4.9,4.1287738187626655,-0.7712261812373349
1988-07-19,gdp_price,0,1988-07-01,1988Q3,3.9,4.9944833312649095,1.0944833312649096
1988-07-19,gdp_price,1,1988-07-01,1988Q4,4.1,3.7386706127772618,-0.3613293872227379
1988-07-19,gdp_price,2,1988-07-01,1989Q1,4.5,3.9250963154181977,-0.5749036845818023
1988-07-19,gdp_price,3,1988-07-01,1989Q2,4.4,4.413653055154065,0.013653055154065008
1988-07-19,gdp_price,4,1988-07-01,1989Q3,4.5,3.009550597717392,-1.490449402282608
1988-07-19,gdp_price,5,1988-07-01,1989Q4,4.4,2.7735556339689493,-1.626444366031051
1988-07-19,industrial_production,0,1988-07-01,1988Q3,3.6,1.4902244289339617,-2.1097755710660384
1988-07-19,industrial_production,1,1988-07-01,1988Q4,3.3,2.8400965562221714,-0.45990344377782844
1988-07-19,industrial_production,2,1988-07-01,1989Q1,3.0,1.872051537694697,-1.127948462305303
1988-07-19,industrial_production,3,1988-07-01,1989Q2,2.3,-1.5034442233530454,-3.803444223353045
1988-07-19,industrial_production,4,1988-07-01,1989Q3,1.6,-2.4442069761216434,-4.044206976121643
1988-07-19,industrial_production,5,1988-07-01,1989Q4,1.4,1.5637683877378183,0.16376838773781843
1988-07-19,real_gdp,0,1988-07-01,1988Q3,2.4,2.125209750302459,-0.27479024969754073
1988-07-19,real_gdp,1,1988-07-01,1988Q4,2.5,5.587104405539067,3.0871044055390673
1988-07-19,real_gdp,2,1988-07-01,1989Q1,2.4,4.058268956464417,1.658268956464417
1988-07-19,real_gdp,3,1988-07-01,1989Q2,2.0,2.9904340112270944,0.9904340112270944
1988-07-19,real_gdp,4,1988-07-01,1989Q3,1.5,3.153118781389397,1.6531187813893968
1988-07-19,real_gdp,5,1988-07-01,1989Q4,1.7,1.2158127084984205,-0.48418729150157946
1988-07-19,unrate,0,1988-07-01,1988Q3,5.5,5.466666666666666,-0.0333333333333341
1988-07-19,unrate,1,1988-07-01,1988Q4,5.5,5.333333333333333,-0.16666666666666696
1988-07-19,unrate,2,1988-07-01,1989Q1,5.5,5.2,-0.2999999999999998
1988-07-19,unrate,3,1988-07-01,1989Q2,5.6,5.233333333333333,-0.36666666666666625
1988-07-19,unrate,4,1988-07-01,1989Q3,5.7,5.233333333333333,-0.4666666666666668
1988-07-19,unrate,5,1988-07-01,1989Q4,5.8,5.366666666666667,-0.4333333333333327
1988-07-20,cpi,0,1988-07-01,1988Q3,4.7,4.966574789357625,0.2665747893576249
1988-07-20,cpi,1,1988-07-01,1988Q4,4.8,4.441875929858252,-0.35812407014174763
1988-07-20,cpi,2,1988-07-01,1989Q1,5.0,4.6222196185139675,-0.37778038148603255
1988-07-20,cpi,3,1988-07-01,1989Q2,5.0,6.624222048547779,1.6242220485477787
1988-07-20,cpi,4,1988-07-01,1989Q3,4.9,3.164399566443765,-1.7356004335562352
1988-07-20,cpi,5,1988-07-01,1989Q4,4.9,4.1287738187626655,-0.7712261812373349
1988-07-20,gdp_price,0,1988-07-01,1988Q3,3.9,4.9944833312649095,1.0944833312649096
1988-07-20,gdp_price,1,1988-07-01,1988Q4,4.1,3.7386706127772618,-0.3613293872227379
1988-07-20,gdp_price,2,1988-07-01,1989Q1,4.5,3.9250963154181977,-0.5749036845818023
1988-07-20,gdp_price,3,1988-07-01,1989Q2,4.4,4.413653055154065,0.013653055154065008
1988-07-20,gdp_price,4,1988-07-01,1989Q3,4.5,3.009550597717392,-1.490449402282608
1988-07-20,gdp_price,5,1988-07-01,1989Q4,4.4,2.7735556339689493,-1.626444366031051
1988-07-20,industrial_production,0,1988-07-01,1988Q3,3.6,1.4902244289339617,-2.1097755710660384
1988-07-20,industrial_production,1,1988-07-01,1988Q4,3.3,2.8400965562221714,-0.45990344377782844
1988-07-20,industrial_production,2,1988-07-01,1989Q1,3.0,1.872051537694697,-1.127948462305303
1988-07-20,industrial_production,3,1988-07-01,1989Q2,2.3,-1.5034442233530454,-3.803444223353045
1988-07-20,industrial_production,4,1988-07-01,1989Q3,1.6,-2.4442069761216434,-4.044206976121643
1988-07-20,industrial_production,5,1988-07-01,1989Q4,1.4,1.5637683877378183,0.16376838773781843
1988-07-20,real_gdp,0,1988-07-01,1988Q3,2.4,2.125209750302459,-0.27479024969754073
1988-07-20,real_gdp,1,1988-07-01,1988Q4,2.5,5.587104405539067,3.0871044055390673
1988-07-20,real_gdp,2,1988-07-01,1989Q1,2.4,4.058268956464417,1.658268956464417
1988-07-20,real_gdp,3,1988-07-01,1989Q2,2.0,2.9904340112270944,0.9904340112270944
1988-07-20,real_gdp,4,1988-07-01,1989Q3,1.5,3.153118781389397,1.6531187813893968
1988-07-20,real_gdp,5,1988-07-01,1989Q4,1.7,1.2158127084984205,-0.48418729150157946
1988-07-20,unrate,0,1988-07-01,1988Q3,5.5,5.466666666666666,-0.0333333333333341
1988-07-20,unrate,1,1988-07-01,1988Q4,5.5,5.333333333333333,-0.16666666666666696
1988-07-20,unrate,2,1988-07-01,1989Q1,5.5,5.2,-0.2999999999999998
1988-07-20,unrate,3,1988-07-01,1989Q2,5.6,5.233333333333333,-0.36666666666666625
1988-07-20,unrate,4,1988-07-01,1989Q3,5.7,5.233333333333333,-0.4666666666666668
1988-07-20,unrate,5,1988-07-01,1989Q4,5.8,5.366666666666667,-0.4333333333333327
1988-08-09,cpi,0,1988-07-01,1988Q3,4.7,4.966574789357625,0.2665747893576249
1988-08-09,cpi,1,1988-07-01,1988Q4,4.8,4.441875929858252,-0.35812407014174763
1988-08-09,cpi,2,1988-07-01,1989Q1,5.0,4.6222196185139675,-0.37778038148603255
1988-08-09,cpi,3,1988-07-01,1989Q2,5.0,6.624222048547779,1.6242220485477787
1988-08-09,cpi,4,1988-07-01,1989Q3,4.9,3.164399566443765,-1.7356004335562352
1988-08-09,cpi,5,1988-07-01,1989Q4,4.9,4.1287738187626655,-0.7712261812373349
1988-08-09,gdp_price,0,1988-07-01,1988Q3,3.9,4.9944833312649095,1.0944833312649096
1988-08-09,gdp_price,1,1988-07-01,1988Q4,4.1,3.7386706127772618,-0.3613293872227379
1988-08-09,gdp_price,2,1988-07-01,1989Q1,4.5,3.9250963154181977,-0.5749036845818023
1988-08-09,gdp_price,3,1988-07-01,1989Q2,4.4,4.413653055154065,0.013653055154065008
1988-08-09,gdp_price,4,1988-07-01,1989Q3,4.5,3.009550597717392,-1.490449402282608
1988-08-09,gdp_price,5,1988-07-01,1989Q4,4.4,2.7735556339689493,-1.626444366031051
1988-08-09,industrial_production,0,1988-07-01,1988Q3,3.6,1.4902244289339617,-2.1097755710660384
1988-08-09,industrial_production,1,1988-07-01,1988Q4,3.3,2.8400965562221714,-0.45990344377782844
1988-08-09,industrial_production,2,1988-07-01,1989Q1,3.0,1.872051537694697,-1.127948462305303
1988-08-09,industrial_production,3,1988-07-01,1989Q2,2.3,-1.5034442233530454,-3.803444223353045
1988-08-09,industrial_production,4,1988-07-01,1989Q3,1.6,-2.4442069761216434,-4.044206976121643
1988-08-09,industrial_production,5,1988-07-01,1989Q4,1.4,1.5637683877378183,0.16376838773781843
1988-08-09,real_gdp,0,1988-07-01,1988Q3,2.4,2.125209750302459,-0.27479024969754073
1988-08-09,real_gdp,1,1988-07-01,1988Q4,2.5,5.587104405539067,3.0871044055390673
1988-08-09,real_gdp,2,1988-07-01,1989Q1,2.4,4.058268956464417,1.658268956464417
1988-08-09,real_gdp,3,1988-07-01,1989Q2,2.0,2.9904340112270944,0.9904340112270944
1988-08-09,real_gdp,4,1988-07-01,1989Q3,1.5,3.153118781389397,1.6531187813893968
1988-08-09,real_gdp,5,1988-07-01,1989Q4,1.7,1.2158127084984205,-0.48418729150157946
1988-08-09,unrate,0,1988-07-01,1988Q3,5.5,5.466666666666666,-0.0333333333333341
1988-08-09,unrate,1,1988-07-01,1988Q4,5.5,5.333333333333333,-0.16666666666666696
1988-08-09,unrate,2,1988-07-01,1989Q1,5.5,5.2,-0.2999999999999998
1988-08-09,unrate,3,1988-07-01,1989Q2,5.6,5.233333333333333,-0.36666666666666625
1988-08-09,unrate,4,1988-07-01,1989Q3,5.7,5.233333333333333,-0.4666666666666668
1988-08-09,unrate,5,1988-07-01,1989Q4,5.8,5.366666666666667,-0.4333333333333327
1988-11-07,cpi,0,1988-10-01,1988Q4,4.8,4.441875929858252,-0.35812407014174763
1988-11-07,cpi,1,1988-10-01,1989Q1,4.9,4.6222196185139675,-0.2777803814860329
1988-11-07,cpi,2,1988-10-01,1989Q2,4.9,6.624222048547779,1.7242220485477784
1988-11-07,cpi,3,1988-10-01,1989Q3,4.8,3.164399566443765,-1.6356004335562346
1988-11-07,cpi,4,1988-10-01,1989Q4,4.8,4.1287738187626655,-0.6712261812373344
1988-11-07,gdp_price,0,1988-10-01,1988Q4,4.2,3.7386706127772618,-0.4613293872227384
1988-11-07,gdp_price,1,1988-10-01,1989Q1,4.4,3.9250963154181977,-0.47490368458180265
1988-11-07,gdp_price,2,1988-10-01,1989Q2,4.5,4.413653055154065,-0.08634694484593464
1988-11-07,gdp_price,3,1988-10-01,1989Q3,4.4,3.009550597717392,-1.3904494022826084
1988-11-07,gdp_price,4,1988-10-01,1989Q4,4.3,2.7735556339689493,-1.5264443660310505
1988-11-07,industrial_production,0,1988-10-01,1988Q4,4.1,2.8400965562221714,-1.2599034437778283
1988-11-07,industrial_production,1,1988-10-01,1989Q1,3.1,1.872051537694697,-1.2279484623053032
1988-11-07,industrial_production,2,1988-10-01,1989Q2,2.6,-1.5034442233530454,-4.103444223353046
1988-11-07,industrial_production,3,1988-10-01,1989Q3,1.7,-2.4442069761216434,-4.144206976121644
1988-11-07,industrial_production,4,1988-10-01,1989Q4,0.8,1.5637683877378183,0.7637683877378183
1988-11-07,real_gdp,0,1988-10-01,1988Q4,2.5,5.587104405539067,3.0871044055390673
1988-11-07,real_gdp,1,1988-10-01,1989Q1,3.4,4.058268956464417,0.6582689564644171
1988-11-07,real_gdp,2,1988-10-01,1989Q2,1.9,2.9904340112270944,1.0904340112270945
1988-11-07,real_gdp,3,1988-10-01,1989Q3,1.3,3.153118781389397,1.8531187813893968
1988-11-07,real_gdp,4,1988-10-01,1989Q4,1.2,1.2158127084984205,0.015812708498420536
1988-11-07,unrate,0,1988-10-01,1988Q4,5.4,5.333333333333333,-0.06666666666666732
1988-11-07,unrate,1,1988-10-01,1989Q1,5.4,5.2,-0.20000000000000018
1988-11-07,unrate,2,1988-10-01,1989Q2,5.4,5.233333333333333,-0.16666666666666696
1988-11-07,unrate,3,1988-10-01,1989Q3,5.5,5.233333333333333,-0.2666666666666666
1988-11-07,unrate,4,1988-10-01,1989Q4,5.7,5.366666666666667,-0.33333333333333304
1988-11-08,cpi,0,1988-10-01,1988Q4,4.8,4.441875929858252,-0.35812407014174763
1988-11-08,cpi,1,1988-10-01,1989Q1,4.9,4.6222196185139675,-0.2777803814860329
1988-11-08,cpi,2,1988-10-01,1989Q2,4.9,6.624222048547779,1.7242220485477784
1988-11-08,cpi,3,1988-10-01,1989Q3,4.8,3.164399566443765,-1.6356004335562346
1988-11-08,cpi,4,1988-10-01,1989Q4,4.8,4.1287738187626655,-0.6712261812373344
1988-11-08,gdp_price,0,1988-10-01,1988Q4,4.2,3.7386706127772618,-0.4613293872227384
1988-11-08,gdp_price,1,1988-10-01,1989Q1,4.4,3.9250963154181977,-0.47490368458180265
1988-11-08,gdp_price,2,1988-10-01,1989Q2,4.5,4.413653055154065,-0.08634694484593464
1988-11-08,gdp_price,3,1988-10-01,1989Q3,4.4,3.009550597717392,-1.3904494022826084
1988-11-08,gdp_price,4,1988-10-01,1989Q4,4.3,2.7735556339689493,-1.5264443660310505
1988-11-08,industrial_production,0,1988-10-01,1988Q4,4.1,2.8400965562221714,-1.2599034437778283
1988-11-08,industrial_production,1,1988-10-01,1989Q1,3.1,1.872051537694697,-1.2279484623053032
1988-11-08,industrial_production,2,1988-10-01,1989Q2,2.6,-1.5034442233530454,-4.103444223353046
1988-11-08,industrial_production,3,1988-10-01,1989Q3,1.7,-2.4442069761216434,-4.144206976121644
1988-11-08,industrial_production,4,1988-10-01,1989Q4,0.8,1.5637683877378183,0.7637683877378183
1988-11-08,real_gdp,0,1988-10-01,1988Q4,2.5,5.587104405539067,3.0871044055390673
1988-11-08,real_gdp,1,1988-10-01,1989Q1,3.4,4.058268956464417,0.6582689564644171
1988-11-08,real_gdp,2,1988-10-01,1989Q2,1.9,2.9904340112270944,1.0904340112270945
1988-11-08,real_gdp,3,1988-10-01,1989Q3,1.3,3.153118781389397,1.8531187813893968
1988-11-08,real_gdp,4,1988-10-01,1989Q4,1.2,1.2158127084984205,0.015812708498420536
1988-11-08,unrate,0,1988-10-01,1988Q4,5.4,5.333333333333333,-0.06666666666666732
1988-11-08,unrate,1,1988-10-01,1989Q1,5.4,5.2,-0.20000000000000018
1988-11-08,unrate,2,1988-10-01,1989Q2,5.4,5.233333333333333,-0.16666666666666696
1988-11-08,unrate,3,1988-10-01,1989Q3,5.5,5.233333333333333,-0.2666666666666666
1988-11-08,unrate,4,1988-10-01,1989Q4,5.7,5.366666666666667,-0.33333333333333304
1989-01-06,cpi,0,1988-12-01,1988Q4,4.6,4.441875929858252,-0.15812407014174745
1989-01-06,cpi,1,1988-12-01,1989Q1,4.6,4.6222196185139675,0.02221961851396781
1989-01-06,cpi,2,1988-12-01,1989Q2,4.7,6.624222048547779,1.9242220485477786
1989-01-06,cpi,3,1988-12-01,1989Q3,4.7,3.164399566443765,-1.535600433556235
1989-01-06,cpi,4,1988-12-01,1989Q4,4.7,4.1287738187626655,-0.5712261812373347
1989-01-06,gdp_price,0,1988-12-01,1988Q4,4.1,3.7386706127772618,-0.3613293872227379
1989-01-06,gdp_price,1,1988-12-01,1989Q1,4.2,3.9250963154181977,-0.2749036845818025
1989-01-06,gdp_price,2,1988-12-01,1989Q2,4.2,4.413653055154065,0.21365305515406519
1989-01-06,gdp_price,3,1988-12-01,1989Q3,4.2,3.009550597717392,-1.1904494022826082
1989-01-06,gdp_price,4,1988-12-01,1989Q4,4.1,2.7735556339689493,-1.3264443660310503
1989-01-06,industrial_production,0,1988-12-01,1988Q4,3.6,2.8400965562221714,-0.7599034437778287
1989-01-06,industrial_production,1,1988-12-01,1989Q1,3.0,1.872051537694697,-1.127948462305303
1989-01-06,industrial_production,2,1988-12-01,1989Q2,2.7,-1.5034442233530454,-4.203444223353046
1989-01-06,industrial_production,3,1988-12-01,1989Q3,1.9,-2.4442069761216434,-4.344206976121644
1989-01-06,industrial_production,4,1988-12-01,1989Q4,1.2,1.5637683877378183,0.3637683877378184
1989-01-06,real_gdp,0,1988-12-01,1988Q4,2.2,5.587104405539067,3.387104405539067
1989-01-06,real_gdp,1,1988-12-01,1989Q1,3.6,4.058268956464417,0.4582689564644169
1989-01-06,real_gdp,2,1988-12-01,1989Q2,2.0,2.9904340112270944,0.9904340112270944
1989-01-06,real_gdp,3,1988-12-01,1989Q3,1.6,3.153118781389397,1.5531187813893967
1989-01-06,real_gdp,4,1988-12-01,1989Q4,1.4,1.2158127084984205,-0.18418729150157942
1989-01-06,unrate,0,1988-12-01,1988Q4,5.4,5.333333333333333,-0.06666666666666732
1989-01-06,unrate,1,1988-12-01,1989Q1,5.4,5.2,-0.20000000000000018
1989-01-06,unrate,2,1988-12-01,1989Q2,5.4,5.233333333333333,-0.16666666666666696
1989-01-06,unrate,3,1988-12-01,1989Q3,5.5,5.233333333333333,-0.2666666666666666
1989-01-06,unrate,4,1988-12-01,1989Q4,5.6,5.366666666666667,-0.2333333333333325
1989-01-09,cpi,0,1988-12-01,1988Q4,4.6,4.441875929858252,-0.15812407014174745
1989-01-09,cpi,1,1988-12-01,1989Q1,4.6,4.6222196185139675,0.02221961851396781
1989-01-09,cpi,2,1988-12-01,1989Q2,4.7,6.624222048547779,1.9242220485477786
1989-01-09,cpi,3,1988-12-01,1989Q3,4.7,3.164399566443765,-1.535600433556235
1989-01-09,cpi,4,1988-12-01,1989Q4,4.7,4.1287738187626655,-0.5712261812373347
1989-01-09,gdp_price,0,1988-12-01,1988Q4,4.1,3.7386706127772618,-0.3613293872227379
1989-01-09,gdp_price,1,1988-12-01,1989Q1,4.2,3.9250963154181977,-0.2749036845818025
1989-01-09,gdp_price,2,1988-12-01,1989Q2,4.2,4.413653055154065,0.21365305515406519
1989-01-09,gdp_price,3,1988-12-01,1989Q3,4.2,3.009550597717392,-1.1904494022826082
1989-01-09,gdp_price,4,1988-12-01,1989Q4,4.1,2.7735556339689493,-1.3264443660310503
1989-01-09,industrial_production,0,1988-12-01,1988Q4,3.6,2.8400965562221714,-0.7599034437778287
1989-01-09,industrial_production,1,1988-12-01,1989Q1,3.0,1.872051537694697,-1.127948462305303
1989-01-09,industrial_production,2,1988-12-01,1989Q2,2.7,-1.5034442233530454,-4.203444223353046
1989-01-09,industrial_production,3,1988-12-01,1989Q3,1.9,-2.4442069761216434,-4.344206976121644
1989-01-09,industrial_production,4,1988-12-01,1989Q4,1.2,1.5637683877378183,0.3637683877378184
1989-01-09,real_gdp,0,1988-12-01,1988Q4,2.2,5.587104405539067,3.387104405539067
1989-01-09,real_gdp,1,1988-12-01,1989Q1,3.6,4.058268956464417,0.4582689564644169
1989-01-09,real_gdp,2,1988-12-01,1989Q2,2.0,2.9904340112270944,0.9904340112270944
1989-01-09,real_gdp,3,1988-12-01,1989Q3,1.6,3.153118781389397,1.5531187813893967
1989-01-09,real_gdp,4,1988-12-01,1989Q4,1.4,1.2158127084984205,-0.18418729150157942
1989-01-09,unrate,0,1988-12-01,1988Q4,5.4,5.333333333333333,-0.06666666666666732
1989-01-09,unrate,1,1988-12-01,1989Q1,5.4,5.2,-0.20000000000000018
1989-01-09,unrate,2,1988-12-01,1989Q2,5.4,5.233333333333333,-0.16666666666666696
1989-01-09,unrate,3,1988-12-01,1989Q3,5.5,5.233333333333333,-0.2666666666666666
1989-01-09,unrate,4,1988-12-01,1989Q4,5.6,5.366666666666667,-0.2333333333333325
1989-01-10,cpi,0,1989-01-01,1989Q1,4.8,4.6222196185139675,-0.17778038148603237
1989-01-10,cpi,1,1989-01-01,1989Q2,4.7,6.624222048547779,1.9242220485477786
1989-01-10,cpi,2,1989-01-01,1989Q3,4.8,3.164399566443765,-1.6356004335562346
1989-01-10,cpi,3,1989-01-01,1989Q4,4.8,4.1287738187626655,-0.6712261812373344
1989-01-10,cpi,4,1989-01-01,1990Q1,4.8,7.06543507578159,2.26543507578159
1989-01-10,cpi,5,1989-01-01,1990Q2,4.7,4.016416990809968,-0.6835830091900323
1989-01-10,gdp_price,0,1989-01-01,1989Q1,4.3,3.9250963154181977,-0.3749036845818021
1989-01-10,gdp_price,1,1989-01-01,1989Q2,4.4,4.413653055154065,0.013653055154065008
1989-01-10,gdp_price,2,1989-01-01,1989Q3,4.4,3.009550597717392,-1.3904494022826084
1989-01-10,gdp_price,3,1989-01-01,1989Q4,4.3,2.7735556339689493,-1.5264443660310505
1989-01-10,gdp_price,4,1989-01-01,1990Q1,4.4,4.4527984296597545,0.05279842965975412
1989-01-10,gdp_price,5,1989-01-01,1990Q2,4.3,4.566483919008868,0.26648391900886814
1989-01-10,industrial_production,0,1989-01-01,1989Q1,3.3,1.872051537694697,-1.427948462305303
1989-01-10,industrial_production,1,1989-01-01,1989Q2,2.6,-1.5034442233530454,-4.103444223353046
1989-01-10,industrial_production,2,1989-01-01,1989Q3,2.0,-2.4442069761216434,-4.444206976121643
1989-01-10,industrial_production,3,1989-01-01,1989Q4,1.2,1.5637683877378183,0.3637683877378184
1989-01-10,industrial_production,4,1989-01-01,1990Q1,1.6,3.0016192384209273,1.4016192384209272
1989-01-10,industrial_production,5,1989-01-01,1990Q2,1.5,2.7749841613382342,1.2749841613382342
1989-01-10,real_gdp,0,1989-01-01,1989Q1,4.3,4.058268956464417,-0.24173104353558283
1989-01-10,real_gdp,1,1989-01-01,1989Q2,2.1,2.9904340112270944,0.8904340112270943
1989-01-10,real_gdp,2,1989-01-01,1989Q3,1.7,3.153118781389397,1.4531187813893969
1989-01-10,real_gdp,3,1989-01-01,1989Q4,1.3,1.2158127084984205,-0.08418729150157955
1989-01-10,real_gdp,4,1989-01-01,1990Q1,1.5,4.287438988065451,2.7874389880654507
1989-01-10,real_gdp,5,1989-01-01,1990Q2,1.7,1.5582211193459372,-0.14177888065406274
1989-01-10,unrate,0,1989-01-01,1989Q1,5.3,5.2,-0.09999999999999964
1989-01-10,unrate,1,1989-01-01,1989Q2,5.3,5.233333333333333,-0.06666666666666643
1989-01-10,unrate,2,1989-01-01,1989Q3,5.4,5.233333333333333,-0.16666666666666696
1989-01-10,unrate,3,1989-01-01,1989Q4,5.5,5.366666666666667,-0.13333333333333286
1989-01-10,unrate,4,1989-01-01,1990Q1,5.66,5.3,-0.3600000000000003
1989-01-10,unrate,5,1989-01-01,1990Q2,5.6,5.333333333333333,-0.2666666666666666
1989-02-14,cpi,0,1989-02-01,1989Q1,4.6,4.6222196185139675,0.02221961851396781
1989-02-14,cpi,1,1989-02-01,1989Q2,4.7,6.624222048547779,1.9242220485477786
1989-02-14,cpi,2,1989-02-01,1989Q3,4.8,3.164399566443765,-1.6356004335562346
1989-02-14,cpi,3,1989-02-01,1989Q4,4.8,4.1287738187626655,-0.6712261812373344
1989-02-14,cpi,4,1989-02-01,1990Q1,4.8,7.06543507578159,2.26543507578159
1989-02-14,cpi,5,1989-02-01,1990Q2,4.7,4.016416990809968,-0.6835830091900323
1989-02-14,gdp_price,0,1989-02-01,1989Q1,4.1,3.9250963154181977,-0.17490368458180194
1989-02-14,gdp_price,1,1989-02-01,1989Q2,4.4,4.413653055154065,0.013653055154065008
1989-02-14,gdp_price,2,1989-02-01,1989Q3,4.4,3.009550597717392,-1.3904494022826084
1989-02-14,gdp_price,3,1989-02-01,1989Q4,4.3,2.7735556339689493,-1.5264443660310505
1989-02-14,gdp_price,4,1989-02-01,1990Q1,4.4,4.4527984296597545,0.05279842965975412
1989-02-14,gdp_price,5,1989-02-01,1990Q2,4.4,4.566483919008868,0.1664839190088676
1989-02-14,industrial_production,0,1989-02-01,1989Q1,3.4,1.872051537694697,-1.527948462305303
1989-02-14,industrial_production,1,1989-02-01,1989Q2,2.6,-1.5034442233530454,-4.103444223353046
1989-02-14,industrial_production,2,1989-02-01,1989Q3,2.0,-2.4442069761216434,-4.444206976121643
1989-02-14,industrial_production,3,1989-02-01,1989Q4,1.2,1.5637683877378183,0.3637683877378184
1989-02-14,industrial_production,4,1989-02-01,1990Q1,1.6,3.0016192384209273,1.4016192384209272
1989-02-14,industrial_production,5,1989-02-01,1990Q2,1.4,2.7749841613382342,1.3749841613382343
1989-02-14,real_gdp,0,1989-02-01,1989Q1,4.6,4.058268956464417,-0.5417310435355827
1989-02-14,real_gdp,1,1989-02-01,1989Q2,2.1,2.9904340112270944,0.8904340112270943
1989-02-14,real_gdp,2,1989-02-01,1989Q3,1.8,3.153118781389397,1.3531187813893968
1989-02-14,real_gdp,3,1989-02-01,1989Q4,1.3,1.2158127084984205,-0.08418729150157955
1989-02-14,real_gdp,4,1989-02-01,1990Q1,1.5,4.287438988065451,2.7874389880654507
1989-02-14,real_gdp,5,1989-02-01,1990Q2,1.5,1.5582211193459372,0.05822111934593721
1989-02-14,unrate,0,1989-02-01,1989Q1,5.3,5.2,-0.09999999999999964
1989-02-14,unrate,1,1989-02-01,1989Q2,5.3,5.233333333333333,-0.06666666666666643
1989-02-14,unrate,2,1989-02-01,1989Q3,5.4,5.233333333333333,-0.16666666666666696
1989-02-14,unrate,3,1989-02-01,1989Q4,5.5,5.366666666666667,-0.13333333333333286
1989-02-14,unrate,4,1989-02-01,1990Q1,5.6,5.3,-0.2999999999999998
1989-02-14,unrate,5,1989-02-01,1990Q2,5.6,5.333333333333333,-0.2666666666666666
1989-02-23,cpi,0,1989-02-01,1989Q1,4.6,4.6222196185139675,0.02221961851396781
1989-02-23,cpi,1,1989-02-01,1989Q2,4.7,6.624222048547779,1.9242220485477786
1989-02-23,cpi,2,1989-02-01,1989Q3,4.8,3.164399566443765,-1.6356004335562346
1989-02-23,cpi,3,1989-02-01,1989Q4,4.8,4.1287738187626655,-0.6712261812373344
1989-02-23,cpi,4,1989-02-01,1990Q1,4.8,7.06543507578159,2.26543507578159
1989-02-23,cpi,5,1989-02-01,1990Q2,4.7,4.016416990809968,-0.6835830091900323
1989-02-23,gdp_price,0,1989-02-01,1989Q1,4.1,3.9250963154181977,-0.17490368458180194
1989-02-23,gdp_price,1,1989-02-01,1989Q2,4.4,4.413653055154065,0.013653055154065008
1989-02-23,gdp_price,2,1989-02-01,1989Q3,4.4,3.009550597717392,-1.3904494022826084
1989-02-23,gdp_price,3,1989-02-01,1989Q4,4.3,2.7735556339689493,-1.5264443660310505
1989-02-23,gdp_price,4,1989-02-01,1990Q1,4.4,4.4527984296597545,0.05279842965975412
1989-02-23,gdp_price,5,1989-02-01,1990Q2,4.4,4.566483919008868,0.1664839190088676
1989-02-23,industrial_production,0,1989-02-01,1989Q1,3.4,1.872051537694697,-1.527948462305303
1989-02-23,industrial_production,1,1989-02-01,1989Q2,2.6,-1.5034442233530454,-4.103444223353046
1989-02-23,industrial_production,2,1989-02-01,1989Q3,2.0,-2.4442069761216434,-4.444206976121643
1989-02-23,industrial_production,3,1989-02-01,1989Q4,1.2,1.5637683877378183,0.3637683877378184
1989-02-23,industrial_production,4,1989-02-01,1990Q1,1.6,3.0016192384209273,1.4016192384209272
1989-02-23,industrial_production,5,1989-02-01,1990Q2,1.4,2.7749841613382342,1.3749841613382343
1989-02-23,real_gdp,0,1989-02-01,1989Q1,4.6,4.058268956464417,-0.5417310435355827
1989-02-23,real_gdp,1,1989-02-01,1989Q2,2.1,2.9904340112270944,0.8904340112270943
1989-02-23,real_gdp,2,1989-02-01,1989Q3,1.8,3.153118781389397,1.3531187813893968
1989-02-23,real_gdp,3,1989-02-01,1989Q4,1.3,1.2158127084984205,-0.08418729150157955
1989-02-23,real_gdp,4,1989-02-01,1990Q1,1.5,4.287438988065451,2.7874389880654507
1989-02-23,real_gdp,5,1989-02-01,1990Q2,1.5,1.5582211193459372,0.05822111934593721
1989-02-23,unrate,0,1989-02-01,1989Q1,5.3,5.2,-0.09999999999999964
1989-02-23,unrate,1,1989-02-01,1989Q2,5.3,5.233333333333333,-0.06666666666666643
1989-02-23,unrate,2,1989-02-01,1989Q3,5.4,5.233333333333333,-0.16666666666666696
1989-02-23,unrate,3,1989-02-01,1989Q4,5.5,5.366666666666667,-0.13333333333333286
1989-02-23,unrate,4,1989-02-01,1990Q1,5.6,5.3,-0.2999999999999998
1989-02-23,unrate,5,1989-02-01,1990Q2,5.6,5.333333333333333,-0.2666666666666666
1989-02-24,cpi,0,1989-02-01,1989Q1,4.6,4.6222196185139675,0.02221961851396781
1989-02-24,cpi,1,1989-02-01,1989Q2,4.7,6.624222048547779,1.9242220485477786
1989-02-24,cpi,2,1989-02-01,1989Q3,4.8,3.164399566443765,-1.6356004335562346
1989-02-24,cpi,3,1989-02-01,1989Q4,4.8,4.1287738187626655,-0.6712261812373344
1989-02-24,cpi,4,1989-02-01,1990Q1,4.8,7.06543507578159,2.26543507578159
1989-02-24,cpi,5,1989-02-01,1990Q2,4.7,4.016416990809968,-0.6835830091900323
1989-02-24,gdp_price,0,1989-02-01,1989Q1,4.1,3.9250963154181977,-0.17490368458180194
1989-02-24,gdp_price,1,1989-02-01,1989Q2,4.4,4.413653055154065,0.013653055154065008
1989-02-24,gdp_price,2,1989-02-01,1989Q3,4.4,3.009550597717392,-1.3904494022826084
1989-02-24,gdp_price,3,1989-02-01,1989Q4,4.3,2.7735556339689493,-1.5264443660310505
1989-02-24,gdp_price,4,1989-02-01,1990Q1,4.4,4.4527984296597545,0.05279842965975412
1989-02-24,gdp_price,5,1989-02-01,1990Q2,4.4,4.566483919008868,0.1664839190088676
1989-02-24,industrial_production,0,1989-02-01,1989Q1,3.4,1.872051537694697,-1.527948462305303
1989-02-24,industrial_production,1,1989-02-01,1989Q2,2.6,-1.5034442233530454,-4.103444223353046
1989-02-24,industrial_production,2,1989-02-01,1989Q3,2.0,-2.4442069761216434,-4.444206976121643
1989-02-24,industrial_production,3,1989-02-01,1989Q4,1.2,1.5637683877378183,0.3637683877378184
1989-02-24,industrial_production,4,1989-02-01,1990Q1,1.6,3.0016192384209273,1.4016192384209272
1989-02-24,industrial_production,5,1989-02-01,1990Q2,1.4,2.7749841613382342,1.3749841613382343
1989-02-24,real_gdp,0,1989-02-01,1989Q1,4.6,4.058268956464417,-0.5417310435355827
1989-02-24,real_gdp,1,1989-02-01,1989Q2,2.1,2.9904340112270944,0.8904340112270943
1989-02-24,real_gdp,2,1989-02-01,1989Q3,1.8,3.153118781389397,1.3531187813893968
1989-02-24,real_gdp,3,1989-02-01,1989Q4,1.3,1.2158127084984205,-0.08418729150157955
1989-02-24,real_gdp,4,1989-02-01,1990Q1,1.5,4.287438988065451,2.7874389880654507
1989-02-24,real_gdp,5,1989-02-01,1990Q2,1.5,1.5582211193459372,0.05822111934593721
1989-02-24,unrate,0,1989-02-01,1989Q1,5.3,5.2,-0.09999999999999964
1989-02-24,unrate,1,1989-02-01,1989Q2,5.3,5.233333333333333,-0.06666666666666643
1989-02-24,unrate,2,1989-02-01,1989Q3,5.4,5.233333333333333,-0.16666666666666696
1989-02-24,unrate,3,1989-02-01,1989Q4,5.5,5.366666666666667,-0.13333333333333286
1989-02-24,unrate,4,1989-02-01,1990Q1,5.6,5.3,-0.2999999999999998
1989-02-24,unrate,5,1989-02-01,1990Q2,5.6,5.333333333333333,-0.2666666666666666
1989-06-06,cpi,0,1989-05-01,1989Q2,5.6,6.624222048547779,1.024222048547779
1989-06-06,cpi,1,1989-05-01,1989Q3,4.9,3.164399566443765,-1.7356004335562352
1989-06-06,cpi,2,1989-05-01,1989Q4,4.9,4.1287738187626655,-0.7712261812373349
1989-06-06,cpi,3,1989-05-01,1990Q1,4.7,7.06543507578159,2.3654350757815896
1989-06-06,cpi,4,1989-05-01,1990Q2,4.8,4.016416990809968,-0.783583009190032
1989-06-06,cpi,5,1989-05-01,1990Q3,4.6,7.090070695024453,2.4900706950244533
1989-06-06,gdp_price,0,1989-05-01,1989Q2,4.8,4.413653055154065,-0.38634694484593446
1989-06-06,gdp_price,1,1989-05-01,1989Q3,4.6,3.009550597717392,-1.5904494022826077
1989-06-06,gdp_price,2,1989-05-01,1989Q4,4.4,2.7735556339689493,-1.626444366031051
1989-06-06,gdp_price,3,1989-05-01,1990Q1,4.5,4.4527984296597545,-0.047201570340245524
1989-06-06,gdp_price,4,1989-05-01,1990Q2,4.4,4.566483919008868,0.1664839190088676
1989-06-06,gdp_price,5,1989-05-01,1990Q3,4.3,3.531867376380382,-0.7681326236196178
1989-06-06,industrial_production,0,1989-05-01,1989Q2,2.0,-1.5034442233530454,-3.5034442233530454
1989-06-06,industrial_production,1,1989-05-01,1989Q3,1.6,-2.4442069761216434,-4.044206976121643
1989-06-06,industrial_production,2,1989-05-01,1989Q4,0.8,1.5637683877378183,0.7637683877378183
1989-06-06,industrial_production,3,1989-05-01,1990Q1,1.1,3.0016192384209273,1.9016192384209272
1989-06-06,industrial_production,4,1989-05-01,1990Q2,1.4,2.7749841613382342,1.3749841613382343
1989-06-06,industrial_production,5,1989-05-01,1990Q3,1.8,1.5594373137071793,-0.24056268629282074
1989-06-06,real_gdp,0,1989-05-01,1989Q2,1.8,2.9904340112270944,1.1904340112270944
1989-06-06,real_gdp,1,1989-05-01,1989Q3,1.2,3.153118781389397,1.9531187813893969
1989-06-06,real_gdp,2,1989-05-01,1989Q4,1.1,1.2158127084984205,0.1158127084984204
1989-06-06,real_gdp,3,1989-05-01,1990Q1,1.3,4.287438988065451,2.987438988065451
1989-06-06,real_gdp,4,1989-05-01,1990Q2,1.4,1.5582211193459372,0.1582211193459373
1989-06-06,real_gdp,5,1989-05-01,1990Q3,1.8,-0.0782854733481608,-1.8782854733481609
1989-06-06,unrate,0,1989-05-01,1989Q2,5.2,5.233333333333333,0.033333333333333215
1989-06-06,unrate,1,1989-05-01,1989Q3,5.3,5.233333333333333,-0.06666666666666643
1989-06-06,unrate,2,1989-05-01,1989Q4,5.4,5.366666666666667,-0.033333333333333215
1989-06-06,unrate,3,1989-05-01,1990Q1,5.6,5.3,-0.2999999999999998
1989-06-06,unrate,4,1989-05-01,1990Q2,5.7,5.333333333333333,-0.36666666666666714
1989-06-06,unrate,5,1989-05-01,1990Q3,5.7,5.7,0.0
1989-07-25,cpi,0,1989-07-01,1989Q3,4.9,3.164399566443765,-1.7356004335562352
1989-07-25,cpi,1,1989-07-01,1989Q4,4.9,4.1287738187626655,-0.7712261812373349
1989-07-25,cpi,2,1989-07-01,1990Q1,4.7,7.06543507578159,2.3654350757815896
1989-07-25,cpi,3,1989-07-01,1990Q2,4.6,4.016416990809968,-0.5835830091900318
1989-07-25,cpi,4,1989-07-01,1990Q3,4.5,7.090070695024453,2.590070695024453
1989-07-25,cpi,5,1989-07-01,1990Q4,4.5,6.966630434689591,2.4666304346895913
1989-07-25,gdp_price,0,1989-07-01,1989Q3,4.5,3.009550597717392,-1.490449402282608
1989-07-25,gdp_price,1,1989-07-01,1989Q4,4.5,2.7735556339689493,-1.7264443660310507
1989-07-25,gdp_price,2,1989-07-01,1990Q1,4.6,4.4527984296597545,-0.14720157034024517
1989-07-25,gdp_price,3,1989-07-01,1990Q2,4.4,4.566483919008868,0.1664839190088676
1989-07-25,gdp_price,4,1989-07-01,1990Q3,4.4,3.531867376380382,-0.8681326236196183
1989-07-25,gdp_price,5,1989-07-01,1990Q4,4.3,3.129617447079891,-1.1703825529201088
1989-07-25,industrial_production,0,1989-07-01,1989Q3,1.4,-2.4442069761216434,-3.8442069761216433
1989-07-25,industrial_production,1,1989-07-01,1989Q4,1.2,1.5637683877378183,0.3637683877378184
1989-07-25,industrial_production,2,1989-07-01,1990Q1,0.8,3.0016192384209273,2.2016192384209274
1989-07-25,industrial_production,3,1989-07-01,1990Q2,1.2,2.7749841613382342,1.5749841613382343
1989-07-25,industrial_production,4,1989-07-01,1990Q3,1.9,1.5594373137071793,-0.3405626862928206
1989-07-25,industrial_production,5,1989-07-01,1990Q4,2.4,-6.049366851886195,-8.449366851886195
1989-07-25,real_gdp,0,1989-07-01,1989Q3,1.4,3.153118781389397,1.753118781389397
1989-07-25,real_gdp,1,1989-07-01,1989Q4,1.2,1.2158127084984205,0.015812708498420536
1989-07-25,real_gdp,2,1989-07-01,1990Q1,1.3,4.287438988065451,2.987438988065451
1989-07-25,real_gdp,3,1989-07-01,1990Q2,1.4,1.5582211193459372,0.1582211193459373
1989-07-25,real_gdp,4,1989-07-01,1990Q3,1.8,-0.0782854733481608,-1.8782854733481609
1989-07-25,real_gdp,5,1989-07-01,1990Q4,2.3,-2.1289636053346217,-4.428963605334621
1989-07-25,unrate,0,1989-07-01,1989Q3,5.3,5.233333333333333,-0.06666666666666643
1989-07-25,unrate,1,1989-07-01,1989Q4,5.5,5.366666666666667,-0.13333333333333286
1989-07-25,unrate,2,1989-07-01,1990Q1,5.6,5.3,-0.2999999999999998
1989-07-25,unrate,3,1989-07-01,1990Q2,5.7,5.333333333333333,-0.36666666666666714
1989-07-25,unrate,4,1989-07-01,1990Q3,5.8,5.7,-0.09999999999999964
1989-07-25,unrate,5,1989-07-01,1990Q4,5.8,6.133333333333333,0.33333333333333304
1989-07-26,cpi,0,1989-07-01,1989Q3,4.9,3.164399566443765,-1.7356004335562352
1989-07-26,cpi,1,1989-07-01,1989Q4,4.9,4.1287738187626655,-0.7712261812373349
1989-07-26,cpi,2,1989-07-01,1990Q1,4.7,7.06543507578159,2.3654350757815896
1989-07-26,cpi,3,1989-07-01,1990Q2,4.6,4.016416990809968,-0.5835830091900318
1989-07-26,cpi,4,1989-07-01,1990Q3,4.5,7.090070695024453,2.590070695024453
1989-07-26,cpi,5,1989-07-01,1990Q4,4.5,6.966630434689591,2.4666304346895913
1989-07-26,gdp_price,0,1989-07-01,1989Q3,4.5,3.009550597717392,-1.490449402282608
1989-07-26,gdp_price,1,1989-07-01,1989Q4,4.5,2.7735556339689493,-1.7264443660310507
1989-07-26,gdp_price,2,1989-07-01,1990Q1,4.6,4.4527984296597545,-0.14720157034024517
1989-07-26,gdp_price,3,1989-07-01,1990Q2,4.4,4.566483919008868,0.1664839190088676
1989-07-26,gdp_price,4,1989-07-01,1990Q3,4.4,3.531867376380382,-0.8681326236196183
1989-07-26,gdp_price,5,1989-07-01,1990Q4,4.3,3.129617447079891,-1.1703825529201088
1989-07-26,industrial_production,0,1989-07-01,1989Q3,1.4,-2.4442069761216434,-3.8442069761216433
1989-07-26,industrial_production,1,1989-07-01,1989Q4,1.2,1.5637683877378183,0.3637683877378184
1989-07-26,industrial_production,2,1989-07-01,1990Q1,0.8,3.0016192384209273,2.2016192384209274
1989-07-26,industrial_production,3,1989-07-01,1990Q2,1.2,2.7749841613382342,1.5749841613382343
1989-07-26,industrial_production,4,1989-07-01,1990Q3,1.9,1.5594373137071793,-0.3405626862928206
1989-07-26,industrial_production,5,1989-07-01,1990Q4,2.4,-6.049366851886195,-8.449366851886195
1989-07-26,real_gdp,0,1989-07-01,1989Q3,1.4,3.153118781389397,1.753118781389397
1989-07-26,real_gdp,1,1989-07-01,1989Q4,1.2,1.2158127084984205,0.015812708498420536
1989-07-26,real_gdp,2,1989-07-01,1990Q1,1.3,4.287438988065451,2.987438988065451
1989-07-26,real_gdp,3,1989-07-01,1990Q2,1.4,1.5582211193459372,0.1582211193459373
1989-07-26,real_gdp,4,1989-07-01,1990Q3,1.8,-0.0782854733481608,-1.8782854733481609
1989-07-26,real_gdp,5,1989-07-01,1990Q4,2.3,-2.1289636053346217,-4.428963605334621
1989-07-26,unrate,0,1989-07-01,1989Q3,5.3,5.233333333333333,-0.06666666666666643
1989-07-26,unrate,1,1989-07-01,1989Q4,5.5,5.366666666666667,-0.13333333333333286
1989-07-26,unrate,2,1989-07-01,1990Q1,5.6,5.3,-0.2999999999999998
1989-07-26,unrate,3,1989-07-01,1990Q2,5.7,5.333333333333333,-0.36666666666666714
1989-07-26,unrate,4,1989-07-01,1990Q3,5.8,5.7,-0.09999999999999964
1989-07-26,unrate,5,1989-07-01,1990Q4,5.8,6.133333333333333,0.33333333333333304
1989-07-27,cpi,0,1989-07-01,1989Q3,4.9,3.164399566443765,-1.7356004335562352
1989-07-27,cpi,1,1989-07-01,1989Q4,4.9,4.1287738187626655,-0.7712261812373349
1989-07-27,cpi,2,1989-07-01,1990Q1,4.7,7.06543507578159,2.3654350757815896
1989-07-27,cpi,3,1989-07-01,1990Q2,4.6,4.016416990809968,-0.5835830091900318
1989-07-27,cpi,4,1989-07-01,1990Q3,4.5,7.090070695024453,2.590070695024453
1989-07-27,cpi,5,1989-07-01,1990Q4,4.5,6.966630434689591,2.4666304346895913
1989-07-27,gdp_price,0,1989-07-01,1989Q3,4.5,3.009550597717392,-1.490449402282608
1989-07-27,gdp_price,1,1989-07-01,1989Q4,4.5,2.7735556339689493,-1.7264443660310507
1989-07-27,gdp_price,2,1989-07-01,1990Q1,4.6,4.4527984296597545,-0.14720157034024517
1989-07-27,gdp_price,3,1989-07-01,1990Q2,4.4,4.566483919008868,0.1664839190088676
1989-07-27,gdp_price,4,1989-07-01,1990Q3,4.4,3.531867376380382,-0.8681326236196183
1989-07-27,gdp_price,5,1989-07-01,1990Q4,4.3,3.129617447079891,-1.1703825529201088
1989-07-27,industrial_production,0,1989-07-01,1989Q3,1.4,-2.4442069761216434,-3.8442069761216433
1989-07-27,industrial_production,1,1989-07-01,1989Q4,1.2,1.5637683877378183,0.3637683877378184
1989-07-27,industrial_production,2,1989-07-01,1990Q1,0.8,3.0016192384209273,2.2016192384209274
1989-07-27,industrial_production,3,1989-07-01,1990Q2,1.2,2.7749841613382342,1.5749841613382343
1989-07-27,industrial_production,4,1989-07-01,1990Q3,1.9,1.5594373137071793,-0.3405626862928206
1989-07-27,industrial_production,5,1989-07-01,1990Q4,2.4,-6.049366851886195,-8.449366851886195
1989-07-27,real_gdp,0,1989-07-01,1989Q3,1.4,3.153118781389397,1.753118781389397
1989-07-27,real_gdp,1,1989-07-01,1989Q4,1.2,1.2158127084984205,0.015812708498420536
1989-07-27,real_gdp,2,1989-07-01,1990Q1,1.3,4.287438988065451,2.987438988065451
1989-07-27,real_gdp,3,1989-07-01,1990Q2,1.4,1.5582211193459372,0.1582211193459373
1989-07-27,real_gdp,4,1989-07-01,1990Q3,1.8,-0.0782854733481608,-1.8782854733481609
1989-07-27,real_gdp,5,1989-07-01,1990Q4,2.3,-2.1289636053346217,-4.428963605334621
1989-07-27,unrate,0,1989-07-01,1989Q3,5.3,5.233333333333333,-0.06666666666666643
1989-07-27,unrate,1,1989-07-01,1989Q4,5.5,5.366666666666667,-0.13333333333333286
1989-07-27,unrate,2,1989-07-01,1990Q1,5.6,5.3,-0.2999999999999998
1989-07-27,unrate,3,1989-07-01,1990Q2,5.7,5.333333333333333,-0.36666666666666714
1989-07-27,unrate,4,1989-07-01,1990Q3,5.8,5.7,-0.09999999999999964
1989-07-27,unrate,5,1989-07-01,1990Q4,5.8,6.133333333333333,0.33333333333333304
1989-10-16,cpi,0,1989-10-01,1989Q4,4.4,4.1287738187626655,-0.2712261812373349
1989-10-16,cpi,1,1989-10-01,1990Q1,4.4,7.06543507578159,2.6654350757815894
1989-10-16,cpi,2,1989-10-01,1990Q2,4.5,4.016416990809968,-0.48358300919003216
1989-10-16,cpi,3,1989-10-01,1990Q3,4.4,7.090070695024453,2.6900706950244526
1989-10-16,cpi,4,1989-10-01,1990Q4,4.4,6.966630434689591,2.566630434689591
1989-10-16,gdp_price,0,1989-10-01,1989Q4,4.2,2.7735556339689493,-1.4264443660310508
1989-10-16,gdp_price,1,1989-10-01,1990Q1,4.3,4.4527984296597545,0.15279842965975465
1989-10-16,gdp_price,2,1989-10-01,1990Q2,4.2,4.566483919008868,0.3664839190088678
1989-10-16,gdp_price,3,1989-10-01,1990Q3,4.2,3.531867376380382,-0.6681326236196181
1989-10-16,gdp_price,4,1989-10-01,1990Q4,4.2,3.129617447079891,-1.0703825529201092
1989-10-16,industrial_production,0,1989-10-01,1989Q4,1.1,1.5637683877378183,0.46376838773781826
1989-10-16,industrial_production,1,1989-10-01,1990Q1,1.0,3.0016192384209273,2.0016192384209273
1989-10-16,industrial_production,2,1989-10-01,1990Q2,1.7,2.7749841613382342,1.0749841613382343
1989-10-16,industrial_production,3,1989-10-01,1990Q3,2.3,1.5594373137071793,-0.7405626862928205
1989-10-16,industrial_production,4,1989-10-01,1990Q4,2.8,-6.049366851886195,-8.849366851886195
1989-10-16,real_gdp,0,1989-10-01,1989Q4,1.4,1.2158127084984205,-0.18418729150157942
1989-10-16,real_gdp,1,1989-10-01,1990Q1,1.6,4.287438988065451,2.6874389880654506
1989-10-16,real_gdp,2,1989-10-01,1990Q2,1.7,1.5582211193459372,-0.14177888065406274
1989-10-16,real_gdp,3,1989-10-01,1990Q3,2.0,-0.0782854733481608,-2.078285473348161
1989-10-16,real_gdp,4,1989-10-01,1990Q4,2.4,-2.1289636053346217,-4.528963605334622
1989-10-16,unrate,0,1989-10-01,1989Q4,5.3,5.366666666666667,0.06666666666666732
1989-10-16,unrate,1,1989-10-01,1990Q1,5.5,5.3,-0.20000000000000018
1989-10-16,unrate,2,1989-10-01,1990Q2,5.5,5.333333333333333,-0.16666666666666696
1989-10-16,unrate,3,1989-10-01,1990Q3,5.6,5.7,0.10000000000000053
1989-10-16,unrate,4,1989-10-01,1990Q4,5.6,6.133333333333333,0.5333333333333332
1989-10-19,cpi,0,1989-10-01,1989Q4,4.4,4.1287738187626655,-0.2712261812373349
1989-10-19,cpi,1,1989-10-01,1990Q1,4.4,7.06543507578159,2.6654350757815894
1989-10-19,cpi,2,1989-10-01,1990Q2,4.5,4.016416990809968,-0.48358300919003216
1989-10-19,cpi,3,1989-10-01,1990Q3,4.4,7.090070695024453,2.6900706950244526
1989-10-19,cpi,4,1989-10-01,1990Q4,4.4,6.966630434689591,2.566630434689591
1989-10-19,gdp_price,0,1989-10-01,1989Q4,4.2,2.7735556339689493,-1.4264443660310508
1989-10-19,gdp_price,1,1989-10-01,1990Q1,4.3,4.4527984296597545,0.15279842965975465
1989-10-19,gdp_price,2,1989-10-01,1990Q2,4.2,4.566483919008868,0.3664839190088678
1989-10-19,gdp_price,3,1989-10-01,1990Q3,4.2,3.531867376380382,-0.6681326236196181
1989-10-19,gdp_price,4,1989-10-01,1990Q4,4.2,3.129617447079891,-1.0703825529201092
1989-10-19,industrial_production,0,1989-10-01,1989Q4,1.1,1.5637683877378183,0.46376838773781826
1989-10-19,industrial_production,1,1989-10-01,1990Q1,1.0,3.0016192384209273,2.0016192384209273
1989-10-19,industrial_production,2,1989-10-01,1990Q2,1.7,2.7749841613382342,1.0749841613382343
1989-10-19,industrial_production,3,1989-10-01,1990Q3,2.3,1.5594373137071793,-0.7405626862928205
1989-10-19,industrial_production,4,1989-10-01,1990Q4,2.8,-6.049366851886195,-8.849366851886195
1989-10-19,real_gdp,0,1989-10-01,1989Q4,1.4,1.2158127084984205,-0.18418729150157942
1989-10-19,real_gdp,1,1989-10-01,1990Q1,1.6,4.287438988065451,2.6874389880654506
1989-10-19,real_gdp,2,1989-10-01,1990Q2,1.7,1.5582211193459372,-0.14177888065406274
1989-10-19,real_gdp,3,1989-10-01,1990Q3,2.0,-0.0782854733481608,-2.078285473348161
1989-10-19,real_gdp,4,1989-10-01,1990Q4,2.4,-2.1289636053346217,-4.528963605334622
1989-10-19,unrate,0,1989-10-01,1989Q4,5.3,5.366666666666667,0.06666666666666732
1989-10-19,unrate,1,1989-10-01,1990Q1,5.5,5.3,-0.20000000000000018
1989-10-19,unrate,2,1989-10-01,1990Q2,5.5,5.333333333333333,-0.16666666666666696
1989-10-19,unrate,3,1989-10-01,1990Q3,5.6,5.7,0.10000000000000053
1989-10-19,unrate,4,1989-10-01,1990Q4,5.6,6.133333333333333,0.5333333333333332
1989-11-07,cpi,0,1989-10-01,1989Q4,4.4,4.1287738187626655,-0.2712261812373349
1989-11-07,cpi,1,1989-10-01,1990Q1,4.4,7.06543507578159,2.6654350757815894
1989-11-07,cpi,2,1989-10-01,1990Q2,4.5,4.016416990809968,-0.48358300919003216
1989-11-07,cpi,3,1989-10-01,1990Q3,4.4,7.090070695024453,2.6900706950244526
1989-11-07,cpi,4,1989-10-01,1990Q4,4.4,6.966630434689591,2.566630434689591
1989-11-07,gdp_price,0,1989-10-01,1989Q4,4.2,2.7735556339689493,-1.4264443660310508
1989-11-07,gdp_price,1,1989-10-01,1990Q1,4.3,4.4527984296597545,0.15279842965975465
1989-11-07,gdp_price,2,1989-10-01,1990Q2,4.2,4.566483919008868,0.3664839190088678
1989-11-07,gdp_price,3,1989-10-01,1990Q3,4.2,3.531867376380382,-0.6681326236196181
1989-11-07,gdp_price,4,1989-10-01,1990Q4,4.2,3.129617447079891,-1.0703825529201092
1989-11-07,industrial_production,0,1989-10-01,1989Q4,1.1,1.5637683877378183,0.46376838773781826
1989-11-07,industrial_production,1,1989-10-01,1990Q1,1.0,3.0016192384209273,2.0016192384209273
1989-11-07,industrial_production,2,1989-10-01,1990Q2,1.7,2.7749841613382342,1.0749841613382343
1989-11-07,industrial_production,3,1989-10-01,1990Q3,2.3,1.5594373137071793,-0.7405626862928205
1989-11-07,industrial_production,4,1989-10-01,1990Q4,2.8,-6.049366851886195,-8.849366851886195
1989-11-07,real_gdp,0,1989-10-01,1989Q4,1.4,1.2158127084984205,-0.18418729150157942
1989-11-07,real_gdp,1,1989-10-01,1990Q1,1.6,4.287438988065451,2.6874389880654506
1989-11-07,real_gdp,2,1989-10-01,1990Q2,1.7,1.5582211193459372,-0.14177888065406274
1989-11-07,real_gdp,3,1989-10-01,1990Q3,2.0,-0.0782854733481608,-2.078285473348161
1989-11-07,real_gdp,4,1989-10-01,1990Q4,2.4,-2.1289636053346217,-4.528963605334622
1989-11-07,unrate,0,1989-10-01,1989Q4,5.3,5.366666666666667,0.06666666666666732
1989-11-07,unrate,1,1989-10-01,1990Q1,5.5,5.3,-0.20000000000000018
1989-11-07,unrate,2,1989-10-01,1990Q2,5.5,5.333333333333333,-0.16666666666666696
1989-11-07,unrate,3,1989-10-01,1990Q3,5.6,5.7,0.10000000000000053
1989-11-07,unrate,4,1989-10-01,1990Q4,5.6,6.133333333333333,0.5333333333333332
1989-11-08,cpi,0,1989-10-01,1989Q4,4.4,4.1287738187626655,-0.2712261812373349
1989-11-08,cpi,1,1989-10-01,1990Q1,4.4,7.06543507578159,2.6654350757815894
1989-11-08,cpi,2,1989-10-01,1990Q2,4.5,4.016416990809968,-0.48358300919003216
1989-11-08,cpi,3,1989-10-01,1990Q3,4.4,7.090070695024453,2.6900706950244526
1989-11-08,cpi,4,1989-10-01,1990Q4,4.4,6.966630434689591,2.566630434689591
1989-11-08,gdp_price,0,1989-10-01,1989Q4,4.2,2.7735556339689493,-1.4264443660310508
1989-11-08,gdp_price,1,1989-10-01,1990Q1,4.3,4.4527984296597545,0.15279842965975465
1989-11-08,gdp_price,2,1989-10-01,1990Q2,4.2,4.566483919008868,0.3664839190088678
1989-11-08,gdp_price,3,1989-10-01,1990Q3,4.2,3.531867376380382,-0.6681326236196181
1989-11-08,gdp_price,4,1989-10-01,1990Q4,4.2,3.129617447079891,-1.0703825529201092
1989-11-08,industrial_production,0,1989-10-01,1989Q4,1.1,1.5637683877378183,0.46376838773781826
1989-11-08,industrial_production,1,1989-10-01,1990Q1,1.0,3.0016192384209273,2.0016192384209273
1989-11-08,industrial_production,2,1989-10-01,1990Q2,1.7,2.7749841613382342,1.0749841613382343
1989-11-08,industrial_production,3,1989-10-01,1990Q3,2.3,1.5594373137071793,-0.7405626862928205
1989-11-08,industrial_production,4,1989-10-01,1990Q4,2.8,-6.049366851886195,-8.849366851886195
1989-11-08,real_gdp,0,1989-10-01,1989Q4,1.4,1.2158127084984205,-0.18418729150157942
1989-11-08,real_gdp,1,1989-10-01,1990Q1,1.6,4.287438988065451,2.6874389880654506
1989-11-08,real_gdp,2,1989-10-01,1990Q2,1.7,1.5582211193459372,-0.14177888065406274
1989-11-08,real_gdp,3,1989-10-01,1990Q3,2.0,-0.0782854733481608,-2.078285473348161
1989-11-08,real_gdp,4,1989-10-01,1990Q4,2.4,-2.1289636053346217,-4.528963605334622
1989-11-08,unrate,0,1989-10-01,1989Q4,5.3,5.366666666666667,0.06666666666666732
1989-11-08,unrate,1,1989-10-01,1990Q1,5.5,5.3,-0.20000000000000018
1989-11-08,unrate,2,1989-10-01,1990Q2,5.5,5.333333333333333,-0.16666666666666696
1989-11-08,unrate,3,1989-10-01,1990Q3,5.6,5.7,0.10000000000000053
1989-11-08,unrate,4,1989-10-01,1990Q4,5.6,6.133333333333333,0.5333333333333332
1989-11-09,cpi,0,1989-10-01,1989Q4,4.4,4.1287738187626655,-0.2712261812373349
1989-11-09,cpi,1,1989-10-01,1990Q1,4.4,7.06543507578159,2.6654350757815894
1989-11-09,cpi,2,1989-10-01,1990Q2,4.5,4.016416990809968,-0.48358300919003216
1989-11-09,cpi,3,1989-10-01,1990Q3,4.4,7.090070695024453,2.6900706950244526
1989-11-09,cpi,4,1989-10-01,1990Q4,4.4,6.966630434689591,2.566630434689591
1989-11-09,gdp_price,0,1989-10-01,1989Q4,4.2,2.7735556339689493,-1.4264443660310508
1989-11-09,gdp_price,1,1989-10-01,1990Q1,4.3,4.4527984296597545,0.15279842965975465
1989-11-09,gdp_price,2,1989-10-01,1990Q2,4.2,4.566483919008868,0.3664839190088678
1989-11-09,gdp_price,3,1989-10-01,1990Q3,4.2,3.531867376380382,-0.6681326236196181
1989-11-09,gdp_price,4,1989-10-01,1990Q4,4.2,3.129617447079891,-1.0703825529201092
1989-11-09,industrial_production,0,1989-10-01,1989Q4,1.1,1.5637683877378183,0.46376838773781826
1989-11-09,industrial_production,1,1989-10-01,1990Q1,1.0,3.0016192384209273,2.0016192384209273
1989-11-09,industrial_production,2,1989-10-01,1990Q2,1.7,2.7749841613382342,1.0749841613382343
1989-11-09,industrial_production,3,1989-10-01,1990Q3,2.3,1.5594373137071793,-0.7405626862928205
1989-11-09,industrial_production,4,1989-10-01,1990Q4,2.8,-6.049366851886195,-8.849366851886195
1989-11-09,real_gdp,0,1989-10-01,1989Q4,1.4,1.2158127084984205,-0.18418729150157942
1989-11-09,real_gdp,1,1989-10-01,1990Q1,1.6,4.287438988065451,2.6874389880654506
1989-11-09,real_gdp,2,1989-10-01,1990Q2,1.7,1.5582211193459372,-0.14177888065406274
1989-11-09,real_gdp,3,1989-10-01,1990Q3,2.0,-0.0782854733481608,-2.078285473348161
1989-11-09,real_gdp,4,1989-10-01,1990Q4,2.4,-2.1289636053346217,-4.528963605334622
1989-11-09,unrate,0,1989-10-01,1989Q4,5.3,5.366666666666667,0.06666666666666732
1989-11-09,unrate,1,1989-10-01,1990Q1,5.5,5.3,-0.20000000000000018
1989-11-09,unrate,2,1989-10-01,1990Q2,5.5,5.333333333333333,-0.16666666666666696
1989-11-09,unrate,3,1989-10-01,1990Q3,5.6,5.7,0.10000000000000053
1989-11-09,unrate,4,1989-10-01,1990Q4,5.6,6.133333333333333,0.5333333333333332
1990-07-13,cpi,0,1990-07-01,1990Q3,3.8,7.090070695024453,3.290070695024453
1990-07-13,cpi,1,1990-07-01,1990Q4,4.1,6.966630434689591,2.8666304346895917
1990-07-13,cpi,2,1990-07-01,1991Q1,4.5,3.023980702337492,-1.476019297662508
1990-07-13,cpi,3,1990-07-01,1991Q2,4.3,2.395701179362386,-1.9042988206376137
1990-07-13,cpi,4,1990-07-01,1991Q3,4.3,3.083967808057264,-1.2160321919427357
1990-07-13,cpi,5,1990-07-01,1991Q4,4.3,3.3602224016604287,-0.9397775983395711
1990-07-13,gdp_price,0,1990-07-01,1990Q3,3.9,3.531867376380382,-0.36813262361961785
1990-07-13,gdp_price,1,1990-07-01,1990Q4,4.0,3.129617447079891,-0.870382552920109
1990-07-13,gdp_price,2,1990-07-01,1991Q1,4.2,3.966508660728452,-0.23349133927154808
1990-07-13,gdp_price,3,1990-07-01,1991Q2,4.0,2.91985696296877,-1.0801430370312302
1990-07-13,gdp_price,4,1990-07-01,1991Q3,4.0,3.1062182660692716,-0.8937817339307284
1990-07-13,gdp_price,5,1990-07-01,1991Q4,4.1,2.353052632188102,-1.7469473678118979
1990-07-13,industrial_production,0,1990-07-01,1990Q3,2.2,1.5594373137071793,-0.6405626862928209
1990-07-13,industrial_production,1,1990-07-01,1990Q4,2.1,-6.049366851886195,-8.149366851886196
1990-07-13,industrial_production,2,1990-07-01,1991Q1,2.5,-7.439071306917122,-9.939071306917121
1990-07-13,industrial_production,3,1990-07-01,1991Q2,2.6,2.1277316893218545,-0.47226831067814556
1990-07-13,industrial_production,4,1990-07-01,1991Q3,2.7,5.7209497613261995,3.0209497613261993
1990-07-13,industrial_production,5,1990-07-01,1991Q4,2.7,0.81679503052281,-1.8832049694771902
1990-07-13,real_gdp,0,1990-07-01,1990Q3,2.1,-0.0782854733481608,-2.178285473348161
1990-07-13,real_gdp,1,1990-07-01,1990Q4,1.9,-2.1289636053346217,-4.028963605334622
1990-07-13,real_gdp,2,1990-07-01,1991Q1,2.2,-2.6038950530168803,-4.8038950530168805
1990-07-13,real_gdp,3,1990-07-01,1991Q2,2.3,2.3783503817151885,0.07835038171518871
1990-07-13,real_gdp,4,1990-07-01,1991Q3,2.4,1.78211718461192,-0.61788281538808
1990-07-13,real_gdp,5,1990-07-01,1991Q4,2.5,1.908896814366745,-0.5911031856332549
1990-07-13,unrate,0,1990-07-01,1990Q3,5.5,5.7,0.20000000000000018
1990-07-13,unrate,1,1990-07-01,1990Q4,5.5,6.133333333333333,0.6333333333333329
1990-07-13,unrate,2,1990-07-01,1991Q1,5.6,6.6000000000000005,1.0000000000000009
1990-07-13,unrate,3,1990-07-01,1991Q2,5.5,6.833333333333333,1.333333333333333
1990-07-13,unrate,4,1990-07-01,1991Q3,5.5,6.866666666666667,1.3666666666666671
1990-07-13,unrate,5,1990-07-01,1991Q4,5.5,7.1000000000000005,1.6000000000000005
1990-10-29,cpi,0,1990-10-01,1990Q4,6.9,6.966630434689591,0.06663043468959096
1990-10-29,cpi,1,1990-10-01,1991Q1,5.1,3.023980702337492,-2.0760192976625076
1990-10-29,cpi,2,1990-10-01,1991Q2,4.3,2.395701179362386,-1.9042988206376137
1990-10-29,cpi,3,1990-10-01,1991Q3,4.2,3.083967808057264,-1.116032191942736
1990-10-29,cpi,4,1990-10-01,1991Q4,4.2,3.3602224016604287,-0.8397775983395714
1990-10-29,gdp_price,0,1990-10-01,1990Q4,5.2,3.129617447079891,-2.070382552920109
1990-10-29,gdp_price,1,1990-10-01,1991Q1,4.8,3.966508660728452,-0.8334913392715477
1990-10-29,gdp_price,2,1990-10-01,1991Q2,4.1,2.91985696296877,-1.1801430370312298
1990-10-29,gdp_price,3,1990-10-01,1991Q3,3.9,3.1062182660692716,-0.7937817339307283
1990-10-29,gdp_price,4,1990-10-01,1991Q4,4.0,2.353052632188102,-1.6469473678118982
1990-10-29,industrial_production,0,1990-10-01,1990Q4,-1.5,-6.049366851886195,-4.549366851886195
1990-10-29,industrial_production,1,1990-10-01,1991Q1,-1.1,-7.439071306917122,-6.339071306917122
1990-10-29,industrial_production,2,1990-10-01,1991Q2,0.9,2.1277316893218545,1.2277316893218546
1990-10-29,industrial_production,3,1990-10-01,1991Q3,2.9,5.7209497613261995,2.8209497613261996
1990-10-29,industrial_production,4,1990-10-01,1991Q4,3.5,0.81679503052281,-2.68320496947719
1990-10-29,real_gdp,0,1990-10-01,1990Q4,-0.6,-2.1289636053346217,-1.5289636053346216
1990-10-29,real_gdp,1,1990-10-01,1991Q1,-0.1,-2.6038950530168803,-2.50389505301688
1990-10-29,real_gdp,2,1990-10-01,1991Q2,1.2,2.3783503817151885,1.1783503817151886
1990-10-29,real_gdp,3,1990-10-01,1991Q3,2.3,1.78211718461192,-0.5178828153880799
1990-10-29,real_gdp,4,1990-10-01,1991Q4,2.6,1.908896814366745,-0.691103185633255
1990-10-29,unrate,0,1990-10-01,1990Q4,5.9,6.133333333333333,0.2333333333333325
1990-10-29,unrate,1,1990-10-01,1991Q1,6.1,6.6000000000000005,0.5000000000000009
1990-10-29,unrate,2,1990-10-01,1991Q2,6.2,6.833333333333333,0.6333333333333329
1990-10-29,unrate,3,1990-10-01,1991Q3,6.1,6.866666666666667,0.7666666666666675
1990-10-29,unrate,4,1990-10-01,1991Q4,6.1,7.1000000000000005,1.0000000000000009
1990-12-07,cpi,0,1990-11-01,1990Q4,7.1,6.966630434689591,-0.13336956531040833
1990-12-07,cpi,1,1990-11-01,1991Q1,5.1,3.023980702337492,-2.0760192976625076
1990-12-07,cpi,2,1990-11-01,1991Q2,4.1,2.395701179362386,-1.7042988206376135
1990-12-07,cpi,3,1990-11-01,1991Q3,4.1,3.083967808057264,-1.0160321919427355
1990-12-07,cpi,4,1990-11-01,1991Q4,4.2,3.3602224016604287,-0.8397775983395714
1990-12-07,gdp_price,0,1990-11-01,1990Q4,5.1,3.129617447079891,-1.9703825529201087
1990-12-07,gdp_price,1,1990-11-01,1991Q1,4.8,3.966508660728452,-0.8334913392715477
1990-12-07,gdp_price,2,1990-11-01,1991Q2,4.2,2.91985696296877,-1.2801430370312303
1990-12-07,gdp_price,3,1990-11-01,1991Q3,3.9,3.1062182660692716,-0.7937817339307283
1990-12-07,gdp_price,4,1990-11-01,1991Q4,4.0,2.353052632188102,-1.6469473678118982
1990-12-07,industrial_production,0,1990-11-01,1990Q4,-1.7,-6.049366851886195,-4.349366851886195
1990-12-07,industrial_production,1,1990-11-01,1991Q1,-1.6,-7.439071306917122,-5.839071306917122
1990-12-07,industrial_production,2,1990-11-01,1991Q2,0.0,2.1277316893218545,2.1277316893218545
1990-12-07,industrial_production,3,1990-11-01,1991Q3,2.2,5.7209497613261995,3.5209497613261993
1990-12-07,industrial_production,4,1990-11-01,1991Q4,3.2,0.81679503052281,-2.38320496947719
1990-12-07,real_gdp,0,1990-11-01,1990Q4,-0.8,-2.1289636053346217,-1.3289636053346217
1990-12-07,real_gdp,1,1990-11-01,1991Q1,-0.6,-2.6038950530168803,-2.00389505301688
1990-12-07,real_gdp,2,1990-11-01,1991Q2,0.8,2.3783503817151885,1.5783503817151885
1990-12-07,real_gdp,3,1990-11-01,1991Q3,2.1,1.78211718461192,-0.31788281538808016
1990-12-07,real_gdp,4,1990-11-01,1991Q4,2.5,1.908896814366745,-0.5911031856332549
1990-12-07,unrate,0,1990-11-01,1990Q4,5.9,6.133333333333333,0.2333333333333325
1990-12-07,unrate,1,1990-11-01,1991Q1,6.1,6.6000000000000005,0.5000000000000009
1990-12-07,unrate,2,1990-11-01,1991Q2,6.3,6.833333333333333,0.5333333333333332
1990-12-07,unrate,3,1990-11-01,1991Q3,6.3,6.866666666666667,0.5666666666666673
1990-12-07,unrate,4,1990-11-01,1991Q4,6.3,7.1000000000000005,0.8000000000000007
1991-01-08,cpi,0,1990-12-01,1990Q4,7.1,6.966630434689591,-0.13336956531040833
1991-01-08,cpi,1,1990-12-01,1991Q1,5.2,3.023980702337492,-2.176019297662508
1991-01-08,cpi,2,1990-12-01,1991Q2,4.0,2.395701179362386,-1.6042988206376139
1991-01-08,cpi,3,1990-12-01,1991Q3,4.0,3.083967808057264,-0.9160321919427359
1991-01-08,cpi,4,1990-12-01,1991Q4,4.2,3.3602224016604287,-0.8397775983395714
1991-01-08,gdp_price,0,1990-12-01,1990Q4,4.9,3.129617447079891,-1.7703825529201094
1991-01-08,gdp_price,1,1990-12-01,1991Q1,4.8,3.966508660728452,-0.8334913392715477
1991-01-08,gdp_price,2,1990-12-01,1991Q2,4.1,2.91985696296877,-1.1801430370312298
1991-01-08,gdp_price,3,1990-12-01,1991Q3,3.8,3.1062182660692716,-0.6937817339307282
1991-01-08,gdp_price,4,1990-12-01,1991Q4,3.9,2.353052632188102,-1.5469473678118981
1991-01-08,industrial_production,0,1990-12-01,1990Q4,-2.8,-6.049366851886195,-3.2493668518861956
1991-01-08,industrial_production,1,1990-12-01,1991Q1,-2.1,-7.439071306917122,-5.339071306917122
1991-01-08,industrial_production,2,1990-12-01,1991Q2,-0.2,2.1277316893218545,2.3277316893218547
1991-01-08,industrial_production,3,1990-12-01,1991Q3,2.2,5.7209497613261995,3.5209497613261993
1991-01-08,industrial_production,4,1990-12-01,1991Q4,3.0,0.81679503052281,-2.18320496947719
1991-01-08,real_gdp,0,1990-12-01,1990Q4,-1.3,-2.1289636053346217,-0.8289636053346217
1991-01-08,real_gdp,1,1990-12-01,1991Q1,-0.9,-2.6038950530168803,-1.7038950530168804
1991-01-08,real_gdp,2,1990-12-01,1991Q2,0.5,2.3783503817151885,1.8783503817151885
1991-01-08,real_gdp,3,1990-12-01,1991Q3,2.0,1.78211718461192,-0.21788281538808008
1991-01-08,real_gdp,4,1990-12-01,1991Q4,2.5,1.908896814366745,-0.5911031856332549
1991-01-08,unrate,0,1990-12-01,1990Q4,5.9,6.133333333333333,0.2333333333333325
1991-01-08,unrate,1,1990-12-01,1991Q1,6.2,6.6000000000000005,0.40000000000000036
1991-01-08,unrate,2,1990-12-01,1991Q2,6.4,6.833333333333333,0.4333333333333327
1991-01-08,unrate,3,1990-12-01,1991Q3,6.4,6.866666666666667,0.4666666666666668
1991-01-08,unrate,4,1990-12-01,1991Q4,6.4,7.1000000000000005,0.7000000000000002
1991-02-01,cpi,0,1991-01-01,1991Q1,4.7,3.023980702337492,-1.6760192976625081
1991-02-01,cpi,1,1991-01-01,1991Q2,3.8,2.395701179362386,-1.4042988206376137
1991-02-01,cpi,2,1991-01-01,1991Q3,3.9,3.083967808057264,-0.8160321919427358
1991-02-01,cpi,3,1991-01-01,1991Q4,4.1,3.3602224016604287,-0.7397775983395709
1991-02-01,cpi,4,1991-01-01,1992Q1,3.9,2.73822805974242,-1.1617719402575801
1991-02-01,cpi,5,1991-01-01,1992Q2,4.0,3.1126084520850084,-0.8873915479149916
1991-02-01,gdp_price,0,1991-01-01,1991Q1,4.5,3.966508660728452,-0.5334913392715479
1991-02-01,gdp_price,1,1991-01-01,1991Q2,4.0,2.91985696296877,-1.0801430370312302
1991-02-01,gdp_price,2,1991-01-01,1991Q3,3.7,3.1062182660692716,-0.5937817339307285
1991-02-01,gdp_price,3,1991-01-01,1991Q4,3.7,2.353052632188102,-1.3469473678118984
1991-02-01,gdp_price,4,1991-01-01,1992Q1,3.8,1.559374132504221,-2.240625867495779
1991-02-01,gdp_price,5,1991-01-01,1992Q2,3.6,2.4087679334402257,-1.1912320665597744
1991-02-01,industrial_production,0,1991-01-01,1991Q1,-4.1,-7.439071306917122,-3.3390713069171225
1991-02-01,industrial_production,1,1991-01-01,1991Q2,-0.2,2.1277316893218545,2.3277316893218547
1991-02-01,industrial_production,2,1991-01-01,1991Q3,2.7,5.7209497613261995,3.0209497613261993
1991-02-01,industrial_production,3,1991-01-01,1991Q4,3.5,0.81679503052281,-2.68320496947719
1991-02-01,industrial_production,4,1991-01-01,1992Q1,3.4,-0.5952554353397033,-3.995255435339703
1991-02-01,industrial_production,5,1991-01-01,1992Q2,3.2,7.426172080106097,4.226172080106097
1991-02-01,real_gdp,0,1991-01-01,1991Q1,-1.4,-2.6038950530168803,-1.2038950530168804
1991-02-01,real_gdp,1,1991-01-01,1991Q2,0.3,2.3783503817151885,2.0783503817151887
1991-02-01,real_gdp,2,1991-01-01,1991Q3,2.0,1.78211718461192,-0.21788281538808008
1991-02-01,real_gdp,3,1991-01-01,1991Q4,2.7,1.908896814366745,-0.7911031856332551
1991-02-01,real_gdp,4,1991-01-01,1992Q1,2.8,2.5003853771433215,-0.2996146228566783
1991-02-01,real_gdp,5,1991-01-01,1992Q2,2.9,4.40826723196126,1.5082672319612604
1991-02-01,unrate,0,1991-01-01,1991Q1,6.3,6.6000000000000005,0.3000000000000007
1991-02-01,unrate,1,1991-01-01,1991Q2,6.5,6.833333333333333,0.33333333333333304
1991-02-01,unrate,2,1991-01-01,1991Q3,6.6,6.866666666666667,0.2666666666666675
1991-02-01,unrate,3,1991-01-01,1991Q4,6.6,7.1000000000000005,0.5000000000000009
1991-02-01,unrate,4,1991-01-01,1992Q1,6.5,7.366666666666667,0.8666666666666671
1991-02-01,unrate,5,1991-01-01,1992Q2,6.4,7.6,1.1999999999999993
1991-03-08,cpi,0,1991-02-01,1991Q1,3.8,3.023980702337492,-0.7760192976625078
1991-03-08,cpi,1,1991-02-01,1991Q2,3.4,2.395701179362386,-1.0042988206376138
1991-03-08,cpi,2,1991-02-01,1991Q3,3.9,3.083967808057264,-0.8160321919427358
1991-03-08,cpi,3,1991-02-01,1991Q4,4.0,3.3602224016604287,-0.6397775983395713
1991-03-08,cpi,4,1991-02-01,1992Q1,4.1,2.73822805974242,-1.3617719402575799
1991-03-08,cpi,5,1991-02-01,1992Q2,4.0,3.1126084520850084,-0.8873915479149916
1991-03-08,gdp_price,0,1991-02-01,1991Q1,4.2,3.966508660728452,-0.23349133927154808
1991-03-08,gdp_price,1,1991-02-01,1991Q2,3.7,2.91985696296877,-0.7801430370312303
1991-03-08,gdp_price,2,1991-02-01,1991Q3,3.7,3.1062182660692716,-0.5937817339307285
1991-03-08,gdp_price,3,1991-02-01,1991Q4,3.6,2.353052632188102,-1.2469473678118983
1991-03-08,gdp_price,4,1991-02-01,1992Q1,3.7,1.559374132504221,-2.140625867495779
1991-03-08,gdp_price,5,1991-02-01,1992Q2,3.5,2.4087679334402257,-1.0912320665597743
1991-03-08,industrial_production,0,1991-02-01,1991Q1,-4.9,-7.439071306917122,-2.539071306917122
1991-03-08,industrial_production,1,1991-02-01,1991Q2,-0.3,2.1277316893218545,2.4277316893218543
1991-03-08,industrial_production,2,1991-02-01,1991Q3,2.6,5.7209497613261995,3.1209497613261994
1991-03-08,industrial_production,3,1991-02-01,1991Q4,3.7,0.81679503052281,-2.88320496947719
1991-03-08,industrial_production,4,1991-02-01,1992Q1,3.6,-0.5952554353397033,-4.195255435339703
1991-03-08,industrial_production,5,1991-02-01,1992Q2,3.4,7.426172080106097,4.026172080106097
1991-03-08,real_gdp,0,1991-02-01,1991Q1,-1.3,-2.6038950530168803,-1.3038950530168802
1991-03-08,real_gdp,1,1991-02-01,1991Q2,0.5,2.3783503817151885,1.8783503817151885
1991-03-08,real_gdp,2,1991-02-01,1991Q3,2.0,1.78211718461192,-0.21788281538808008
1991-03-08,real_gdp,3,1991-02-01,1991Q4,2.6,1.908896814366745,-0.691103185633255
1991-03-08,real_gdp,4,1991-02-01,1992Q1,2.8,2.5003853771433215,-0.2996146228566783
1991-03-08,real_gdp,5,1991-02-01,1992Q2,2.8,4.40826723196126,1.6082672319612605
1991-03-08,unrate,0,1991-02-01,1991Q1,6.3,6.6000000000000005,0.3000000000000007
1991-03-08,unrate,1,1991-02-01,1991Q2,6.5,6.833333333333333,0.33333333333333304
1991-03-08,unrate,2,1991-02-01,1991Q3,6.6,6.866666666666667,0.2666666666666675
1991-03-08,unrate,3,1991-02-01,1991Q4,6.6,7.1000000000000005,0.5000000000000009
1991-03-08,unrate,4,1991-02-01,1992Q1,6.5,7.366666666666667,0.8666666666666671
1991-03-08,unrate,5,1991-02-01,1992Q2,6.4,7.6,1.1999999999999993
1991-04-30,cpi,0,1991-04-01,1991Q2,3.4,2.395701179362386,-1.0042988206376138
1991-04-30,cpi,1,1991-04-01,1991Q3,3.9,3.083967808057264,-0.8160321919427358
1991-04-30,cpi,2,1991-04-01,1991Q4,4.0,3.3602224016604287,-0.6397775983395713
1991-04-30,cpi,3,1991-04-01,1992Q1,4.1,2.73822805974242,-1.3617719402575799
1991-04-30,cpi,4,1991-04-01,1992Q2,3.9,3.1126084520850084,-0.7873915479149916
1991-04-30,cpi,5,1991-04-01,1992Q3,4.1,3.088576380297181,-1.0114236197028186
1991-04-30,gdp_price,0,1991-04-01,1991Q2,3.7,2.91985696296877,-0.7801430370312303
1991-04-30,gdp_price,1,1991-04-01,1991Q3,3.7,3.1062182660692716,-0.5937817339307285
1991-04-30,gdp_price,2,1991-04-01,1991Q4,3.6,2.353052632188102,-1.2469473678118983
1991-04-30,gdp_price,3,1991-04-01,1992Q1,3.7,1.559374132504221,-2.140625867495779
1991-04-30,gdp_price,4,1991-04-01,1992Q2,3.6,2.4087679334402257,-1.1912320665597744
1991-04-30,gdp_price,5,1991-04-01,1992Q3,3.6,1.9328404081674575,-1.6671595918325426
1991-04-30,industrial_production,0,1991-04-01,1991Q2,0.3,2.1277316893218545,1.8277316893218545
1991-04-30,industrial_production,1,1991-04-01,1991Q3,3.3,5.7209497613261995,2.4209497613261997
1991-04-30,industrial_production,2,1991-04-01,1991Q4,4.1,0.81679503052281,-3.2832049694771896
1991-04-30,industrial_production,3,1991-04-01,1992Q1,3.9,-0.5952554353397033,-4.495255435339703
1991-04-30,industrial_production,4,1991-04-01,1992Q2,3.8,7.426172080106097,3.6261720801060973
1991-04-30,industrial_production,5,1991-04-01,1992Q3,3.5,3.236009464110201,-0.2639905358897989
1991-04-30,real_gdp,0,1991-04-01,1991Q2,0.9,2.3783503817151885,1.4783503817151886
1991-04-30,real_gdp,1,1991-04-01,1991Q3,2.2,1.78211718461192,-0.41788281538808025
1991-04-30,real_gdp,2,1991-04-01,1991Q4,2.7,1.908896814366745,-0.7911031856332551
1991-04-30,real_gdp,3,1991-04-01,1992Q1,2.8,2.5003853771433215,-0.2996146228566783
1991-04-30,real_gdp,4,1991-04-01,1992Q2,2.9,4.40826723196126,1.5082672319612604
1991-04-30,real_gdp,5,1991-04-01,1992Q3,2.9,4.0114093053187805,1.1114093053187806
1991-04-30,unrate,0,1991-04-01,1991Q2,6.6,6.833333333333333,0.2333333333333334
1991-04-30,unrate,1,1991-04-01,1991Q3,6.7,6.866666666666667,0.16666666666666696
1991-04-30,unrate,2,1991-04-01,1991Q4,6.7,7.1000000000000005,0.40000000000000036
1991-04-30,unrate,3,1991-04-01,1992Q1,6.6,7.366666666666667,0.7666666666666675
1991-04-30,unrate,4,1991-04-01,1992Q2,6.5,7.6,1.0999999999999996
1991-04-30,unrate,5,1991-04-01,1992Q3,6.3,7.633333333333333,1.333333333333333
1991-08-06,cpi,0,1991-07-01,1991Q3,3.7,3.083967808057264,-0.6160321919427361
1991-08-06,cpi,1,1991-07-01,1991Q4,3.9,3.3602224016604287,-0.5397775983395712
1991-08-06,cpi,2,1991-07-01,1992Q1,4.0,2.73822805974242,-1.2617719402575802
1991-08-06,cpi,3,1991-07-01,1992Q2,4.0,3.1126084520850084,-0.8873915479149916
1991-08-06,cpi,4,1991-07-01,1992Q3,3.9,3.088576380297181,-0.8114236197028188
1991-08-06,cpi,5,1991-07-01,1992Q4,4.0,3.550094292854844,-0.449905707145156
1991-08-06,gdp_price,0,1991-07-01,1991Q3,3.4,3.1062182660692716,-0.29378173393072826
1991-08-06,gdp_price,1,1991-07-01,1991Q4,3.5,2.353052632188102,-1.1469473678118982
1991-08-06,gdp_price,2,1991-07-01,1992Q1,3.7,1.559374132504221,-2.140625867495779
1991-08-06,gdp_price,3,1991-07-01,1992Q2,3.6,2.4087679334402257,-1.1912320665597744
1991-08-06,gdp_price,4,1991-07-01,1992Q3,3.6,1.9328404081674575,-1.6671595918325426
1991-08-06,gdp_price,5,1991-07-01,1992Q4,3.6,2.84363819911837,-0.75636180088163
1991-08-06,industrial_production,0,1991-07-01,1991Q3,3.6,5.7209497613261995,2.1209497613261994
1991-08-06,industrial_production,1,1991-07-01,1991Q4,4.3,0.81679503052281,-3.48320496947719
1991-08-06,industrial_production,2,1991-07-01,1992Q1,4.1,-0.5952554353397033,-4.695255435339703
1991-08-06,industrial_production,3,1991-07-01,1992Q2,4.0,7.426172080106097,3.426172080106097
1991-08-06,industrial_production,4,1991-07-01,1992Q3,3.6,3.236009464110201,-0.363990535889799
1991-08-06,industrial_production,5,1991-07-01,1992Q4,3.4,4.1397742264948745,0.7397742264948746
1991-08-06,real_gdp,0,1991-07-01,1991Q3,2.7,1.78211718461192,-0.9178828153880803
1991-08-06,real_gdp,1,1991-07-01,1991Q4,2.9,1.908896814366745,-0.9911031856332548
1991-08-06,real_gdp,2,1991-07-01,1992Q1,2.9,2.5003853771433215,-0.39961462285667837
1991-08-06,real_gdp,3,1991-07-01,1992Q2,2.8,4.40826723196126,1.6082672319612605
1991-08-06,real_gdp,4,1991-07-01,1992Q3,2.8,4.0114093053187805,1.2114093053187807
1991-08-06,real_gdp,5,1991-07-01,1992Q4,2.7,4.237130110577936,1.5371301105779356
1991-08-06,unrate,0,1991-07-01,1991Q3,6.8,6.866666666666667,0.06666666666666732
1991-08-06,unrate,1,1991-07-01,1991Q4,6.8,7.1000000000000005,0.3000000000000007
1991-08-06,unrate,2,1991-07-01,1992Q1,6.7,7.366666666666667,0.666666666666667
1991-08-06,unrate,3,1991-07-01,1992Q2,6.6,7.6,1.0
1991-08-06,unrate,4,1991-07-01,1992Q3,6.4,7.633333333333333,1.2333333333333325
1991-08-06,unrate,5,1991-07-01,1992Q4,6.3,7.366666666666667,1.0666666666666673
1991-09-13,cpi,0,1991-09-01,1991Q3,3.4,3.083967808057264,-0.3160321919427358
1991-09-13,cpi,1,1991-09-01,1991Q4,3.8,3.3602224016604287,-0.4397775983395711
1991-09-13,cpi,2,1991-09-01,1992Q1,3.9,2.73822805974242,-1.1617719402575801
1991-09-13,cpi,3,1991-09-01,1992Q2,3.9,3.1126084520850084,-0.7873915479149916
1991-09-13,cpi,4,1991-09-01,1992Q3,3.9,3.088576380297181,-0.8114236197028188
1991-09-13,cpi,5,1991-09-01,1992Q4,4.0,3.550094292854844,-0.449905707145156
1991-09-13,gdp_price,0,1991-09-01,1991Q3,3.2,3.1062182660692716,-0.09378173393072853
1991-09-13,gdp_price,1,1991-09-01,1991Q4,3.3,2.353052632188102,-0.946947367811898
1991-09-13,gdp_price,2,1991-09-01,1992Q1,3.7,1.559374132504221,-2.140625867495779
1991-09-13,gdp_price,3,1991-09-01,1992Q2,3.5,2.4087679334402257,-1.0912320665597743
1991-09-13,gdp_price,4,1991-09-01,1992Q3,3.6,1.9328404081674575,-1.6671595918325426
1991-09-13,gdp_price,5,1991-09-01,1992Q4,3.5,2.84363819911837,-0.6563618008816299
1991-09-13,industrial_production,0,1991-09-01,1991Q3,4.9,5.7209497613261995,0.8209497613261991
1991-09-13,industrial_production,1,1991-09-01,1991Q4,4.0,0.81679503052281,-3.18320496947719
1991-09-13,industrial_production,2,1991-09-01,1992Q1,4.1,-0.5952554353397033,-4.695255435339703
1991-09-13,industrial_production,3,1991-09-01,1992Q2,4.1,7.426172080106097,3.3261720801060974
1991-09-13,industrial_production,4,1991-09-01,1992Q3,4.0,3.236009464110201,-0.7639905358897989
1991-09-13,industrial_production,5,1991-09-01,1992Q4,3.6,4.1397742264948745,0.5397742264948744
1991-09-13,real_gdp,0,1991-09-01,1991Q3,2.9,1.78211718461192,-1.11788281538808
1991-09-13,real_gdp,1,1991-09-01,1991Q4,2.9,1.908896814366745,-0.9911031856332548
1991-09-13,real_gdp,2,1991-09-01,1992Q1,2.8,2.5003853771433215,-0.2996146228566783
1991-09-13,real_gdp,3,1991-09-01,1992Q2,2.9,4.40826723196126,1.5082672319612604
1991-09-13,real_gdp,4,1991-09-01,1992Q3,2.9,4.0114093053187805,1.1114093053187806
1991-09-13,real_gdp,5,1991-09-01,1992Q4,2.7,4.237130110577936,1.5371301105779356
1991-09-13,unrate,0,1991-09-01,1991Q3,6.9,6.866666666666667,-0.033333333333333215
1991-09-13,unrate,1,1991-09-01,1991Q4,6.8,7.1000000000000005,0.3000000000000007
1991-09-13,unrate,2,1991-09-01,1992Q1,6.8,7.366666666666667,0.5666666666666673
1991-09-13,unrate,3,1991-09-01,1992Q2,6.6,7.6,1.0
1991-09-13,unrate,4,1991-09-01,1992Q3,6.5,7.633333333333333,1.1333333333333329
1991-09-13,unrate,5,1991-09-01,1992Q4,6.3,7.366666666666667,1.0666666666666673
1991-10-30,cpi,0,1991-10-01,1991Q4,3.7,3.3602224016604287,-0.33977759833957144
1991-10-30,cpi,1,1991-10-01,1992Q1,3.8,2.73822805974242,-1.06177194025758
1991-10-30,cpi,2,1991-10-01,1992Q2,3.8,3.1126084520850084,-0.6873915479149915
1991-10-30,cpi,3,1991-10-01,1992Q3,3.8,3.088576380297181,-0.7114236197028188
1991-10-30,cpi,4,1991-10-01,1992Q4,3.9,3.550094292854844,-0.3499057071451559
1991-10-30,gdp_price,0,1991-10-01,1991Q4,3.2,2.353052632188102,-0.8469473678118984
1991-10-30,gdp_price,1,1991-10-01,1992Q1,3.5,1.559374132504221,-1.940625867495779
1991-10-30,gdp_price,2,1991-10-01,1992Q2,3.5,2.4087679334402257,-1.0912320665597743
1991-10-30,gdp_price,3,1991-10-01,1992Q3,3.5,1.9328404081674575,-1.5671595918325425
1991-10-30,gdp_price,4,1991-10-01,1992Q4,3.5,2.84363819911837,-0.6563618008816299
1991-10-30,industrial_production,0,1991-10-01,1991Q4,3.9,0.81679503052281,-3.08320496947719
1991-10-30,industrial_production,1,1991-10-01,1992Q1,3.9,-0.5952554353397033,-4.495255435339703
1991-10-30,industrial_production,2,1991-10-01,1992Q2,3.9,7.426172080106097,3.526172080106097
1991-10-30,industrial_production,3,1991-10-01,1992Q3,3.9,3.236009464110201,-0.6639905358897988
1991-10-30,industrial_production,4,1991-10-01,1992Q4,3.6,4.1397742264948745,0.5397742264948744
1991-10-30,real_gdp,0,1991-10-01,1991Q4,2.8,1.908896814366745,-0.8911031856332547
1991-10-30,real_gdp,1,1991-10-01,1992Q1,2.9,2.5003853771433215,-0.39961462285667837
1991-10-30,real_gdp,2,1991-10-01,1992Q2,3.0,4.40826723196126,1.4082672319612604
1991-10-30,real_gdp,3,1991-10-01,1992Q3,3.0,4.0114093053187805,1.0114093053187805
1991-10-30,real_gdp,4,1991-10-01,1992Q4,2.9,4.237130110577936,1.3371301105779358
1991-10-30,unrate,0,1991-10-01,1991Q4,6.8,7.1000000000000005,0.3000000000000007
1991-10-30,unrate,1,1991-10-01,1992Q1,6.7,7.366666666666667,0.666666666666667
1991-10-30,unrate,2,1991-10-01,1992Q2,6.6,7.6,1.0
1991-10-30,unrate,3,1991-10-01,1992Q3,6.5,7.633333333333333,1.1333333333333329
1991-10-30,unrate,4,1991-10-01,1992Q4,6.4,7.366666666666667,0.9666666666666668
1991-12-06,cpi,0,1991-11-01,1991Q4,3.5,3.3602224016604287,-0.13977759833957126
1991-12-06,cpi,1,1991-11-01,1992Q1,3.7,2.73822805974242,-0.9617719402575804
1991-12-06,cpi,2,1991-11-01,1992Q2,3.6,3.1126084520850084,-0.48739154791499173
1991-12-06,cpi,3,1991-11-01,1992Q3,3.6,3.088576380297181,-0.511423619702819
1991-12-06,cpi,4,1991-11-01,1992Q4,3.7,3.550094292854844,-0.14990570714515616
1991-12-06,gdp_price,0,1991-11-01,1991Q4,3.0,2.353052632188102,-0.6469473678118982
1991-12-06,gdp_price,1,1991-11-01,1992Q1,3.3,1.559374132504221,-1.7406258674957789
1991-12-06,gdp_price,2,1991-11-01,1992Q2,3.3,2.4087679334402257,-0.8912320665597742
1991-12-06,gdp_price,3,1991-11-01,1992Q3,3.3,1.9328404081674575,-1.3671595918325423
1991-12-06,gdp_price,4,1991-11-01,1992Q4,3.4,2.84363819911837,-0.5563618008816298
1991-12-06,industrial_production,0,1991-11-01,1991Q4,2.3,0.81679503052281,-1.4832049694771898
1991-12-06,industrial_production,1,1991-11-01,1992Q1,3.1,-0.5952554353397033,-3.6952554353397034
1991-12-06,industrial_production,2,1991-11-01,1992Q2,3.5,7.426172080106097,3.926172080106097
1991-12-06,industrial_production,3,1991-11-01,1992Q3,4.0,3.236009464110201,-0.7639905358897989
1991-12-06,industrial_production,4,1991-11-01,1992Q4,4.0,4.1397742264948745,0.13977422649487448
1991-12-06,real_gdp,0,1991-11-01,1991Q4,1.9,1.908896814366745,0.008896814366745165
1991-12-06,real_gdp,1,1991-11-01,1992Q1,2.4,2.5003853771433215,0.10038537714332163
1991-12-06,real_gdp,2,1991-11-01,1992Q2,2.8,4.40826723196126,1.6082672319612605
1991-12-06,real_gdp,3,1991-11-01,1992Q3,3.1,4.0114093053187805,0.9114093053187804
1991-12-06,real_gdp,4,1991-11-01,1992Q4,3.1,4.237130110577936,1.1371301105779357
1991-12-06,unrate,0,1991-11-01,1991Q4,6.8,7.1000000000000005,0.3000000000000007
1991-12-06,unrate,1,1991-11-01,1992Q1,6.8,7.366666666666667,0.5666666666666673
1991-12-06,unrate,2,1991-11-01,1992Q2,6.7,7.6,0.8999999999999995
1991-12-06,unrate,3,1991-11-01,1992Q3,6.6,7.633333333333333,1.0333333333333332
1991-12-06,unrate,4,1991-11-01,1992Q4,6.5,7.366666666666667,0.8666666666666671
1991-12-20,cpi,0,1991-12-01,1991Q4,3.2,3.3602224016604287,0.16022240166042856
1991-12-20,cpi,1,1991-12-01,1992Q1,3.5,2.73822805974242,-0.7617719402575802
1991-12-20,cpi,2,1991-12-01,1992Q2,3.6,3.1126084520850084,-0.48739154791499173
1991-12-20,cpi,3,1991-12-01,1992Q3,3.6,3.088576380297181,-0.511423619702819
1991-12-20,cpi,4,1991-12-01,1992Q4,3.7,3.550094292854844,-0.14990570714515616
1991-12-20,gdp_price,0,1991-12-01,1991Q4,2.9,2.353052632188102,-0.5469473678118981
1991-12-20,gdp_price,1,1991-12-01,1992Q1,3.3,1.559374132504221,-1.7406258674957789
1991-12-20,gdp_price,2,1991-12-01,1992Q2,3.2,2.4087679334402257,-0.7912320665597745
1991-12-20,gdp_price,3,1991-12-01,1992Q3,3.2,1.9328404081674575,-1.2671595918325427
1991-12-20,gdp_price,4,1991-12-01,1992Q4,3.3,2.84363819911837,-0.4563618008816297
1991-12-20,industrial_production,0,1991-12-01,1991Q4,1.2,0.81679503052281,-0.38320496947718996
1991-12-20,industrial_production,1,1991-12-01,1992Q1,2.2,-0.5952554353397033,-2.7952554353397034
1991-12-20,industrial_production,2,1991-12-01,1992Q2,3.3,7.426172080106097,4.126172080106097
1991-12-20,industrial_production,3,1991-12-01,1992Q3,4.3,3.236009464110201,-1.0639905358897987
1991-12-20,industrial_production,4,1991-12-01,1992Q4,4.3,4.1397742264948745,-0.16022577350512535
1991-12-20,real_gdp,0,1991-12-01,1991Q4,1.3,1.908896814366745,0.608896814366745
1991-12-20,real_gdp,1,1991-12-01,1992Q1,1.8,2.5003853771433215,0.7003853771433215
