nealockwood/nealockwood.github.io/pages/greenbook_errors.csv
pub_date,variable,Qahead,target_qtr,forecast,realized,error
1967-03-29,gdp_price,0,1967Q1,2.0,1.681911394648572,-0.318088605351428
1967-03-29,gdp_price,1,1967Q2,2.0,2.402435444403394,0.4024354444033942
1967-03-29,real_gdp,0,1967Q1,0.5,3.532888270393175,3.032888270393175
1967-03-29,real_gdp,1,1967Q2,1.0,0.1705499973716051,-0.8294500026283949
1967-03-29,unrate,0,1967Q1,3.8,3.8333333333333335,0.03333333333333366
1967-03-29,unrate,1,1967Q2,4.1,3.8333333333333335,-0.26666666666666616
1967-04-26,gdp_price,0,1967Q2,2.8,2.402435444403394,-0.39756455559660564
1967-04-26,gdp_price,1,1967Q3,2.8,3.6570604011924246,0.8570604011924248
1967-04-26,housing_starts,0,1967Q2,1200.0,1214.3333333333333,14.333333333333258
1967-04-26,housing_starts,1,1967Q3,1300.0,1397.3333333333333,97.33333333333326
1967-04-26,industrial_production,0,1967Q2,-5.1,-1.6201777440975729,3.4798222559024268
1967-04-26,industrial_production,1,1967Q3,5.2,2.7798992799010547,-2.4201007200989455
1967-04-26,real_gdp,0,1967Q2,1.6,0.1705499973716051,-1.429450002628395
1967-04-26,real_gdp,1,1967Q3,4.1,4.083386358709262,-0.01661364129073739
1967-04-26,unrate,0,1967Q2,4.0,3.8333333333333335,-0.16666666666666652
1967-04-26,unrate,1,1967Q3,4.1,3.7999999999999994,-0.30000000000000027
1967-05-17,gdp_price,0,1967Q2,2.7,2.402435444403394,-0.297564555596606
1967-05-17,gdp_price,1,1967Q3,2.7,3.6570604011924246,0.9570604011924244
1967-05-17,housing_starts,0,1967Q2,1200.0,1214.3333333333333,14.333333333333258
1967-05-17,housing_starts,1,1967Q3,1300.0,1397.3333333333333,97.33333333333326
1967-05-17,industrial_production,0,1967Q2,-5.1,-1.6201777440975729,3.4798222559024268
1967-05-17,industrial_production,1,1967Q3,5.2,2.7798992799010547,-2.4201007200989455
1967-05-17,real_gdp,0,1967Q2,1.4,0.1705499973716051,-1.2294500026283948
1967-05-17,real_gdp,1,1967Q3,4.7,4.083386358709262,-0.6166136412907379
1967-05-17,unrate,0,1967Q2,3.9,3.8333333333333335,-0.06666666666666643
1967-05-17,unrate,1,1967Q3,4.0,3.7999999999999994,-0.20000000000000062
1967-06-14,gdp_price,0,1967Q2,2.8,2.402435444403394,-0.39756455559660564
1967-06-14,gdp_price,1,1967Q3,2.8,3.6570604011924246,0.8570604011924248
1967-06-14,housing_starts,0,1967Q2,1200.0,1214.3333333333333,14.333333333333258
1967-06-14,housing_starts,1,1967Q3,1300.0,1397.3333333333333,97.33333333333326
1967-06-14,industrial_production,0,1967Q2,-5.1,-1.6201777440975729,3.4798222559024268
1967-06-14,industrial_production,1,1967Q3,5.2,2.7798992799010547,-2.4201007200989455
1967-06-14,real_gdp,0,1967Q2,2.3,0.1705499973716051,-2.1294500026283947
1967-06-14,real_gdp,1,1967Q3,4.5,4.083386358709262,-0.41661364129073775
1967-06-14,unrate,0,1967Q2,3.9,3.8333333333333335,-0.06666666666666643
1967-06-14,unrate,1,1967Q3,3.9,3.7999999999999994,-0.10000000000000053
1967-07-17,gdp_price,0,1967Q3,2.7,3.6570604011924246,0.9570604011924244
1967-07-17,housing_starts,0,1967Q3,1360.0,1397.3333333333333,37.33333333333326
1967-07-17,industrial_production,0,1967Q3,4.6,2.7798992799010547,-1.820100720098945
1967-07-17,real_gdp,0,1967Q3,4.3,4.083386358709262,-0.21661364129073757
1967-07-17,unrate,0,1967Q3,3.9,3.7999999999999994,-0.10000000000000053
1967-08-09,gdp_price,0,1967Q3,2.7,3.6570604011924246,0.9570604011924244
1967-08-09,gdp_price,1,1967Q4,3.7,4.515668155712538,0.8156681557125376
1967-08-09,housing_starts,0,1967Q3,1290.0,1397.3333333333333,107.33333333333326
1967-08-09,housing_starts,1,1967Q4,1370.0,1445.6666666666667,75.66666666666674
1967-08-09,industrial_production,0,1967Q3,4.9,2.7798992799010547,-2.1201007200989457
1967-08-09,industrial_production,1,1967Q4,6.3,11.140539468202949,4.840539468202949
1967-08-09,real_gdp,0,1967Q3,4.2,4.083386358709262,-0.11661364129073792
1967-08-09,real_gdp,1,1967Q4,4.5,2.9469365432118977,-1.5530634567881023
1967-08-09,unrate,0,1967Q3,3.9,3.7999999999999994,-0.10000000000000053
1967-08-09,unrate,1,1967Q4,3.8,3.9,0.10000000000000009
1967-09-07,gdp_price,0,1967Q3,2.7,3.6570604011924246,0.9570604011924244
1967-09-07,gdp_price,1,1967Q4,3.7,4.515668155712538,0.8156681557125376
1967-09-07,housing_starts,0,1967Q3,1330.0,1397.3333333333333,67.33333333333326
1967-09-07,housing_starts,1,1967Q4,1390.0,1445.6666666666667,55.66666666666674
1967-09-07,industrial_production,0,1967Q3,3.3,2.7798992799010547,-0.5201007200989451
1967-09-07,industrial_production,1,1967Q4,10.2,11.140539468202949,0.9405394682029495
1967-09-07,real_gdp,0,1967Q3,4.8,4.083386358709262,-0.7166136412907376
1967-09-07,real_gdp,1,1967Q4,6.4,2.9469365432118977,-3.4530634567881027
1967-09-07,unrate,0,1967Q3,3.8,3.7999999999999994,-4.440892098500626e-16
1967-09-07,unrate,1,1967Q4,3.6,3.9,0.2999999999999998
1967-09-27,gdp_price,0,1967Q3,2.7,3.6570604011924246,0.9570604011924244
1967-09-27,gdp_price,1,1967Q4,3.7,4.515668155712538,0.8156681557125376
1967-09-27,housing_starts,0,1967Q3,1350.0,1397.3333333333333,47.33333333333326
1967-09-27,housing_starts,1,1967Q4,1390.0,1445.6666666666667,55.66666666666674
1967-09-27,industrial_production,0,1967Q3,4.1,2.7798992799010547,-1.320100720098945
1967-09-27,industrial_production,1,1967Q4,8.1,11.140539468202949,3.040539468202949
1967-09-27,real_gdp,0,1967Q3,4.9,4.083386358709262,-0.8166136412907381
1967-09-27,real_gdp,1,1967Q4,6.4,2.9469365432118977,-3.4530634567881027
1967-09-27,unrate,0,1967Q3,3.8,3.7999999999999994,-4.440892098500626e-16
1967-09-27,unrate,1,1967Q4,3.6,3.9,0.2999999999999998
1967-10-18,gdp_price,0,1967Q4,3.7,4.515668155712538,0.8156681557125376
1967-10-18,housing_starts,0,1967Q4,1450.0,1445.6666666666667,-4.3333333333332575
1967-10-18,industrial_production,0,1967Q4,6.1,11.140539468202949,5.040539468202949
1967-10-18,real_gdp,0,1967Q4,6.1,2.9469365432118977,-3.153063456788102
1967-10-18,unrate,0,1967Q4,3.8,3.9,0.10000000000000009
1967-11-08,gdp_price,0,1967Q4,3.7,4.515668155712538,0.8156681557125376
1967-11-08,housing_starts,0,1967Q4,1450.0,1445.6666666666667,-4.3333333333332575
1967-11-08,industrial_production,0,1967Q4,1.3,11.140539468202949,9.840539468202948
1967-11-08,real_gdp,0,1967Q4,5.1,2.9469365432118977,-2.153063456788102
1967-11-08,unrate,0,1967Q4,4.0,3.9,-0.10000000000000009
1967-12-06,gdp_price,0,1967Q4,3.7,4.515668155712538,0.8156681557125376
1967-12-06,gdp_price,1,1968Q1,3.5,4.441993264542732,0.9419932645427318
1967-12-06,housing_starts,0,1967Q4,1460.0,1445.6666666666667,-14.333333333333258
1967-12-06,housing_starts,1,1968Q1,1470.0,1455.3333333333333,-14.666666666666742
1967-12-06,industrial_production,0,1967Q4,0.3,11.140539468202949,10.840539468202948
1967-12-06,industrial_production,1,1968Q1,8.1,5.833257951929016,-2.2667420480709835
1967-12-06,real_gdp,0,1967Q4,4.8,2.9469365432118977,-1.8530634567881021
1967-12-06,real_gdp,1,1968Q1,6.2,8.424425420549596,2.224425420549596
1967-12-06,unrate,0,1967Q4,4.0,3.9,-0.10000000000000009
1967-12-06,unrate,1,1968Q1,3.8,3.733333333333333,-0.06666666666666687
1968-01-04,gdp_price,0,1968Q1,3.5,4.441993264542732,0.9419932645427318
1968-01-04,housing_starts,0,1968Q1,1440.0,1455.3333333333333,15.333333333333258
1968-01-04,industrial_production,0,1968Q1,9.3,5.833257951929016,-3.4667420480709845
1968-01-04,real_gdp,0,1968Q1,6.3,8.424425420549596,2.1244254205495965
1968-01-04,unrate,0,1968Q1,3.8,3.733333333333333,-0.06666666666666687
1968-01-31,gdp_price,0,1968Q1,3.4,4.441993264542732,1.041993264542732
1968-01-31,housing_starts,0,1968Q1,1450.0,1455.3333333333333,5.3333333333332575
1968-01-31,industrial_production,0,1968Q1,9.5,5.833257951929016,-3.666742048070984
1968-01-31,real_gdp,0,1968Q1,6.1,8.424425420549596,2.3244254205495967
1968-01-31,unrate,0,1968Q1,3.7,3.733333333333333,0.03333333333333277
1968-02-06,gdp_price,0,1968Q1,3.4,4.441993264542732,1.041993264542732
1968-02-06,gdp_price,1,1968Q2,3.3,4.55438993604369,1.2543899360436903
1968-02-06,gdp_price,2,1968Q3,3.0,3.889555665023603,0.889555665023603
1968-02-06,gdp_price,3,1968Q4,2.6,5.682798158905111,3.082798158905111
1968-02-06,housing_starts,0,1968Q1,1530.0,1455.3333333333333,-74.66666666666674
1968-02-06,housing_starts,1,1968Q2,1560.0,1455.6666666666667,-104.33333333333326
1968-02-06,housing_starts,2,1968Q3,1580.0,1521.0,-59.0
1968-02-06,housing_starts,3,1968Q4,1600.0,1582.3333333333333,-17.666666666666742
1968-02-06,industrial_production,0,1968Q1,9.8,5.833257951929016,-3.9667420480709845
1968-02-06,industrial_production,1,1968Q2,4.7,5.502771515865512,0.802771515865512
1968-02-06,industrial_production,2,1968Q3,1.2,3.139798722431819,1.9397987224318192
1968-02-06,industrial_production,3,1968Q4,4.1,6.214435175832578,2.114435175832578
1968-02-06,real_gdp,0,1968Q1,6.0,8.424425420549596,2.4244254205495963
1968-02-06,real_gdp,1,1968Q2,3.7,6.861093233429316,3.161093233429316
1968-02-06,real_gdp,2,1968Q3,2.0,3.195700933895629,1.1957009338956288
1968-02-06,real_gdp,3,1968Q4,4.0,1.5486508190774018,-2.4513491809225982
1968-02-06,unrate,0,1968Q1,3.7,3.733333333333333,0.03333333333333277
1968-02-06,unrate,1,1968Q2,3.6,3.5666666666666664,-0.03333333333333366
1968-02-06,unrate,2,1968Q3,3.8,3.533333333333333,-0.2666666666666666
1968-02-06,unrate,3,1968Q4,3.8,3.4,-0.3999999999999999
1968-02-28,gdp_price,0,1968Q1,3.5,4.441993264542732,0.9419932645427318
1968-02-28,gdp_price,1,1968Q2,3.5,4.55438993604369,1.0543899360436901
1968-02-28,housing_starts,0,1968Q1,1450.0,1455.3333333333333,5.3333333333332575
1968-02-28,housing_starts,1,1968Q2,1400.0,1455.6666666666667,55.66666666666674
1968-02-28,industrial_production,0,1968Q1,7.8,5.833257951929016,-1.9667420480709836
1968-02-28,industrial_production,1,1968Q2,7.4,5.502771515865512,-1.8972284841344882
1968-02-28,real_gdp,0,1968Q1,5.8,8.424425420549596,2.6244254205495965
1968-02-28,real_gdp,1,1968Q2,5.5,6.861093233429316,1.3610932334293162
1968-02-28,unrate,0,1968Q1,3.6,3.733333333333333,0.13333333333333286
1968-02-28,unrate,1,1968Q2,3.6,3.5666666666666664,-0.03333333333333366
1968-03-27,gdp_price,0,1968Q1,4.0,4.441993264542732,0.4419932645427318
1968-03-27,gdp_price,1,1968Q2,4.0,4.55438993604369,0.5543899360436901
1968-03-27,housing_starts,0,1968Q1,1490.0,1455.3333333333333,-34.66666666666674
1968-03-27,housing_starts,1,1968Q2,1380.0,1455.6666666666667,75.66666666666674
1968-03-27,industrial_production,0,1968Q1,6.3,5.833257951929016,-0.46674204807098363
1968-03-27,industrial_production,1,1968Q2,6.2,5.502771515865512,-0.697228484134488
1968-03-27,real_gdp,0,1968Q1,6.5,8.424425420549596,1.9244254205495963
1968-03-27,real_gdp,1,1968Q2,4.9,6.861093233429316,1.9610932334293159
1968-03-27,unrate,0,1968Q1,3.6,3.733333333333333,0.13333333333333286
1968-03-27,unrate,1,1968Q2,3.6,3.5666666666666664,-0.03333333333333366
1968-04-24,gdp_price,0,1968Q2,4.0,4.55438993604369,0.5543899360436901
1968-04-24,housing_starts,0,1968Q2,1380.0,1455.6666666666667,75.66666666666674
1968-04-24,industrial_production,0,1968Q2,6.7,5.502771515865512,-1.197228484134488
1968-04-24,real_gdp,0,1968Q2,6.3,6.861093233429316,0.5610932334293164
1968-04-24,unrate,0,1968Q2,3.5,3.5666666666666664,0.06666666666666643
1968-05-22,gdp_price,0,1968Q2,4.0,4.55438993604369,0.5543899360436901
1968-05-22,housing_starts,0,1968Q2,1470.0,1455.6666666666667,-14.333333333333258
1968-05-22,industrial_production,0,1968Q2,7.2,5.502771515865512,-1.697228484134488
1968-05-22,real_gdp,0,1968Q2,7.2,6.861093233429316,-0.33890676657068397
1968-05-22,unrate,0,1968Q2,3.5,3.5666666666666664,0.06666666666666643
1968-06-12,gdp_price,0,1968Q2,3.7,4.55438993604369,0.85438993604369
1968-06-12,gdp_price,1,1968Q3,4.0,3.889555665023603,-0.11044433497639705
1968-06-12,housing_starts,0,1968Q2,1470.0,1455.6666666666667,-14.333333333333258
1968-06-12,housing_starts,1,1968Q3,1330.0,1521.0,191.0
1968-06-12,industrial_production,0,1968Q2,4.9,5.502771515865512,0.6027715158655118
1968-06-12,industrial_production,1,1968Q3,2.9,3.139798722431819,0.2397987224318192
1968-06-12,real_gdp,0,1968Q2,6.8,6.861093233429316,0.061093233429316385
1968-06-12,real_gdp,1,1968Q3,1.8,3.195700933895629,1.3957009338956288
1968-06-12,unrate,0,1968Q2,3.5,3.5666666666666664,0.06666666666666643
1968-06-12,unrate,1,1968Q3,3.7,3.533333333333333,-0.16666666666666696
1968-07-10,gdp_price,0,1968Q3,4.0,3.889555665023603,-0.11044433497639705
1968-07-10,housing_starts,0,1968Q3,1330.0,1521.0,191.0
1968-07-10,industrial_production,0,1968Q3,-1.2,3.139798722431819,4.339798722431819
1968-07-10,real_gdp,0,1968Q3,0.3,3.195700933895629,2.895700933895629
1968-07-10,unrate,0,1968Q3,3.8,3.533333333333333,-0.2666666666666666
1968-08-07,gdp_price,0,1968Q3,4.3,3.889555665023603,-0.4104443349763969
1968-08-07,gdp_price,1,1968Q4,3.4,5.682798158905111,2.2827981589051114
1968-08-07,housing_starts,0,1968Q3,1320.0,1521.0,201.0
1968-08-07,housing_starts,1,1968Q4,1350.0,1582.3333333333333,232.33333333333326
1968-08-07,industrial_production,0,1968Q3,-1.2,3.139798722431819,4.339798722431819
1968-08-07,industrial_production,1,1968Q4,-1.7,6.214435175832578,7.914435175832578
1968-08-07,real_gdp,0,1968Q3,0.3,3.195700933895629,2.895700933895629
1968-08-07,real_gdp,1,1968Q4,0.8,1.5486508190774018,0.7486508190774017
1968-08-07,unrate,0,1968Q3,3.8,3.533333333333333,-0.2666666666666666
1968-08-07,unrate,1,1968Q4,4.0,3.4,-0.6000000000000001
1968-09-04,gdp_price,0,1968Q3,4.6,3.889555665023603,-0.7104443349763967
1968-09-04,gdp_price,1,1968Q4,3.6,5.682798158905111,2.082798158905111
1968-09-04,housing_starts,0,1968Q3,1400.0,1521.0,121.0
1968-09-04,housing_starts,1,1968Q4,1400.0,1582.3333333333333,182.33333333333326
1968-09-04,industrial_production,0,1968Q3,-1.5,3.139798722431819,4.639798722431819
1968-09-04,industrial_production,1,1968Q4,-1.7,6.214435175832578,7.914435175832578
1968-09-04,real_gdp,0,1968Q3,1.3,3.195700933895629,1.8957009338956288
1968-09-04,real_gdp,1,1968Q4,0.4,1.5486508190774018,1.1486508190774019
1968-09-04,unrate,0,1968Q3,3.7,3.533333333333333,-0.16666666666666696
1968-09-04,unrate,1,1968Q4,4.0,3.4,-0.6000000000000001
1968-10-02,gdp_price,0,1968Q4,3.6,5.682798158905111,2.082798158905111
1968-10-02,housing_starts,0,1968Q4,1490.0,1582.3333333333333,92.33333333333326
1968-10-02,industrial_production,0,1968Q4,0.0,6.214435175832578,6.214435175832578
1968-10-02,real_gdp,0,1968Q4,2.5,1.5486508190774018,-0.9513491809225982
1968-10-02,unrate,0,1968Q4,3.9,3.4,-0.5
1968-10-23,gdp_price,0,1968Q4,3.5,5.682798158905111,2.1827981589051113
1968-10-23,housing_starts,0,1968Q4,1520.0,1582.3333333333333,62.33333333333326
1968-10-23,industrial_production,0,1968Q4,2.9,6.214435175832578,3.314435175832578
1968-10-23,real_gdp,0,1968Q4,3.4,1.5486508190774018,-1.8513491809225981
1968-10-23,unrate,0,1968Q4,3.8,3.4,-0.3999999999999999
1968-11-20,gdp_price,0,1968Q4,3.5,5.682798158905111,2.1827981589051113
1968-11-20,gdp_price,1,1969Q1,3.3,4.064393182714876,0.7643931827148762
1968-11-20,gdp_price,2,1969Q2,3.0,5.369116819027098,2.3691168190270977
1968-11-20,housing_starts,0,1968Q4,1520.0,1582.3333333333333,62.33333333333326
1968-11-20,housing_starts,1,1969Q1,1550.0,1678.3333333333333,128.33333333333326
1968-11-20,housing_starts,2,1969Q2,1610.0,1545.0,-65.0
1968-11-20,industrial_production,0,1968Q4,2.9,6.214435175832578,3.314435175832578
1968-11-20,industrial_production,1,1969Q1,1.9,8.011100233833535,6.111100233833534
1968-11-20,industrial_production,2,1969Q2,4.1,1.757528855196444,-2.3424711448035556
1968-11-20,real_gdp,0,1968Q4,3.4,1.5486508190774018,-1.8513491809225981
1968-11-20,real_gdp,1,1969Q1,2.1,6.373273143017788,4.2732731430177875
1968-11-20,real_gdp,2,1969Q2,2.8,1.1101351900270506,-1.6898648099729492
1968-11-20,unrate,0,1968Q4,3.7,3.4,-0.30000000000000027
1968-11-20,unrate,1,1969Q1,3.9,3.4,-0.5
1968-11-20,unrate,2,1969Q2,4.1,3.4333333333333336,-0.6666666666666661
1968-12-11,gdp_price,0,1968Q4,3.9,5.682798158905111,1.7827981589051114
1968-12-11,gdp_price,1,1969Q1,3.7,4.064393182714876,0.36439318271487586
1968-12-11,gdp_price,2,1969Q2,3.4,5.369116819027098,1.9691168190270978
1968-12-11,housing_starts,0,1968Q4,1520.0,1582.3333333333333,62.33333333333326
1968-12-11,housing_starts,1,1969Q1,1550.0,1678.3333333333333,128.33333333333326
1968-12-11,housing_starts,2,1969Q2,1610.0,1545.0,-65.0
1968-12-11,industrial_production,0,1968Q4,4.1,6.214435175832578,2.114435175832578
1968-12-11,industrial_production,1,1969Q1,1.9,8.011100233833535,6.111100233833534
1968-12-11,industrial_production,2,1969Q2,5.0,1.757528855196444,-3.242471144803556
1968-12-11,real_gdp,0,1968Q4,4.3,1.5486508190774018,-2.751349180922598
1968-12-11,real_gdp,1,1969Q1,2.8,6.373273143017788,3.573273143017788
1968-12-11,real_gdp,2,1969Q2,2.3,1.1101351900270506,-1.1898648099729492
1968-12-11,unrate,0,1968Q4,3.5,3.4,-0.10000000000000009
1968-12-11,unrate,1,1969Q1,3.7,3.4,-0.30000000000000027
1968-12-11,unrate,2,1969Q2,3.9,3.4333333333333336,-0.46666666666666634
1969-01-08,gdp_price,0,1969Q1,3.7,4.064393182714876,0.36439318271487586
1969-01-08,gdp_price,1,1969Q2,3.4,5.369116819027098,1.9691168190270978
1969-01-08,housing_starts,0,1969Q1,1730.0,1678.3333333333333,-51.66666666666674
1969-01-08,housing_starts,1,1969Q2,1530.0,1545.0,15.0
1969-01-08,industrial_production,0,1969Q1,3.8,8.011100233833535,4.211100233833535
1969-01-08,industrial_production,1,1969Q2,1.4,1.757528855196444,0.3575288551964442
1969-01-08,real_gdp,0,1969Q1,2.6,6.373273143017788,3.773273143017788
1969-01-08,real_gdp,1,1969Q2,1.5,1.1101351900270506,-0.38986480997294937
1969-01-08,unrate,0,1969Q1,3.6,3.4,-0.20000000000000018
1969-01-08,unrate,1,1969Q2,3.9,3.4333333333333336,-0.46666666666666634
1969-01-29,gdp_price,0,1969Q1,3.7,4.064393182714876,0.36439318271487586
1969-01-29,gdp_price,1,1969Q2,3.4,5.369116819027098,1.9691168190270978
1969-01-29,housing_starts,0,1969Q1,1630.0,1678.3333333333333,48.33333333333326
1969-01-29,housing_starts,1,1969Q2,1530.0,1545.0,15.0
1969-01-29,industrial_production,0,1969Q1,3.6,8.011100233833535,4.411100233833535
1969-01-29,industrial_production,1,1969Q2,0.7,1.757528855196444,1.0575288551964441
1969-01-29,real_gdp,0,1969Q1,2.3,6.373273143017788,4.073273143017788
1969-01-29,real_gdp,1,1969Q2,1.5,1.1101351900270506,-0.38986480997294937
1969-01-29,unrate,0,1969Q1,3.6,3.4,-0.20000000000000018
1969-01-29,unrate,1,1969Q2,3.8,3.4333333333333336,-0.36666666666666625
1969-02-26,gdp_price,0,1969Q1,3.7,4.064393182714876,0.36439318271487586
1969-02-26,gdp_price,1,1969Q2,3.4,5.369116819027098,1.9691168190270978
1969-02-26,gdp_price,2,1969Q3,4.3,5.823794703817864,1.523794703817864
1969-02-26,gdp_price,3,1969Q4,2.9,5.114448471542232,2.2144484715422323
1969-02-26,housing_starts,0,1969Q1,1670.0,1678.3333333333333,8.333333333333258
1969-02-26,housing_starts,1,1969Q2,1530.0,1545.0,15.0
1969-02-26,housing_starts,2,1969Q3,1350.0,1411.0,61.0
1969-02-26,housing_starts,3,1969Q4,1350.0,1312.3333333333333,-37.66666666666674
1969-02-26,industrial_production,0,1969Q1,6.2,8.011100233833535,1.8111002338335345
1969-02-26,industrial_production,1,1969Q2,1.9,1.757528855196444,-0.14247114480355583
1969-02-26,industrial_production,2,1969Q3,0.0,4.8886307530833895,4.8886307530833895
1969-02-26,industrial_production,3,1969Q4,2.8,-2.4841611106219963,-5.284161110621996
1969-02-26,real_gdp,0,1969Q1,2.4,6.373273143017788,3.973273143017788
1969-02-26,real_gdp,1,1969Q2,1.8,1.1101351900270506,-0.6898648099729494
1969-02-26,real_gdp,2,1969Q3,1.2,2.529877559121374,1.329877559121374
1969-02-26,real_gdp,3,1969Q4,2.4,-1.9280352388670208,-4.32803523886702
1969-02-26,unrate,0,1969Q1,3.5,3.4,-0.10000000000000009
1969-02-26,unrate,1,1969Q2,3.8,3.4333333333333336,-0.36666666666666625
1969-02-26,unrate,2,1969Q3,4.0,3.5666666666666664,-0.43333333333333357
1969-02-26,unrate,3,1969Q4,4.2,3.5666666666666664,-0.6333333333333337
1969-03-26,gdp_price,0,1969Q1,4.1,4.064393182714876,-0.035606817285123604
1969-03-26,gdp_price,1,1969Q2,3.9,5.369116819027098,1.4691168190270978
1969-03-26,gdp_price,2,1969Q3,4.8,5.823794703817864,1.023794703817864
1969-03-26,gdp_price,3,1969Q4,3.5,5.114448471542232,1.6144484715422323
1969-03-26,housing_starts,0,1969Q1,1720.0,1678.3333333333333,-41.66666666666674
1969-03-26,housing_starts,1,1969Q2,1530.0,1545.0,15.0
1969-03-26,housing_starts,2,1969Q3,1350.0,1411.0,61.0
1969-03-26,housing_starts,3,1969Q4,1350.0,1312.3333333333333,-37.66666666666674
1969-03-26,industrial_production,0,1969Q1,5.0,8.011100233833535,3.0111002338335346
1969-03-26,industrial_production,1,1969Q2,4.0,1.757528855196444,-2.242471144803556
1969-03-26,industrial_production,2,1969Q3,1.6,4.8886307530833895,3.2886307530833894
1969-03-26,industrial_production,3,1969Q4,2.6,-2.4841611106219963,-5.084161110621997
1969-03-26,real_gdp,0,1969Q1,2.7,6.373273143017788,3.673273143017788
1969-03-26,real_gdp,1,1969Q2,2.6,1.1101351900270506,-1.4898648099729495
1969-03-26,real_gdp,2,1969Q3,1.9,2.529877559121374,0.6298775591213741
1969-03-26,real_gdp,3,1969Q4,2.7,-1.9280352388670208,-4.628035238867021
1969-03-26,unrate,0,1969Q1,3.3,3.4,0.10000000000000009
1969-03-26,unrate,1,1969Q2,3.5,3.4333333333333336,-0.06666666666666643
1969-03-26,unrate,2,1969Q3,3.7,3.5666666666666664,-0.13333333333333375
1969-03-26,unrate,3,1969Q4,3.8,3.5666666666666664,-0.2333333333333334
1969-04-23,gdp_price,0,1969Q2,3.9,5.369116819027098,1.4691168190270978
1969-04-23,gdp_price,1,1969Q3,4.8,5.823794703817864,1.023794703817864
1969-04-23,gdp_price,2,1969Q4,3.5,5.114448471542232,1.6144484715422323
1969-04-23,housing_starts,0,1969Q2,1530.0,1545.0,15.0
1969-04-23,housing_starts,1,1969Q3,1400.0,1411.0,11.0
1969-04-23,housing_starts,2,1969Q4,1400.0,1312.3333333333333,-87.66666666666674
1969-04-23,industrial_production,0,1969Q2,5.4,1.757528855196444,-3.6424711448035563
1969-04-23,industrial_production,1,1969Q3,1.4,4.8886307530833895,3.4886307530833895
1969-04-23,industrial_production,2,1969Q4,2.1,-2.4841611106219963,-4.584161110621997
1969-04-23,real_gdp,0,1969Q2,3.0,1.1101351900270506,-1.8898648099729494
1969-04-23,real_gdp,1,1969Q3,1.5,2.529877559121374,1.029877559121374
1969-04-23,real_gdp,2,1969Q4,1.6,-1.9280352388670208,-3.528035238867021
1969-04-23,unrate,0,1969Q2,3.4,3.4333333333333336,0.03333333333333366
1969-04-23,unrate,1,1969Q3,3.6,3.5666666666666664,-0.03333333333333366
1969-04-23,unrate,2,1969Q4,3.8,3.5666666666666664,-0.2333333333333334
1969-05-21,gdp_price,0,1969Q2,4.0,5.369116819027098,1.3691168190270977
1969-05-21,gdp_price,1,1969Q3,4.8,5.823794703817864,1.023794703817864
1969-05-21,gdp_price,2,1969Q4,3.5,5.114448471542232,1.6144484715422323
1969-05-21,housing_starts,0,1969Q2,1510.0,1545.0,35.0
1969-05-21,housing_starts,1,1969Q3,1400.0,1411.0,11.0
1969-05-21,housing_starts,2,1969Q4,1400.0,1312.3333333333333,-87.66666666666674
1969-05-21,industrial_production,0,1969Q2,4.2,1.757528855196444,-2.442471144803556
1969-05-21,industrial_production,1,1969Q3,3.2,4.8886307530833895,1.6886307530833893
1969-05-21,industrial_production,2,1969Q4,3.5,-2.4841611106219963,-5.984161110621996
1969-05-21,real_gdp,0,1969Q2,2.2,1.1101351900270506,-1.0898648099729495
1969-05-21,real_gdp,1,1969Q3,1.4,2.529877559121374,1.129877559121374
1969-05-21,real_gdp,2,1969Q4,1.6,-1.9280352388670208,-3.528035238867021
1969-05-21,unrate,0,1969Q2,3.5,3.4333333333333336,-0.06666666666666643
1969-05-21,unrate,1,1969Q3,3.6,3.5666666666666664,-0.03333333333333366
1969-05-21,unrate,2,1969Q4,3.8,3.5666666666666664,-0.2333333333333334
1969-06-18,gdp_price,0,1969Q2,4.3,5.369116819027098,1.0691168190270979
1969-06-18,gdp_price,1,1969Q3,5.0,5.823794703817864,0.8237947038178639
1969-06-18,gdp_price,2,1969Q4,3.7,5.114448471542232,1.414448471542232
1969-06-18,housing_starts,0,1969Q2,1510.0,1545.0,35.0
1969-06-18,housing_starts,1,1969Q3,1450.0,1411.0,-39.0
1969-06-18,housing_starts,2,1969Q4,1450.0,1312.3333333333333,-137.66666666666674
1969-06-18,industrial_production,0,1969Q2,6.1,1.757528855196444,-4.342471144803556
1969-06-18,industrial_production,1,1969Q3,1.6,4.8886307530833895,3.2886307530833894
1969-06-18,industrial_production,2,1969Q4,1.2,-2.4841611106219963,-3.6841611106219965
1969-06-18,real_gdp,0,1969Q2,2.3,1.1101351900270506,-1.1898648099729492
1969-06-18,real_gdp,1,1969Q3,1.5,2.529877559121374,1.029877559121374
1969-06-18,real_gdp,2,1969Q4,1.0,-1.9280352388670208,-2.9280352388670208
1969-06-18,unrate,0,1969Q2,3.5,3.4333333333333336,-0.06666666666666643
1969-06-18,unrate,1,1969Q3,3.7,3.5666666666666664,-0.13333333333333375
1969-06-18,unrate,2,1969Q4,3.9,3.5666666666666664,-0.3333333333333335
1969-07-09,gdp_price,0,1969Q3,5.0,5.823794703817864,0.8237947038178639
1969-07-09,gdp_price,1,1969Q4,3.7,5.114448471542232,1.414448471542232
1969-07-09,gdp_price,2,1970Q1,3.5,5.62493791635732,2.12493791635732
1969-07-09,gdp_price,3,1970Q2,3.2,5.905086850895702,2.705086850895702
1969-07-09,housing_starts,0,1969Q3,1450.0,1411.0,-39.0
1969-07-09,housing_starts,1,1969Q4,1420.0,1312.3333333333333,-107.66666666666674
1969-07-09,housing_starts,2,1970Q1,1500.0,1236.3333333333333,-263.66666666666674
1969-07-09,housing_starts,3,1970Q2,1600.0,1313.0,-287.0
1969-07-09,industrial_production,0,1969Q3,3.0,4.8886307530833895,1.8886307530833895
1969-07-09,industrial_production,1,1969Q4,1.8,-2.4841611106219963,-4.284161110621996
1969-07-09,industrial_production,2,1970Q1,-1.2,-9.343978837526068,-8.143978837526069
1969-07-09,industrial_production,3,1970Q2,-3.2,-2.182372302324753,1.017627697675247
1969-07-09,real_gdp,0,1969Q3,1.5,2.529877559121374,1.029877559121374
1969-07-09,real_gdp,1,1969Q4,1.0,-1.9280352388670208,-2.9280352388670208
1969-07-09,real_gdp,2,1970Q1,-0.1,-0.5249261008898776,-0.4249261008898776
1969-07-09,real_gdp,3,1970Q2,-0.5,0.6514060091842078,1.1514060091842078
1969-07-09,unrate,0,1969Q3,3.6,3.5666666666666664,-0.03333333333333366
1969-07-09,unrate,1,1969Q4,3.9,3.5666666666666664,-0.3333333333333335
1969-07-09,unrate,2,1970Q1,4.1,4.166666666666667,0.06666666666666732
1969-07-09,unrate,3,1970Q2,4.5,4.766666666666667,0.2666666666666666
1969-08-06,gdp_price,0,1969Q3,5.1,5.823794703817864,0.7237947038178643
1969-08-06,gdp_price,1,1969Q4,3.8,5.114448471542232,1.3144484715422324
1969-08-06,gdp_price,2,1970Q1,3.5,5.62493791635732,2.12493791635732
1969-08-06,gdp_price,3,1970Q2,3.2,5.905086850895702,2.705086850895702
1969-08-06,housing_starts,0,1969Q3,1410.0,1411.0,1.0
1969-08-06,housing_starts,1,1969Q4,1350.0,1312.3333333333333,-37.66666666666674
1969-08-06,housing_starts,2,1970Q1,1400.0,1236.3333333333333,-163.66666666666674
1969-08-06,housing_starts,3,1970Q2,1450.0,1313.0,-137.0
1969-08-06,industrial_production,0,1969Q3,3.2,4.8886307530833895,1.6886307530833893
1969-08-06,industrial_production,1,1969Q4,1.8,-2.4841611106219963,-4.284161110621996
1969-08-06,industrial_production,2,1970Q1,-2.3,-9.343978837526068,-7.043978837526068
1969-08-06,industrial_production,3,1970Q2,-2.3,-2.182372302324753,0.11762769767524661
1969-08-06,real_gdp,0,1969Q3,1.5,2.529877559121374,1.029877559121374
1969-08-06,real_gdp,1,1969Q4,1.1,-1.9280352388670208,-3.028035238867021
1969-08-06,real_gdp,2,1970Q1,-0.2,-0.5249261008898776,-0.32492610088987756
1969-08-06,real_gdp,3,1970Q2,-0.6,0.6514060091842078,1.2514060091842079
1969-08-06,unrate,0,1969Q3,3.7,3.5666666666666664,-0.13333333333333375
1969-08-06,unrate,1,1969Q4,3.9,3.5666666666666664,-0.3333333333333335
1969-08-06,unrate,2,1970Q1,4.1,4.166666666666667,0.06666666666666732
1969-08-06,unrate,3,1970Q2,4.5,4.766666666666667,0.2666666666666666
1969-09-04,gdp_price,0,1969Q3,5.1,5.823794703817864,0.7237947038178643
1969-09-04,gdp_price,1,1969Q4,3.8,5.114448471542232,1.3144484715422324
1969-09-04,gdp_price,2,1970Q1,3.5,5.62493791635732,2.12493791635732
1969-09-04,gdp_price,3,1970Q2,3.2,5.905086850895702,2.705086850895702
1969-09-04,housing_starts,0,1969Q3,1250.0,1411.0,161.0
1969-09-04,housing_starts,1,1969Q4,1200.0,1312.3333333333333,112.33333333333326
1969-09-04,housing_starts,2,1970Q1,1200.0,1236.3333333333333,36.33333333333326
1969-09-04,housing_starts,3,1970Q2,1300.0,1313.0,13.0
1969-09-04,industrial_production,0,1969Q3,4.6,4.8886307530833895,0.2886307530833898
1969-09-04,industrial_production,1,1969Q4,2.7,-2.4841611106219963,-5.1841611106219965
1969-09-04,industrial_production,2,1970Q1,-1.8,-9.343978837526068,-7.543978837526068
1969-09-04,industrial_production,3,1970Q2,-1.6,-2.182372302324753,-0.5823723023247531
1969-09-04,real_gdp,0,1969Q3,1.8,2.529877559121374,0.729877559121374
1969-09-04,real_gdp,1,1969Q4,1.2,-1.9280352388670208,-3.128035238867021
1969-09-04,real_gdp,2,1970Q1,-0.4,-0.5249261008898776,-0.12492610088987754
1969-09-04,real_gdp,3,1970Q2,-0.1,0.6514060091842078,0.7514060091842077
1969-09-04,unrate,0,1969Q3,3.7,3.5666666666666664,-0.13333333333333375
1969-09-04,unrate,1,1969Q4,3.9,3.5666666666666664,-0.3333333333333335
1969-09-04,unrate,2,1970Q1,4.1,4.166666666666667,0.06666666666666732
1969-09-04,unrate,3,1970Q2,4.5,4.766666666666667,0.2666666666666666
1969-10-01,gdp_price,0,1969Q4,3.8,5.114448471542232,1.3144484715422324
1969-10-01,gdp_price,1,1970Q1,3.5,5.62493791635732,2.12493791635732
1969-10-01,gdp_price,2,1970Q2,3.2,5.905086850895702,2.705086850895702
1969-10-01,housing_starts,0,1969Q4,1200.0,1312.3333333333333,112.33333333333326
1969-10-01,housing_starts,1,1970Q1,1180.0,1236.3333333333333,56.33333333333326
1969-10-01,housing_starts,2,1970Q2,1130.0,1313.0,183.0
1969-10-01,industrial_production,0,1969Q4,2.5,-2.4841611106219963,-4.984161110621996
1969-10-01,industrial_production,1,1970Q1,-1.1,-9.343978837526068,-8.243978837526068
1969-10-01,industrial_production,2,1970Q2,-1.1,-2.182372302324753,-1.0823723023247531
1969-10-01,real_gdp,0,1969Q4,1.3,-1.9280352388670208,-3.2280352388670206
1969-10-01,real_gdp,1,1970Q1,-0.1,-0.5249261008898776,-0.4249261008898776
1969-10-01,real_gdp,2,1970Q2,-0.3,0.6514060091842078,0.9514060091842078
1969-10-01,unrate,0,1969Q4,3.9,3.5666666666666664,-0.3333333333333335
1969-10-01,unrate,1,1970Q1,4.2,4.166666666666667,-0.033333333333333215
1969-10-01,unrate,2,1970Q2,4.5,4.766666666666667,0.2666666666666666
1969-10-22,gdp_price,0,1969Q4,3.9,5.114448471542232,1.2144484715422323
1969-10-22,gdp_price,1,1970Q1,3.6,5.62493791635732,2.02493791635732
1969-10-22,gdp_price,2,1970Q2,3.3,5.905086850895702,2.6050868508957024
1969-10-22,housing_starts,0,1969Q4,1250.0,1312.3333333333333,62.33333333333326
1969-10-22,housing_starts,1,1970Q1,1130.0,1236.3333333333333,106.33333333333326
1969-10-22,housing_starts,2,1970Q2,1000.0,1313.0,313.0
1969-10-22,industrial_production,0,1969Q4,-0.9,-2.4841611106219963,-1.5841611106219964
1969-10-22,industrial_production,1,1970Q1,-2.3,-9.343978837526068,-7.043978837526068
1969-10-22,industrial_production,2,1970Q2,-1.9,-2.182372302324753,-0.2823723023247533
1969-10-22,real_gdp,0,1969Q4,1.2,-1.9280352388670208,-3.128035238867021
1969-10-22,real_gdp,1,1970Q1,-0.5,-0.5249261008898776,-0.024926100889877567
1969-10-22,real_gdp,2,1970Q2,-0.4,0.6514060091842078,1.0514060091842077
1969-10-22,unrate,0,1969Q4,4.0,3.5666666666666664,-0.43333333333333357
1969-10-22,unrate,1,1970Q1,4.2,4.166666666666667,-0.033333333333333215
1969-10-22,unrate,2,1970Q2,4.5,4.766666666666667,0.2666666666666666
1969-11-19,gdp_price,0,1969Q4,3.9,5.114448471542232,1.2144484715422323
1969-11-19,gdp_price,1,1970Q1,3.6,5.62493791635732,2.02493791635732
1969-11-19,gdp_price,2,1970Q2,3.3,5.905086850895702,2.6050868508957024
1969-11-19,gdp_price,3,1970Q3,4.1,3.3270845350611866,-0.772915464938813
1969-11-19,gdp_price,4,1970Q4,2.9,5.318218141984232,2.4182181419842323
1969-11-19,housing_starts,0,1969Q4,1250.0,1312.3333333333333,62.33333333333326
1969-11-19,housing_starts,1,1970Q1,1130.0,1236.3333333333333,106.33333333333326
1969-11-19,housing_starts,2,1970Q2,1000.0,1313.0,313.0
1969-11-19,housing_starts,3,1970Q3,1100.0,1483.3333333333333,383.33333333333326
1969-11-19,housing_starts,4,1970Q4,1300.0,1706.6666666666667,406.66666666666674
1969-11-19,industrial_production,0,1969Q4,-2.5,-2.4841611106219963,0.015838889378003707
1969-11-19,industrial_production,1,1970Q1,-1.6,-9.343978837526068,-7.743978837526068
1969-11-19,industrial_production,2,1970Q2,-1.2,-2.182372302324753,-0.9823723023247533
1969-11-19,industrial_production,3,1970Q3,1.9,-1.424797425218527,-3.324797425218527
1969-11-19,industrial_production,4,1970Q4,1.6,-8.37063016646148,-9.97063016646148
1969-11-19,real_gdp,0,1969Q4,1.4,-1.9280352388670208,-3.3280352388670207
1969-11-19,real_gdp,1,1970Q1,-0.5,-0.5249261008898776,-0.024926100889877567
1969-11-19,real_gdp,2,1970Q2,0.0,0.6514060091842078,0.6514060091842078
1969-11-19,real_gdp,3,1970Q3,2.0,3.673645113112478,1.673645113112478
1969-11-19,real_gdp,4,1970Q4,3.2,-4.403001824237707,-7.603001824237707
1969-11-19,unrate,0,1969Q4,4.0,3.5666666666666664,-0.43333333333333357
1969-11-19,unrate,1,1970Q1,4.2,4.166666666666667,-0.033333333333333215
1969-11-19,unrate,2,1970Q2,4.5,4.766666666666667,0.2666666666666666
1969-11-19,unrate,3,1970Q3,4.8,5.166666666666667,0.36666666666666714
1969-11-19,unrate,4,1970Q4,5.0,5.833333333333333,0.833333333333333
1969-12-10,gdp_price,0,1969Q4,4.1,5.114448471542232,1.0144484715422326
1969-12-10,gdp_price,1,1970Q1,3.9,5.62493791635732,1.72493791635732
1969-12-10,gdp_price,2,1970Q2,3.5,5.905086850895702,2.405086850895702
1969-12-10,gdp_price,3,1970Q3,4.3,3.3270845350611866,-0.9729154649388132
1969-12-10,gdp_price,4,1970Q4,3.1,5.318218141984232,2.218218141984232
1969-12-10,housing_starts,0,1969Q4,1250.0,1312.3333333333333,62.33333333333326
1969-12-10,housing_starts,1,1970Q1,1130.0,1236.3333333333333,106.33333333333326
1969-12-10,housing_starts,2,1970Q2,1000.0,1313.0,313.0
1969-12-10,housing_starts,3,1970Q3,1100.0,1483.3333333333333,383.33333333333326
1969-12-10,housing_starts,4,1970Q4,1300.0,1706.6666666666667,406.66666666666674
1969-12-10,industrial_production,0,1969Q4,-6.1,-2.4841611106219963,3.6158388893780034
1969-12-10,industrial_production,1,1970Q1,-1.0,-9.343978837526068,-8.343978837526068
1969-12-10,industrial_production,2,1970Q2,0.0,-2.182372302324753,-2.182372302324753
1969-12-10,industrial_production,3,1970Q3,1.9,-1.424797425218527,-3.324797425218527
1969-12-10,industrial_production,4,1970Q4,2.7,-8.37063016646148,-11.07063016646148
1969-12-10,real_gdp,0,1969Q4,1.0,-1.9280352388670208,-2.9280352388670208
1969-12-10,real_gdp,1,1970Q1,0.1,-0.5249261008898776,-0.6249261008898775
1969-12-10,real_gdp,2,1970Q2,0.4,0.6514060091842078,0.25140600918420775
1969-12-10,real_gdp,3,1970Q3,1.3,3.673645113112478,2.3736451131124783
1969-12-10,real_gdp,4,1970Q4,3.1,-4.403001824237707,-7.503001824237707
1969-12-10,unrate,0,1969Q4,3.7,3.5666666666666664,-0.13333333333333375
1969-12-10,unrate,1,1970Q1,4.1,4.166666666666667,0.06666666666666732
1969-12-10,unrate,2,1970Q2,4.5,4.766666666666667,0.2666666666666666
1969-12-10,unrate,3,1970Q3,4.7,5.166666666666667,0.4666666666666668
1969-12-10,unrate,4,1970Q4,4.9,5.833333333333333,0.9333333333333327
1970-01-07,gdp_price,0,1970Q1,3.9,5.62493791635732,1.72493791635732
1970-01-07,gdp_price,1,1970Q2,3.7,5.905086850895702,2.205086850895702
1970-01-07,gdp_price,2,1970Q3,4.6,3.3270845350611866,-1.272915464938813
1970-01-07,gdp_price,3,1970Q4,3.3,5.318218141984232,2.0182181419842324
1970-01-07,housing_starts,0,1970Q1,1130.0,1236.3333333333333,106.33333333333326
1970-01-07,housing_starts,1,1970Q2,1000.0,1313.0,313.0
1970-01-07,housing_starts,2,1970Q3,1000.0,1483.3333333333333,483.33333333333326
1970-01-07,housing_starts,3,1970Q4,1220.0,1706.6666666666667,486.66666666666674
1970-01-07,industrial_production,0,1970Q1,-3.7,-9.343978837526068,-5.643978837526068
1970-01-07,industrial_production,1,1970Q2,-2.4,-2.182372302324753,0.2176276976752467
1970-01-07,industrial_production,2,1970Q3,2.4,-1.424797425218527,-3.824797425218527
1970-01-07,industrial_production,3,1970Q4,3.5,-8.37063016646148,-11.87063016646148
1970-01-07,real_gdp,0,1970Q1,-0.5,-0.5249261008898776,-0.024926100889877567
1970-01-07,real_gdp,1,1970Q2,0.0,0.6514060091842078,0.6514060091842078
1970-01-07,real_gdp,2,1970Q3,1.8,3.673645113112478,1.873645113112478
1970-01-07,real_gdp,3,1970Q4,3.0,-4.403001824237707,-7.403001824237707
1970-01-07,unrate,0,1970Q1,4.0,4.166666666666667,0.16666666666666696
1970-01-07,unrate,1,1970Q2,4.5,4.766666666666667,0.2666666666666666
1970-01-07,unrate,2,1970Q3,4.6,5.166666666666667,0.5666666666666673
1970-01-07,unrate,3,1970Q4,4.8,5.833333333333333,1.0333333333333332
1970-02-04,gdp_price,0,1970Q1,4.2,5.62493791635732,1.4249379163573197
1970-02-04,gdp_price,1,1970Q2,4.0,5.905086850895702,1.9050868508957022
1970-02-04,gdp_price,2,1970Q3,3.7,3.3270845350611866,-0.37291546493881356
1970-02-04,gdp_price,3,1970Q4,3.5,5.318218141984232,1.8182181419842323
1970-02-04,housing_starts,0,1970Q1,1130.0,1236.3333333333333,106.33333333333326
1970-02-04,housing_starts,1,1970Q2,1030.0,1313.0,283.0
1970-02-04,housing_starts,2,1970Q3,1150.0,1483.3333333333333,333.33333333333326
1970-02-04,housing_starts,3,1970Q4,1300.0,1706.6666666666667,406.66666666666674
1970-02-04,industrial_production,0,1970Q1,-7.2,-9.343978837526068,-2.1439788375260678
1970-02-04,industrial_production,1,1970Q2,-2.8,-2.182372302324753,0.6176276976752466
1970-02-04,industrial_production,2,1970Q3,2.4,-1.424797425218527,-3.824797425218527
1970-02-04,industrial_production,3,1970Q4,4.7,-8.37063016646148,-13.07063016646148
1970-02-04,real_gdp,0,1970Q1,-1.3,-0.5249261008898776,0.7750738991101225
1970-02-04,real_gdp,1,1970Q2,-0.2,0.6514060091842078,0.8514060091842077
1970-02-04,real_gdp,2,1970Q3,1.5,3.673645113112478,2.173645113112478
1970-02-04,real_gdp,3,1970Q4,2.6,-4.403001824237707,-7.003001824237707
1970-02-04,unrate,0,1970Q1,4.2,4.166666666666667,-0.033333333333333215
1970-02-04,unrate,1,1970Q2,4.6,4.766666666666667,0.16666666666666696
1970-02-04,unrate,2,1970Q3,4.9,5.166666666666667,0.2666666666666666
1970-02-04,unrate,3,1970Q4,5.1,5.833333333333333,0.7333333333333334
1970-03-04,gdp_price,0,1970Q1,4.2,5.62493791635732,1.4249379163573197
1970-03-04,gdp_price,1,1970Q2,4.0,5.905086850895702,1.9050868508957022
1970-03-04,gdp_price,2,1970Q3,3.7,3.3270845350611866,-0.37291546493881356
1970-03-04,gdp_price,3,1970Q4,3.5,5.318218141984232,1.8182181419842323
1970-03-04,housing_starts,0,1970Q1,1120.0,1236.3333333333333,116.33333333333326
1970-03-04,housing_starts,1,1970Q2,1030.0,1313.0,283.0
1970-03-04,housing_starts,2,1970Q3,1150.0,1483.3333333333333,333.33333333333326
1970-03-04,housing_starts,3,1970Q4,1300.0,1706.6666666666667,406.66666666666674
1970-03-04,industrial_production,0,1970Q1,-4.9,-9.343978837526068,-4.443978837526068
1970-03-04,industrial_production,1,1970Q2,-3.1,-2.182372302324753,0.9176276976752469
1970-03-04,industrial_production,2,1970Q3,2.8,-1.424797425218527,-4.224797425218527
1970-03-04,industrial_production,3,1970Q4,4.7,-8.37063016646148,-13.07063016646148
1970-03-04,real_gdp,0,1970Q1,-1.3,-0.5249261008898776,0.7750738991101225
1970-03-04,real_gdp,1,1970Q2,-0.5,0.6514060091842078,1.1514060091842078
1970-03-04,real_gdp,2,1970Q3,1.7,3.673645113112478,1.9736451131124781
1970-03-04,real_gdp,3,1970Q4,2.6,-4.403001824237707,-7.003001824237707
1970-03-04,unrate,0,1970Q1,4.2,4.166666666666667,-0.033333333333333215
1970-03-04,unrate,1,1970Q2,4.6,4.766666666666667,0.16666666666666696
1970-03-04,unrate,2,1970Q3,4.9,5.166666666666667,0.2666666666666666
1970-03-04,unrate,3,1970Q4,5.1,5.833333333333333,0.7333333333333334
1970-04-01,gdp_price,0,1970Q2,4.0,5.905086850895702,1.9050868508957022
1970-04-01,gdp_price,1,1970Q3,4.9,3.3270845350611866,-1.5729154649388137
1970-04-01,gdp_price,2,1970Q4,3.6,5.318218141984232,1.7182181419842322
1970-04-01,housing_starts,0,1970Q2,1030.0,1313.0,283.0
1970-04-01,housing_starts,1,1970Q3,1150.0,1483.3333333333333,333.33333333333326
1970-04-01,housing_starts,2,1970Q4,1300.0,1706.6666666666667,406.66666666666674
1970-04-01,industrial_production,0,1970Q2,-1.2,-2.182372302324753,-0.9823723023247533
1970-04-01,industrial_production,1,1970Q3,2.8,-1.424797425218527,-4.224797425218527
1970-04-01,industrial_production,2,1970Q4,5.4,-8.37063016646148,-13.77063016646148
1970-04-01,real_gdp,0,1970Q2,0.8,0.6514060091842078,-0.14859399081579228
1970-04-01,real_gdp,1,1970Q3,2.0,3.673645113112478,1.673645113112478
1970-04-01,real_gdp,2,1970Q4,3.5,-4.403001824237707,-7.903001824237707
1970-04-01,unrate,0,1970Q2,4.4,4.766666666666667,0.36666666666666625
1970-04-01,unrate,1,1970Q3,4.7,5.166666666666667,0.4666666666666668
1970-04-01,unrate,2,1970Q4,4.9,5.833333333333333,0.9333333333333327
1970-04-29,gdp_price,0,1970Q2,6.4,5.905086850895702,-0.4949131491042982
1970-04-29,gdp_price,1,1970Q3,3.0,3.3270845350611866,0.3270845350611866
1970-04-29,gdp_price,2,1970Q4,3.7,5.318218141984232,1.618218141984232
1970-04-29,housing_starts,0,1970Q2,1200.0,1313.0,113.0
1970-04-29,housing_starts,1,1970Q3,1350.0,1483.3333333333333,133.33333333333326
1970-04-29,housing_starts,2,1970Q4,1500.0,1706.6666666666667,206.66666666666674
1970-04-29,industrial_production,0,1970Q2,0.0,-2.182372302324753,-2.182372302324753
1970-04-29,industrial_production,1,1970Q3,4.4,-1.424797425218527,-5.824797425218527
1970-04-29,industrial_production,2,1970Q4,4.4,-8.37063016646148,-12.77063016646148
1970-04-29,real_gdp,0,1970Q2,-0.2,0.6514060091842078,0.8514060091842077
1970-04-29,real_gdp,1,1970Q3,3.9,3.673645113112478,-0.2263548868875218
1970-04-29,real_gdp,2,1970Q4,3.4,-4.403001824237707,-7.8030018242377075
1970-04-29,unrate,0,1970Q2,4.6,4.766666666666667,0.16666666666666696
1970-04-29,unrate,1,1970Q3,4.7,5.166666666666667,0.4666666666666668
1970-04-29,unrate,2,1970Q4,4.8,5.833333333333333,1.0333333333333332
1970-05-20,gdp_price,0,1970Q2,4.5,5.905086850895702,1.4050868508957022
1970-05-20,gdp_price,1,1970Q3,4.2,3.3270845350611866,-0.8729154649388136
1970-05-20,gdp_price,2,1970Q4,3.7,5.318218141984232,1.618218141984232
1970-05-20,housing_starts,0,1970Q2,1200.0,1313.0,113.0
1970-05-20,housing_starts,1,1970Q3,1350.0,1483.3333333333333,133.33333333333326
1970-05-20,housing_starts,2,1970Q4,1500.0,1706.6666666666667,206.66666666666674
1970-05-20,industrial_production,0,1970Q2,-0.5,-2.182372302324753,-1.6823723023247532
1970-05-20,industrial_production,1,1970Q3,3.0,-1.424797425218527,-4.424797425218527
1970-05-20,industrial_production,2,1970Q4,3.7,-8.37063016646148,-12.07063016646148
1970-05-20,real_gdp,0,1970Q2,-0.2,0.6514060091842078,0.8514060091842077
1970-05-20,real_gdp,1,1970Q3,2.6,3.673645113112478,1.073645113112478
1970-05-20,real_gdp,2,1970Q4,2.8,-4.403001824237707,-7.203001824237707
1970-05-20,unrate,0,1970Q2,4.9,4.766666666666667,-0.13333333333333375
1970-05-20,unrate,1,1970Q3,5.1,5.166666666666667,0.06666666666666732
1970-05-20,unrate,2,1970Q4,5.2,5.833333333333333,0.6333333333333329
1970-06-17,gdp_price,0,1970Q2,4.5,5.905086850895702,1.4050868508957022
1970-06-17,gdp_price,1,1970Q3,4.0,3.3270845350611866,-0.6729154649388134
1970-06-17,gdp_price,2,1970Q4,3.5,5.318218141984232,1.8182181419842323
1970-06-17,gdp_price,3,1971Q1,3.2,6.224473954201226,3.024473954201226
1970-06-17,gdp_price,4,1971Q2,2.8,5.46787003494642,2.6678700349464206
1970-06-17,housing_starts,0,1970Q2,1200.0,1313.0,113.0
1970-06-17,housing_starts,1,1970Q3,1330.0,1483.3333333333333,153.33333333333326
1970-06-17,housing_starts,2,1970Q4,1450.0,1706.6666666666667,256.66666666666674
1970-06-17,housing_starts,3,1971Q1,1550.0,1826.3333333333333,276.33333333333326
1970-06-17,housing_starts,4,1971Q2,1600.0,2020.3333333333333,420.33333333333326
1970-06-17,industrial_production,0,1970Q2,-2.6,-2.182372302324753,0.4176276976752469
1970-06-17,industrial_production,1,1970Q3,2.4,-1.424797425218527,-3.824797425218527
1970-06-17,industrial_production,2,1970Q4,2.3,-8.37063016646148,-10.670630166461478
1970-06-17,industrial_production,3,1971Q1,2.4,7.9376416548087025,5.537641654808702
1970-06-17,industrial_production,4,1971Q2,3.7,3.672703207329064,-0.02729679267093621
1970-06-17,real_gdp,0,1970Q2,-0.4,0.6514060091842078,1.0514060091842077
1970-06-17,real_gdp,1,1970Q3,1.8,3.673645113112478,1.873645113112478
1970-06-17,real_gdp,2,1970Q4,2.6,-4.403001824237707,-7.003001824237707
1970-06-17,real_gdp,3,1971Q1,2.8,11.725218988978623,8.925218988978624
1970-06-17,real_gdp,4,1971Q2,3.1,2.319858014779075,-0.7801419852209253
1970-06-17,unrate,0,1970Q2,5.0,4.766666666666667,-0.2333333333333334
1970-06-17,unrate,1,1970Q3,5.3,5.166666666666667,-0.13333333333333286
1970-06-17,unrate,2,1970Q4,5.6,5.833333333333333,0.2333333333333334
1970-06-17,unrate,3,1971Q1,5.8,5.933333333333334,0.13333333333333375
1970-06-17,unrate,4,1971Q2,6.0,5.900000000000001,-0.09999999999999876
1970-07-15,gdp_price,0,1970Q3,4.0,3.3270845350611866,-0.6729154649388134
1970-07-15,gdp_price,1,1970Q4,3.5,5.318218141984232,1.8182181419842323
1970-07-15,gdp_price,2,1971Q1,3.2,6.224473954201226,3.024473954201226
1970-07-15,gdp_price,3,1971Q2,2.8,5.46787003494642,2.6678700349464206
1970-07-15,housing_starts,0,1970Q3,1330.0,1483.3333333333333,153.33333333333326
1970-07-15,housing_starts,1,1970Q4,1450.0,1706.6666666666667,256.66666666666674
1970-07-15,housing_starts,2,1971Q1,1550.0,1826.3333333333333,276.33333333333326
1970-07-15,housing_starts,3,1971Q2,1600.0,2020.3333333333333,420.33333333333326
1970-07-15,industrial_production,0,1970Q3,1.7,-1.424797425218527,-3.124797425218527
1970-07-15,industrial_production,1,1970Q4,2.4,-8.37063016646148,-10.77063016646148
1970-07-15,industrial_production,2,1971Q1,2.8,7.9376416548087025,5.137641654808703
1970-07-15,industrial_production,3,1971Q2,3.5,3.672703207329064,0.17270320732906397
1970-07-15,real_gdp,0,1970Q3,1.6,3.673645113112478,2.073645113112478
1970-07-15,real_gdp,1,1970Q4,2.5,-4.403001824237707,-6.903001824237707
1970-07-15,real_gdp,2,1971Q1,3.0,11.725218988978623,8.725218988978623
1970-07-15,real_gdp,3,1971Q2,3.0,2.319858014779075,-0.6801419852209252
1970-07-15,unrate,0,1970Q3,5.1,5.166666666666667,0.06666666666666732
1970-07-15,unrate,1,1970Q4,5.4,5.833333333333333,0.4333333333333327
1970-07-15,unrate,2,1971Q1,5.6,5.933333333333334,0.3333333333333339
1970-07-15,unrate,3,1971Q2,5.8,5.900000000000001,0.10000000000000142
1970-08-12,gdp_price,0,1970Q3,4.0,3.3270845350611866,-0.6729154649388134
1970-08-12,gdp_price,1,1970Q4,3.5,5.318218141984232,1.8182181419842323
1970-08-12,gdp_price,2,1971Q1,4.1,6.224473954201226,2.1244739542012265
1970-08-12,gdp_price,3,1971Q2,3.0,5.46787003494642,2.4678700349464204
1970-08-12,housing_starts,0,1970Q3,1350.0,1483.3333333333333,133.33333333333326
1970-08-12,housing_starts,1,1970Q4,1500.0,1706.6666666666667,206.66666666666674
1970-08-12,housing_starts,2,1971Q1,1570.0,1826.3333333333333,256.33333333333326
1970-08-12,housing_starts,3,1971Q2,1630.0,2020.3333333333333,390.33333333333326
1970-08-12,industrial_production,0,1970Q3,1.7,-1.424797425218527,-3.124797425218527
1970-08-12,industrial_production,1,1970Q4,2.6,-8.37063016646148,-10.97063016646148
1970-08-12,industrial_production,2,1971Q1,3.0,7.9376416548087025,4.9376416548087025
1970-08-12,industrial_production,3,1971Q2,3.7,3.672703207329064,-0.02729679267093621
1970-08-12,real_gdp,0,1970Q3,1.6,3.673645113112478,2.073645113112478
1970-08-12,real_gdp,1,1970Q4,2.7,-4.403001824237707,-7.103001824237707
1970-08-12,real_gdp,2,1971Q1,3.2,11.725218988978623,8.525218988978622
1970-08-12,real_gdp,3,1971Q2,3.3,2.319858014779075,-0.980141985220925
1970-08-12,unrate,0,1970Q3,5.1,5.166666666666667,0.06666666666666732
1970-08-12,unrate,1,1970Q4,5.3,5.833333333333333,0.5333333333333332
1970-08-12,unrate,2,1971Q1,5.5,5.933333333333334,0.43333333333333357
1970-08-12,unrate,3,1971Q2,5.7,5.900000000000001,0.20000000000000107
1970-09-09,gdp_price,0,1970Q3,4.0,3.3270845350611866,-0.6729154649388134
1970-09-09,gdp_price,1,1970Q4,3.6,5.318218141984232,1.7182181419842322
1970-09-09,gdp_price,2,1971Q1,4.2,6.224473954201226,2.024473954201226
1970-09-09,gdp_price,3,1971Q2,3.0,5.46787003494642,2.4678700349464204
1970-09-09,housing_starts,0,1970Q3,1490.0,1483.3333333333333,-6.6666666666667425
1970-09-09,housing_starts,1,1970Q4,1530.0,1706.6666666666667,176.66666666666674
1970-09-09,housing_starts,2,1971Q1,1650.0,1826.3333333333333,176.33333333333326
1970-09-09,housing_starts,3,1971Q2,1750.0,2020.3333333333333,270.33333333333326
1970-09-09,industrial_production,0,1970Q3,-1.7,-1.424797425218527,0.27520257478147303
1970-09-09,industrial_production,1,1970Q4,2.4,-8.37063016646148,-10.77063016646148
1970-09-09,industrial_production,2,1971Q1,2.8,7.9376416548087025,5.137641654808703
1970-09-09,industrial_production,3,1971Q2,4.2,3.672703207329064,-0.5272967926709362
1970-09-09,real_gdp,0,1970Q3,1.7,3.673645113112478,1.9736451131124781
1970-09-09,real_gdp,1,1970Q4,2.5,-4.403001824237707,-6.903001824237707
1970-09-09,real_gdp,2,1971Q1,2.8,11.725218988978623,8.925218988978624
1970-09-09,real_gdp,3,1971Q2,3.7,2.319858014779075,-1.3801419852209253
1970-09-09,unrate,0,1970Q3,5.1,5.166666666666667,0.06666666666666732
1970-09-09,unrate,1,1970Q4,5.3,5.833333333333333,0.5333333333333332
1970-09-09,unrate,2,1971Q1,5.5,5.933333333333334,0.43333333333333357
1970-09-09,unrate,3,1971Q2,5.6,5.900000000000001,0.3000000000000016
1970-10-14,gdp_price,0,1970Q4,3.6,5.318218141984232,1.7182181419842322
1970-10-14,gdp_price,1,1971Q1,4.3,6.224473954201226,1.9244739542012264
1970-10-14,gdp_price,2,1971Q2,3.0,5.46787003494642,2.4678700349464204
1970-10-14,housing_starts,0,1970Q4,1530.0,1706.6666666666667,176.66666666666674
1970-10-14,housing_starts,1,1971Q1,1650.0,1826.3333333333333,176.33333333333326
1970-10-14,housing_starts,2,1971Q2,1750.0,2020.3333333333333,270.33333333333326
1970-10-14,industrial_production,0,1970Q4,-1.0,-8.37063016646148,-7.3706301664614795
1970-10-14,industrial_production,1,1971Q1,2.1,7.9376416548087025,5.837641654808703
1970-10-14,industrial_production,2,1971Q2,3.6,3.672703207329064,0.07270320732906388
1970-10-14,real_gdp,0,1970Q4,1.5,-4.403001824237707,-5.903001824237707
1970-10-14,real_gdp,1,1971Q1,3.8,11.725218988978623,7.9252189889786235
1970-10-14,real_gdp,2,1971Q2,2.9,2.319858014779075,-0.5801419852209251
1970-10-14,unrate,0,1970Q4,5.6,5.833333333333333,0.2333333333333334
1970-10-14,unrate,1,1971Q1,5.8,5.933333333333334,0.13333333333333375
1970-10-14,unrate,2,1971Q2,5.9,5.900000000000001,8.881784197001252e-16
1970-11-11,gdp_price,0,1970Q4,4.0,5.318218141984232,1.3182181419842323
1970-11-11,gdp_price,1,1971Q1,4.7,6.224473954201226,1.524473954201226
1970-11-11,gdp_price,2,1971Q2,3.6,5.46787003494642,1.8678700349464203
1970-11-11,gdp_price,3,1971Q3,3.4,4.118414242116275,0.7184142421162751
1970-11-11,gdp_price,4,1971Q4,3.2,3.343654190296652,0.14365419029665194
1970-11-11,housing_starts,0,1970Q4,1550.0,1706.6666666666667,156.66666666666674
1970-11-11,housing_starts,1,1971Q1,1650.0,1826.3333333333333,176.33333333333326
1970-11-11,housing_starts,2,1971Q2,1750.0,2020.3333333333333,270.33333333333326
1970-11-11,housing_starts,3,1971Q3,1820.0,2094.0,274.0
1970-11-11,housing_starts,4,1971Q4,1850.0,2201.6666666666665,351.6666666666665
1970-11-11,industrial_production,0,1970Q4,-10.8,-8.37063016646148,2.429369833538521
1970-11-11,industrial_production,1,1971Q1,8.6,7.9376416548087025,-0.6623583451912971
1970-11-11,industrial_production,2,1971Q2,1.7,3.672703207329064,1.972703207329064
1970-11-11,industrial_production,3,1971Q3,3.1,1.239234242653242,-1.8607657573467582
1970-11-11,industrial_production,4,1971Q4,5.9,9.598746778040644,3.6987467780406433
1970-11-11,real_gdp,0,1970Q4,-0.2,-4.403001824237707,-4.203001824237707
1970-11-11,real_gdp,1,1971Q1,4.3,11.725218988978623,7.4252189889786235
1970-11-11,real_gdp,2,1971Q2,1.7,2.319858014779075,0.6198580147790749
1970-11-11,real_gdp,3,1971Q3,2.8,3.0220255979034993,0.22202559790349952
1970-11-11,real_gdp,4,1971Q4,3.3,1.078556649496365,-2.221443350503635
1970-11-11,unrate,0,1970Q4,5.7,5.833333333333333,0.13333333333333286
1970-11-11,unrate,1,1971Q1,6.0,5.933333333333334,-0.06666666666666643
1970-11-11,unrate,2,1971Q2,6.3,5.900000000000001,-0.3999999999999986
1970-11-11,unrate,3,1971Q3,6.6,6.033333333333334,-0.5666666666666655
1970-11-11,unrate,4,1971Q4,6.7,5.933333333333334,-0.7666666666666666
1970-12-09,gdp_price,0,1970Q4,4.2,5.318218141984232,1.118218141984232
1970-12-09,gdp_price,1,1971Q1,4.9,6.224473954201226,1.3244739542012258
1970-12-09,gdp_price,2,1971Q2,3.8,5.46787003494642,1.6678700349464206
1970-12-09,gdp_price,3,1971Q3,3.6,4.118414242116275,0.518414242116275
1970-12-09,gdp_price,4,1971Q4,3.4,3.343654190296652,-0.05634580970334779
1970-12-09,housing_starts,0,1970Q4,1580.0,1706.6666666666667,126.66666666666674
1970-12-09,housing_starts,1,1971Q1,1650.0,1826.3333333333333,176.33333333333326
1970-12-09,housing_starts,2,1971Q2,1750.0,2020.3333333333333,270.33333333333326
1970-12-09,housing_starts,3,1971Q3,1820.0,2094.0,274.0
1970-12-09,housing_starts,4,1971Q4,1850.0,2201.6666666666665,351.6666666666665
1970-12-09,industrial_production,0,1970Q4,-13.1,-8.37063016646148,4.72936983353852
1970-12-09,industrial_production,1,1971Q1,11.1,7.9376416548087025,-3.162358345191297
1970-12-09,industrial_production,2,1971Q2,2.4,3.672703207329064,1.272703207329064
1970-12-09,industrial_production,3,1971Q3,2.9,1.239234242653242,-1.660765757346758
1970-12-09,industrial_production,4,1971Q4,5.7,9.598746778040644,3.8987467780406435
1970-12-09,real_gdp,0,1970Q4,-2.0,-4.403001824237707,-2.403001824237707
1970-12-09,real_gdp,1,1971Q1,5.8,11.725218988978623,5.9252189889786235
1970-12-09,real_gdp,2,1971Q2,2.7,2.319858014779075,-0.38014198522092535
1970-12-09,real_gdp,3,1971Q3,2.6,3.0220255979034993,0.42202559790349925
1970-12-09,real_gdp,4,1971Q4,3.2,1.078556649496365,-2.121443350503635
1970-12-09,unrate,0,1970Q4,5.7,5.833333333333333,0.13333333333333286
1970-12-09,unrate,1,1971Q1,6.0,5.933333333333334,-0.06666666666666643
1970-12-09,unrate,2,1971Q2,6.3,5.900000000000001,-0.3999999999999986
1970-12-09,unrate,3,1971Q3,6.6,6.033333333333334,-0.5666666666666655
1970-12-09,unrate,4,1971Q4,6.7,5.933333333333334,-0.7666666666666666
1971-01-06,gdp_price,0,1971Q1,4.6,6.224473954201226,1.6244739542012265
1971-01-06,gdp_price,1,1971Q2,3.9,5.46787003494642,1.5678700349464205
1971-01-06,gdp_price,2,1971Q3,3.6,4.118414242116275,0.518414242116275
1971-01-06,gdp_price,3,1971Q4,3.4,3.343654190296652,-0.05634580970334779
1971-01-06,housing_starts,0,1971Q1,1710.0,1826.3333333333333,116.33333333333326
1971-01-06,housing_starts,1,1971Q2,1750.0,2020.3333333333333,270.33333333333326
1971-01-06,housing_starts,2,1971Q3,1820.0,2094.0,274.0
1971-01-06,housing_starts,3,1971Q4,1850.0,2201.6666666666665,351.6666666666665
1971-01-06,industrial_production,0,1971Q1,11.6,7.9376416548087025,-3.662358345191297
1971-01-06,industrial_production,1,1971Q2,1.9,3.672703207329064,1.772703207329064
1971-01-06,industrial_production,2,1971Q3,3.1,1.239234242653242,-1.8607657573467582
1971-01-06,industrial_production,3,1971Q4,5.7,9.598746778040644,3.8987467780406435
1971-01-06,real_gdp,0,1971Q1,7.0,11.725218988978623,4.725218988978623
1971-01-06,real_gdp,1,1971Q2,2.2,2.319858014779075,0.11985801477907465
1971-01-06,real_gdp,2,1971Q3,2.7,3.0220255979034993,0.32202559790349916
1971-01-06,real_gdp,3,1971Q4,3.2,1.078556649496365,-2.121443350503635
1971-01-06,unrate,0,1971Q1,6.0,5.933333333333334,-0.06666666666666643
1971-01-06,unrate,1,1971Q2,6.3,5.900000000000001,-0.3999999999999986
1971-01-06,unrate,2,1971Q3,6.6,6.033333333333334,-0.5666666666666655
1971-01-06,unrate,3,1971Q4,6.7,5.933333333333334,-0.7666666666666666
1971-02-03,gdp_price,0,1971Q1,4.5,6.224473954201226,1.7244739542012262
1971-02-03,gdp_price,1,1971Q2,3.9,5.46787003494642,1.5678700349464205
1971-02-03,gdp_price,2,1971Q3,3.8,4.118414242116275,0.3184142421162752
1971-02-03,gdp_price,3,1971Q4,3.6,3.343654190296652,-0.25634580970334797
1971-02-03,housing_starts,0,1971Q1,1800.0,1826.3333333333333,26.333333333333258
1971-02-03,housing_starts,1,1971Q2,1850.0,2020.3333333333333,170.33333333333326
1971-02-03,housing_starts,2,1971Q3,1900.0,2094.0,194.0
1971-02-03,housing_starts,3,1971Q4,1900.0,2201.6666666666665,301.6666666666665
1971-02-03,industrial_production,0,1971Q1,7.4,7.9376416548087025,0.5376416548087022
1971-02-03,industrial_production,1,1971Q2,5.3,3.672703207329064,-1.6272967926709359
1971-02-03,industrial_production,2,1971Q3,0.0,1.239234242653242,1.239234242653242
1971-02-03,industrial_production,3,1971Q4,7.2,9.598746778040644,2.3987467780406435
1971-02-03,real_gdp,0,1971Q1,6.1,11.725218988978623,5.625218988978624
1971-02-03,real_gdp,1,1971Q2,3.7,2.319858014779075,-1.3801419852209253
1971-02-03,real_gdp,2,1971Q3,1.5,3.0220255979034993,1.5220255979034993
1971-02-03,real_gdp,3,1971Q4,5.9,1.078556649496365,-4.821443350503635
1971-02-03,unrate,0,1971Q1,6.1,5.933333333333334,-0.16666666666666607
1971-02-03,unrate,1,1971Q2,6.3,5.900000000000001,-0.3999999999999986
1971-02-03,unrate,2,1971Q3,6.5,6.033333333333334,-0.4666666666666659
1971-02-03,unrate,3,1971Q4,6.5,5.933333333333334,-0.5666666666666664
1971-03-03,gdp_price,0,1971Q1,4.5,6.224473954201226,1.7244739542012262
1971-03-03,gdp_price,1,1971Q2,3.9,5.46787003494642,1.5678700349464205
1971-03-03,gdp_price,2,1971Q3,3.8,4.118414242116275,0.3184142421162752
1971-03-03,gdp_price,3,1971Q4,3.6,3.343654190296652,-0.25634580970334797
1971-03-03,housing_starts,0,1971Q1,1800.0,1826.3333333333333,26.333333333333258
1971-03-03,housing_starts,1,1971Q2,1850.0,2020.3333333333333,170.33333333333326
1971-03-03,housing_starts,2,1971Q3,1900.0,2094.0,194.0
1971-03-03,housing_starts,3,1971Q4,1900.0,2201.6666666666665,301.6666666666665
1971-03-03,industrial_production,0,1971Q1,7.2,7.9376416548087025,0.7376416548087024
1971-03-03,industrial_production,1,1971Q2,5.0,3.672703207329064,-1.327296792670936
1971-03-03,industrial_production,2,1971Q3,0.5,1.239234242653242,0.7392342426532419
1971-03-03,industrial_production,3,1971Q4,7.2,9.598746778040644,2.3987467780406435
1971-03-03,real_gdp,0,1971Q1,7.2,11.725218988978623,4.525218988978623
1971-03-03,real_gdp,1,1971Q2,3.6,2.319858014779075,-1.2801419852209253
1971-03-03,real_gdp,2,1971Q3,1.6,3.0220255979034993,1.4220255979034992
1971-03-03,real_gdp,3,1971Q4,5.9,1.078556649496365,-4.821443350503635
1971-03-03,unrate,0,1971Q1,6.0,5.933333333333334,-0.06666666666666643
1971-03-03,unrate,1,1971Q2,6.2,5.900000000000001,-0.29999999999999893
1971-03-03,unrate,2,1971Q3,6.5,6.033333333333334,-0.4666666666666659
1971-03-03,unrate,3,1971Q4,6.5,5.933333333333334,-0.5666666666666664
1971-03-31,gdp_price,0,1971Q1,4.7,6.224473954201226,1.524473954201226
1971-03-31,gdp_price,1,1971Q2,4.0,5.46787003494642,1.4678700349464204
1971-03-31,gdp_price,2,1971Q3,4.7,4.118414242116275,-0.5815857578837251
1971-03-31,gdp_price,3,1971Q4,3.6,3.343654190296652,-0.25634580970334797
1971-03-31,housing_starts,0,1971Q1,1750.0,1826.3333333333333,76.33333333333326
1971-03-31,housing_starts,1,1971Q2,1830.0,2020.3333333333333,190.33333333333326
1971-03-31,housing_starts,2,1971Q3,1880.0,2094.0,214.0
1971-03-31,housing_starts,3,1971Q4,1900.0,2201.6666666666665,301.6666666666665
1971-03-31,industrial_production,0,1971Q1,6.1,7.9376416548087025,1.837641654808703
1971-03-31,industrial_production,1,1971Q2,3.6,3.672703207329064,0.07270320732906388
1971-03-31,industrial_production,2,1971Q3,1.7,1.239234242653242,-0.46076575734675806
1971-03-31,industrial_production,3,1971Q4,7.2,9.598746778040644,2.3987467780406435
1971-03-31,real_gdp,0,1971Q1,6.4,11.725218988978623,5.325218988978623
1971-03-31,real_gdp,1,1971Q2,2.7,2.319858014779075,-0.38014198522092535
1971-03-31,real_gdp,2,1971Q3,2.6,3.0220255979034993,0.42202559790349925
1971-03-31,real_gdp,3,1971Q4,6.0,1.078556649496365,-4.921443350503635
1971-03-31,unrate,0,1971Q1,6.0,5.933333333333334,-0.06666666666666643
1971-03-31,unrate,1,1971Q2,6.3,5.900000000000001,-0.3999999999999986
1971-03-31,unrate,2,1971Q3,6.5,6.033333333333334,-0.4666666666666659
1971-03-31,unrate,3,1971Q4,6.5,5.933333333333334,-0.5666666666666664
1971-04-28,gdp_price,0,1971Q2,4.3,5.46787003494642,1.1678700349464206
1971-04-28,gdp_price,1,1971Q3,4.9,4.118414242116275,-0.7815857578837253
1971-04-28,gdp_price,2,1971Q4,3.8,3.343654190296652,-0.4563458097033477
1971-04-28,housing_starts,0,1971Q2,1830.0,2020.3333333333333,190.33333333333326
1971-04-28,housing_starts,1,1971Q3,1880.0,2094.0,214.0
1971-04-28,housing_starts,2,1971Q4,1900.0,2201.6666666666665,301.6666666666665
1971-04-28,industrial_production,0,1971Q2,5.5,3.672703207329064,-1.827296792670936
1971-04-28,industrial_production,1,1971Q3,0.7,1.239234242653242,0.5392342426532419
1971-04-28,industrial_production,2,1971Q4,7.2,9.598746778040644,2.3987467780406435
1971-04-28,real_gdp,0,1971Q2,3.1,2.319858014779075,-0.7801419852209253
1971-04-28,real_gdp,1,1971Q3,2.4,3.0220255979034993,0.6220255979034994
1971-04-28,real_gdp,2,1971Q4,6.0,1.078556649496365,-4.921443350503635
1971-04-28,unrate,0,1971Q2,6.2,5.900000000000001,-0.29999999999999893
1971-04-28,unrate,1,1971Q3,6.4,6.033333333333334,-0.36666666666666625
1971-04-28,unrate,2,1971Q4,6.4,5.933333333333334,-0.4666666666666668
1971-06-02,gdp_price,0,1971Q2,4.7,5.46787003494642,0.7678700349464203
1971-06-02,gdp_price,1,1971Q3,4.9,4.118414242116275,-0.7815857578837253
1971-06-02,gdp_price,2,1971Q4,3.9,3.343654190296652,-0.5563458097033478
1971-06-02,housing_starts,0,1971Q2,1950.0,2020.3333333333333,70.33333333333326
1971-06-02,housing_starts,1,1971Q3,2050.0,2094.0,44.0
1971-06-02,housing_starts,2,1971Q4,2080.0,2201.6666666666665,121.66666666666652
1971-06-02,industrial_production,0,1971Q2,2.5,3.672703207329064,1.172703207329064
1971-06-02,industrial_production,1,1971Q3,1.7,1.239234242653242,-0.46076575734675806
1971-06-02,industrial_production,2,1971Q4,6.7,9.598746778040644,2.8987467780406435
1971-06-02,real_gdp,0,1971Q2,2.9,2.319858014779075,-0.5801419852209251
1971-06-02,real_gdp,1,1971Q3,2.1,3.0220255979034993,0.9220255979034992
1971-06-02,real_gdp,2,1971Q4,5.3,1.078556649496365,-4.221443350503635
1971-06-02,unrate,0,1971Q2,6.2,5.900000000000001,-0.29999999999999893
1971-06-02,unrate,1,1971Q3,6.4,6.033333333333334,-0.36666666666666625
1971-06-02,unrate,2,1971Q4,6.4,5.933333333333334,-0.4666666666666668
1971-06-23,gdp_price,0,1971Q2,4.6,5.46787003494642,0.8678700349464208
1971-06-23,gdp_price,1,1971Q3,5.5,4.118414242116275,-1.381585757883725
1971-06-23,gdp_price,2,1971Q4,4.4,3.343654190296652,-1.0563458097033482
1971-06-23,gdp_price,3,1972Q1,5.1,6.576951065469672,1.476951065469672
1971-06-23,gdp_price,4,1972Q2,4.2,2.477120757613815,-1.7228792423861852
1971-06-23,housing_starts,0,1971Q2,1950.0,2020.3333333333333,70.33333333333326
1971-06-23,housing_starts,1,1971Q3,2050.0,2094.0,44.0
1971-06-23,housing_starts,2,1971Q4,2080.0,2201.6666666666665,121.66666666666652
1971-06-23,housing_starts,3,1972Q1,2100.0,2406.0,306.0
1971-06-23,housing_starts,4,1972Q2,2100.0,2241.3333333333335,141.33333333333348
1971-06-23,industrial_production,0,1971Q2,4.2,3.672703207329064,-0.5272967926709362
1971-06-23,industrial_production,1,1971Q3,2.1,1.239234242653242,-0.8607657573467582
1971-06-23,industrial_production,2,1971Q4,4.7,9.598746778040644,4.8987467780406435
1971-06-23,industrial_production,3,1972Q1,6.0,18.14410360145031,12.144103601450311
1971-06-23,industrial_production,4,1972Q2,6.7,7.830687442639883,1.130687442639883
1971-06-23,real_gdp,0,1971Q2,3.2,2.319858014779075,-0.8801419852209253
1971-06-23,real_gdp,1,1971Q3,2.5,3.0220255979034993,0.5220255979034993
1971-06-23,real_gdp,2,1971Q4,4.0,1.078556649496365,-2.921443350503635
1971-06-23,real_gdp,3,1972Q1,4.8,7.626159551671741,2.826159551671741
1971-06-23,real_gdp,4,1972Q2,5.1,9.276908370665035,4.176908370665036
1971-06-23,unrate,0,1971Q2,6.2,5.900000000000001,-0.29999999999999893
1971-06-23,unrate,1,1971Q3,6.5,6.033333333333334,-0.4666666666666659
1971-06-23,unrate,2,1971Q4,6.6,5.933333333333334,-0.6666666666666661
1971-06-23,unrate,3,1972Q1,6.5,5.766666666666667,-0.7333333333333334
1971-06-23,unrate,4,1972Q2,6.3,5.7,-0.5999999999999996
1971-07-21,gdp_price,0,1971Q3,4.5,4.118414242116275,-0.38158575788372495
1971-07-21,gdp_price,1,1971Q4,5.3,3.343654190296652,-1.9563458097033477
1971-07-21,gdp_price,2,1972Q1,5.1,6.576951065469672,1.476951065469672
1971-07-21,gdp_price,3,1972Q2,4.2,2.477120757613815,-1.7228792423861852
1971-07-21,housing_starts,0,1971Q3,2050.0,2094.0,44.0
1971-07-21,housing_starts,1,1971Q4,2080.0,2201.6666666666665,121.66666666666652
1971-07-21,housing_starts,2,1972Q1,2100.0,2406.0,306.0
1971-07-21,housing_starts,3,1972Q2,2100.0,2241.3333333333335,141.33333333333348
1971-07-21,industrial_production,0,1971Q3,2.3,1.239234242653242,-1.060765757346758
1971-07-21,industrial_production,1,1971Q4,5.7,9.598746778040644,3.8987467780406435
1971-07-21,industrial_production,2,1972Q1,6.3,18.14410360145031,11.84410360145031
1971-07-21,industrial_production,3,1972Q2,7.2,7.830687442639883,0.630687442639883
1971-07-21,real_gdp,0,1971Q3,2.7,3.0220255979034993,0.32202559790349916
1971-07-21,real_gdp,1,1971Q4,5.0,1.078556649496365,-3.921443350503635
1971-07-21,real_gdp,2,1972Q1,5.1,7.626159551671741,2.526159551671741
1971-07-21,real_gdp,3,1972Q2,5.6,9.276908370665035,3.6769083706650356
1971-07-21,unrate,0,1971Q3,6.2,6.033333333333334,-0.16666666666666607
1971-07-21,unrate,1,1971Q4,6.4,5.933333333333334,-0.4666666666666668
1971-07-21,unrate,2,1972Q1,6.3,5.766666666666667,-0.5333333333333332
1971-07-21,unrate,3,1972Q2,6.1,5.7,-0.39999999999999947
1971-08-20,gdp_price,0,1971Q3,3.8,4.118414242116275,0.3184142421162752
1971-08-20,gdp_price,1,1971Q4,3.0,3.343654190296652,0.3436541902966521
1971-08-20,housing_starts,0,1971Q3,2110.0,2094.0,-16.0
1971-08-20,housing_starts,1,1971Q4,2130.0,2201.6666666666665,71.66666666666652
1971-08-20,industrial_production,0,1971Q3,2.5,1.239234242653242,-1.260765757346758
1971-08-20,industrial_production,1,1971Q4,7.5,9.598746778040644,2.0987467780406437
1971-08-20,real_gdp,0,1971Q3,3.1,3.0220255979034993,-0.07797440209650075
1971-08-20,real_gdp,1,1971Q4,6.6,1.078556649496365,-5.521443350503635
1971-08-20,unrate,0,1971Q3,6.1,6.033333333333334,-0.06666666666666554
1971-08-20,unrate,1,1971Q4,6.0,5.933333333333334,-0.06666666666666643
1971-09-15,gdp_price,0,1971Q3,4.1,4.118414242116275,0.018414242116275403
1971-09-15,gdp_price,1,1971Q4,2.2,3.343654190296652,1.143654190296652
1971-09-15,gdp_price,2,1972Q1,3.9,6.576951065469672,2.6769510654696718
1971-09-15,gdp_price,3,1972Q2,1.6,2.477120757613815,0.8771207576138149
1971-09-15,housing_starts,0,1971Q3,2110.0,2094.0,-16.0
1971-09-15,housing_starts,1,1971Q4,2130.0,2201.6666666666665,71.66666666666652
1971-09-15,housing_starts,2,1972Q1,2130.0,2406.0,276.0
1971-09-15,housing_starts,3,1972Q2,2130.0,2241.3333333333335,111.33333333333348
1971-09-15,industrial_production,0,1971Q3,-3.6,1.239234242653242,4.839234242653242
1971-09-15,industrial_production,1,1971Q4,7.5,9.598746778040644,2.0987467780406437
1971-09-15,industrial_production,2,1972Q1,8.5,18.14410360145031,9.644103601450311
1971-09-15,industrial_production,3,1972Q2,8.7,7.830687442639883,-0.8693125573601161
1971-09-15,real_gdp,0,1971Q3,2.1,3.0220255979034993,0.9220255979034992
1971-09-15,real_gdp,1,1971Q4,6.4,1.078556649496365,-5.321443350503635
1971-09-15,real_gdp,2,1972Q1,7.3,7.626159551671741,0.3261595516717408
1971-09-15,real_gdp,3,1972Q2,7.5,9.276908370665035,1.7769083706650353
1971-09-15,unrate,0,1971Q3,6.1,6.033333333333334,-0.06666666666666554
1971-09-15,unrate,1,1971Q4,6.0,5.933333333333334,-0.06666666666666643
1971-09-15,unrate,2,1972Q1,5.8,5.766666666666667,-0.033333333333333215
1971-09-15,unrate,3,1972Q2,5.5,5.7,0.20000000000000018
1971-10-13,gdp_price,0,1971Q4,2.5,3.343654190296652,0.8436541902966521
1971-10-13,gdp_price,1,1972Q1,3.5,6.576951065469672,3.0769510654696717
1971-10-13,gdp_price,2,1972Q2,2.5,2.477120757613815,-0.022879242386184995
1971-10-13,housing_starts,0,1971Q4,2200.0,2201.6666666666665,1.666666666666515
1971-10-13,housing_starts,1,1972Q1,2200.0,2406.0,206.0
1971-10-13,housing_starts,2,1972Q2,2150.0,2241.3333333333335,91.33333333333348
1971-10-13,industrial_production,0,1971Q4,9.1,9.598746778040644,0.49874677804064405
1971-10-13,industrial_production,1,1972Q1,10.3,18.14410360145031,7.8441036014503105
1971-10-13,industrial_production,2,1972Q2,10.1,7.830687442639883,-2.2693125573601165
1971-10-13,real_gdp,0,1971Q4,7.1,1.078556649496365,-6.021443350503635
1971-10-13,real_gdp,1,1972Q1,7.9,7.626159551671741,-0.2738404483282597
1971-10-13,real_gdp,2,1972Q2,7.1,9.276908370665035,2.1769083706650356
1971-10-13,unrate,0,1971Q4,5.9,5.933333333333334,0.033333333333333215
1971-10-13,unrate,1,1972Q1,5.7,5.766666666666667,0.06666666666666643
1971-10-13,unrate,2,1972Q2,5.5,5.7,0.20000000000000018
1971-11-10,gdp_price,0,1971Q4,2.4,3.343654190296652,0.9436541902966522
1971-11-10,gdp_price,1,1972Q1,4.0,6.576951065469672,2.5769510654696717
1971-11-10,gdp_price,2,1972Q2,3.1,2.477120757613815,-0.6228792423861851
1971-11-10,gdp_price,3,1972Q3,3.6,3.672307841374866,0.07230784137486612
1971-11-10,gdp_price,4,1972Q4,2.8,4.643248001593792,1.8432480015937918
1971-11-10,housing_starts,0,1971Q4,2200.0,2201.6666666666665,1.666666666666515
1971-11-10,housing_starts,1,1972Q1,2180.0,2406.0,226.0
1971-11-10,housing_starts,2,1972Q2,2150.0,2241.3333333333335,91.33333333333348
1971-11-10,housing_starts,3,1972Q3,2100.0,2371.6666666666665,271.6666666666665
1971-11-10,housing_starts,4,1972Q4,2000.0,2424.0,424.0
1971-11-10,industrial_production,0,1971Q4,4.2,9.598746778040644,5.3987467780406435
1971-11-10,industrial_production,1,1972Q1,8.3,18.14410360145031,9.84410360145031
1971-11-10,industrial_production,2,1972Q2,9.2,7.830687442639883,-1.3693125573601161
1971-11-10,industrial_production,3,1972Q3,8.3,5.171297060984448,-3.128702939015553
1971-11-10,industrial_production,4,1972Q4,8.8,14.598002676363308,5.798002676363307
1971-11-10,real_gdp,0,1971Q4,5.8,1.078556649496365,-4.721443350503635
1971-11-10,real_gdp,1,1972Q1,6.3,7.626159551671741,1.3261595516717408
1971-11-10,real_gdp,2,1972Q2,6.6,9.276908370665035,2.6769083706650356
1971-11-10,real_gdp,3,1972Q3,5.8,4.036189880216923,-1.7638101197830771
1971-11-10,real_gdp,4,1972Q4,6.3,6.799320628966887,0.49932062896688745
1971-11-10,unrate,0,1971Q4,5.8,5.933333333333334,0.13333333333333375
1971-11-10,unrate,1,1972Q1,5.7,5.766666666666667,0.06666666666666643
1971-11-10,unrate,2,1972Q2,5.6,5.7,0.10000000000000053
1971-11-10,unrate,3,1972Q3,5.5,5.566666666666666,0.06666666666666643
1971-11-10,unrate,4,1972Q4,5.3,5.366666666666667,0.06666666666666732
1971-12-08,gdp_price,0,1971Q4,2.4,3.343654190296652,0.9436541902966522
1971-12-08,gdp_price,1,1972Q1,4.0,6.576951065469672,2.5769510654696717
1971-12-08,gdp_price,2,1972Q2,3.1,2.477120757613815,-0.6228792423861851
1971-12-08,gdp_price,3,1972Q3,3.6,3.672307841374866,0.07230784137486612
1971-12-08,gdp_price,4,1972Q4,2.8,4.643248001593792,1.8432480015937918
1971-12-08,housing_starts,0,1971Q4,2200.0,2201.6666666666665,1.666666666666515
1971-12-08,housing_starts,1,1972Q1,2180.0,2406.0,226.0
1971-12-08,housing_starts,2,1972Q2,2150.0,2241.3333333333335,91.33333333333348
1971-12-08,housing_starts,3,1972Q3,2100.0,2371.6666666666665,271.6666666666665
1971-12-08,housing_starts,4,1972Q4,2000.0,2424.0,424.0
1971-12-08,industrial_production,0,1971Q4,4.8,9.598746778040644,4.798746778040644
1971-12-08,industrial_production,1,1972Q1,9.0,18.14410360145031,9.144103601450311
1971-12-08,industrial_production,2,1972Q2,10.4,7.830687442639883,-2.569312557360117
1971-12-08,industrial_production,3,1972Q3,9.1,5.171297060984448,-3.928702939015552
1971-12-08,industrial_production,4,1972Q4,9.6,14.598002676363308,4.998002676363308
1971-12-08,real_gdp,0,1971Q4,5.9,1.078556649496365,-4.821443350503635
1971-12-08,real_gdp,1,1972Q1,6.8,7.626159551671741,0.8261595516717408
1971-12-08,real_gdp,2,1972Q2,6.6,9.276908370665035,2.6769083706650356
1971-12-08,real_gdp,3,1972Q3,6.1,4.036189880216923,-2.063810119783077
1971-12-08,real_gdp,4,1972Q4,6.4,6.799320628966887,0.3993206289668869
1971-12-08,unrate,0,1971Q4,5.9,5.933333333333334,0.033333333333333215
1971-12-08,unrate,1,1972Q1,5.7,5.766666666666667,0.06666666666666643
1971-12-08,unrate,2,1972Q2,5.6,5.7,0.10000000000000053
1971-12-08,unrate,3,1972Q3,5.5,5.566666666666666,0.06666666666666643
1971-12-08,unrate,4,1972Q4,5.3,5.366666666666667,0.06666666666666732
1972-01-07,gdp_price,0,1972Q1,5.2,6.576951065469672,1.3769510654696715
1972-01-07,gdp_price,1,1972Q2,3.1,2.477120757613815,-0.6228792423861851
1972-01-07,gdp_price,2,1972Q3,2.9,3.672307841374866,0.7723078413748663
1972-01-07,gdp_price,3,1972Q4,2.8,4.643248001593792,1.8432480015937918
1972-01-07,housing_starts,0,1972Q1,2180.0,2406.0,226.0
1972-01-07,housing_starts,1,1972Q2,2150.0,2241.3333333333335,91.33333333333348
1972-01-07,housing_starts,2,1972Q3,2100.0,2371.6666666666665,271.6666666666665
1972-01-07,housing_starts,3,1972Q4,2000.0,2424.0,424.0
1972-01-07,industrial_production,0,1972Q1,7.8,18.14410360145031,10.34410360145031
1972-01-07,industrial_production,1,1972Q2,8.6,7.830687442639883,-0.7693125573601165
1972-01-07,industrial_production,2,1972Q3,9.4,5.171297060984448,-4.228702939015553
1972-01-07,industrial_production,3,1972Q4,9.4,14.598002676363308,5.198002676363307
1972-01-07,real_gdp,0,1972Q1,5.8,7.626159551671741,1.8261595516717408
1972-01-07,real_gdp,1,1972Q2,6.6,9.276908370665035,2.6769083706650356
1972-01-07,real_gdp,2,1972Q3,6.9,4.036189880216923,-2.8638101197830776
1972-01-07,real_gdp,3,1972Q4,6.8,6.799320628966887,-0.0006793710331125524
1972-01-07,unrate,0,1972Q1,5.9,5.766666666666667,-0.13333333333333375
1972-01-07,unrate,1,1972Q2,5.8,5.7,-0.09999999999999964
1972-01-07,unrate,2,1972Q3,5.6,5.566666666666666,-0.033333333333333215
1972-01-07,unrate,3,1972Q4,5.4,5.366666666666667,-0.033333333333333215
1972-02-09,gdp_price,0,1972Q1,5.2,6.576951065469672,1.3769510654696715
1972-02-09,gdp_price,1,1972Q2,3.1,2.477120757613815,-0.6228792423861851
1972-02-09,gdp_price,2,1972Q3,2.9,3.672307841374866,0.7723078413748663
1972-02-09,gdp_price,3,1972Q4,2.8,4.643248001593792,1.8432480015937918
1972-02-09,housing_starts,0,1972Q1,2200.0,2406.0,206.0
1972-02-09,housing_starts,1,1972Q2,2150.0,2241.3333333333335,91.33333333333348
1972-02-09,housing_starts,2,1972Q3,2100.0,2371.6666666666665,271.6666666666665
1972-02-09,housing_starts,3,1972Q4,2000.0,2424.0,424.0
1972-02-09,industrial_production,0,1972Q1,7.1,18.14410360145031,11.044103601450312
1972-02-09,industrial_production,1,1972Q2,9.5,7.830687442639883,-1.6693125573601169
1972-02-09,industrial_production,2,1972Q3,8.6,5.171297060984448,-3.428702939015552
1972-02-09,industrial_production,3,1972Q4,8.8,14.598002676363308,5.798002676363307
1972-02-09,real_gdp,0,1972Q1,5.9,7.626159551671741,1.7261595516717403
1972-02-09,real_gdp,1,1972Q2,6.5,9.276908370665035,2.7769083706650353
1972-02-09,real_gdp,2,1972Q3,6.1,4.036189880216923,-2.063810119783077
1972-02-09,real_gdp,3,1972Q4,6.7,6.799320628966887,0.09932062896688709
1972-02-09,unrate,0,1972Q1,5.8,5.766666666666667,-0.033333333333333215
1972-02-09,unrate,1,1972Q2,5.7,5.7,0.0
1972-02-09,unrate,2,1972Q3,5.6,5.566666666666666,-0.033333333333333215
1972-02-09,unrate,3,1972Q4,5.4,5.366666666666667,-0.033333333333333215
1972-03-15,gdp_price,0,1972Q1,5.6,6.576951065469672,0.976951065469672
1972-03-15,gdp_price,1,1972Q2,3.4,2.477120757613815,-0.9228792423861849
1972-03-15,gdp_price,2,1972Q3,2.8,3.672307841374866,0.8723078413748664
1972-03-15,gdp_price,3,1972Q4,2.8,4.643248001593792,1.8432480015937918
1972-03-15,housing_starts,0,1972Q1,2400.0,2406.0,6.0
1972-03-15,housing_starts,1,1972Q2,2300.0,2241.3333333333335,-58.666666666666515
1972-03-15,housing_starts,2,1972Q3,2200.0,2371.6666666666665,171.66666666666652
1972-03-15,housing_starts,3,1972Q4,2100.0,2424.0,324.0
1972-03-15,industrial_production,0,1972Q1,7.7,18.14410360145031,10.444103601450312
1972-03-15,industrial_production,1,1972Q2,8.2,7.830687442639883,-0.36931255736011614
1972-03-15,industrial_production,2,1972Q3,8.6,5.171297060984448,-3.428702939015552
1972-03-15,industrial_production,3,1972Q4,9.1,14.598002676363308,5.498002676363308
1972-03-15,real_gdp,0,1972Q1,5.9,7.626159551671741,1.7261595516717403
1972-03-15,real_gdp,1,1972Q2,6.3,9.276908370665035,2.9769083706650354
1972-03-15,real_gdp,2,1972Q3,6.5,4.036189880216923,-2.4638101197830773
1972-03-15,real_gdp,3,1972Q4,6.7,6.799320628966887,0.09932062896688709
1972-03-15,unrate,0,1972Q1,5.8,5.766666666666667,-0.033333333333333215
1972-03-15,unrate,1,1972Q2,5.7,5.7,0.0
1972-03-15,unrate,2,1972Q3,5.6,5.566666666666666,-0.033333333333333215
1972-03-15,unrate,3,1972Q4,5.4,5.366666666666667,-0.033333333333333215
1972-04-12,gdp_price,0,1972Q2,3.5,2.477120757613815,-1.022879242386185
1972-04-12,gdp_price,1,1972Q3,3.2,3.672307841374866,0.47230784137486603
1972-04-12,gdp_price,2,1972Q4,3.0,4.643248001593792,1.6432480015937916
1972-04-12,housing_starts,0,1972Q2,2300.0,2241.3333333333335,-58.666666666666515
1972-04-12,housing_starts,1,1972Q3,2200.0,2371.6666666666665,171.66666666666652
1972-04-12,housing_starts,2,1972Q4,2100.0,2424.0,324.0
1972-04-12,industrial_production,0,1972Q2,8.1,7.830687442639883,-0.2693125573601165
1972-04-12,industrial_production,1,1972Q3,9.8,5.171297060984448,-4.628702939015553
1972-04-12,industrial_production,2,1972Q4,9.5,14.598002676363308,5.098002676363308
1972-04-12,real_gdp,0,1972Q2,6.2,9.276908370665035,3.076908370665035
1972-04-12,real_gdp,1,1972Q3,7.4,4.036189880216923,-3.3638101197830776
1972-04-12,real_gdp,2,1972Q4,6.9,6.799320628966887,-0.10067937103311309
1972-04-12,unrate,0,1972Q2,5.7,5.7,0.0
1972-04-12,unrate,1,1972Q3,5.5,5.566666666666666,0.06666666666666643
1972-04-12,unrate,2,1972Q4,5.4,5.366666666666667,-0.033333333333333215
1972-05-17,gdp_price,0,1972Q2,4.0,2.477120757613815,-1.522879242386185
1972-05-17,gdp_price,1,1972Q3,3.4,3.672307841374866,0.2723078413748663
1972-05-17,gdp_price,2,1972Q4,3.4,4.643248001593792,1.2432480015937917
1972-05-17,housing_starts,0,1972Q2,2300.0,2241.3333333333335,-58.666666666666515
1972-05-17,housing_starts,1,1972Q3,2200.0,2371.6666666666665,171.66666666666652
1972-05-17,housing_starts,2,1972Q4,2100.0,2424.0,324.0
1972-05-17,industrial_production,0,1972Q2,8.1,7.830687442639883,-0.2693125573601165
1972-05-17,industrial_production,1,1972Q3,10.4,5.171297060984448,-5.228702939015553
1972-05-17,industrial_production,2,1972Q4,10.2,14.598002676363308,4.398002676363308
1972-05-17,real_gdp,0,1972Q2,6.9,9.276908370665035,2.376908370665035
1972-05-17,real_gdp,1,1972Q3,7.9,4.036189880216923,-3.8638101197830776
1972-05-17,real_gdp,2,1972Q4,7.8,6.799320628966887,-1.0006793710331126
1972-05-17,unrate,0,1972Q2,5.7,5.7,0.0
1972-05-17,unrate,1,1972Q3,5.5,5.566666666666666,0.06666666666666643
1972-05-17,unrate,2,1972Q4,5.2,5.366666666666667,0.16666666666666696
1972-06-14,gdp_price,0,1972Q2,4.0,2.477120757613815,-1.522879242386185
1972-06-14,gdp_price,1,1972Q3,3.4,3.672307841374866,0.2723078413748663
1972-06-14,gdp_price,2,1972Q4,3.4,4.643248001593792,1.2432480015937917
1972-06-14,housing_starts,0,1972Q2,2300.0,2241.3333333333335,-58.666666666666515
1972-06-14,housing_starts,1,1972Q3,2200.0,2371.6666666666665,171.66666666666652
1972-06-14,housing_starts,2,1972Q4,2100.0,2424.0,324.0
1972-06-14,industrial_production,0,1972Q2,8.4,7.830687442639883,-0.5693125573601172
1972-06-14,industrial_production,1,1972Q3,10.0,5.171297060984448,-4.828702939015552
1972-06-14,industrial_production,2,1972Q4,9.8,14.598002676363308,4.798002676363307
1972-06-14,real_gdp,0,1972Q2,6.4,9.276908370665035,2.876908370665035
1972-06-14,real_gdp,1,1972Q3,7.7,4.036189880216923,-3.6638101197830775
1972-06-14,real_gdp,2,1972Q4,7.5,6.799320628966887,-0.7006793710331127
1972-06-14,unrate,0,1972Q2,5.8,5.7,-0.09999999999999964
1972-06-14,unrate,1,1972Q3,5.6,5.566666666666666,-0.033333333333333215
1972-06-14,unrate,2,1972Q4,5.3,5.366666666666667,0.06666666666666732
1972-07-12,gdp_price,0,1972Q3,3.2,3.672307841374866,0.47230784137486603
1972-07-12,gdp_price,1,1972Q4,3.2,4.643248001593792,1.4432480015937914
1972-07-12,gdp_price,2,1973Q1,4.1,5.200110954961623,1.1001109549616235
1972-07-12,gdp_price,3,1973Q2,3.5,6.78892837900924,3.2889283790092403
1972-07-12,gdp_price,4,1973Q3,4.1,7.862739085684267,3.7627390856842675
1972-07-12,gdp_price,5,1973Q4,4.2,7.119248533333744,2.919248533333744
1972-07-12,housing_starts,0,1972Q3,2200.0,2371.6666666666665,171.66666666666652
1972-07-12,housing_starts,1,1972Q4,2100.0,2424.0,324.0
1972-07-12,industrial_production,0,1972Q3,8.0,5.171297060984448,-2.8287029390155523
1972-07-12,industrial_production,1,1972Q4,9.7,14.598002676363308,4.898002676363308
1972-07-12,real_gdp,0,1972Q3,6.5,4.036189880216923,-2.4638101197830773
1972-07-12,real_gdp,1,1972Q4,7.7,6.799320628966887,-0.9006793710331129
1972-07-12,real_gdp,2,1973Q1,6.3,10.66975221798765,4.36975221798765
1972-07-12,real_gdp,3,1973Q2,5.6,4.6109106848726045,-0.9890893151273952
1972-07-12,real_gdp,4,1973Q3,4.7,-1.5167083835978423,-6.216708383597842
1972-07-12,real_gdp,5,1973Q4,4.5,3.84212453881192,-0.6578754611880799
1972-07-12,unrate,0,1972Q3,5.6,5.566666666666666,-0.033333333333333215
1972-07-12,unrate,1,1972Q4,5.3,5.366666666666667,0.06666666666666732
1972-07-12,unrate,2,1973Q1,5.2,4.933333333333334,-0.2666666666666666
1972-07-12,unrate,3,1973Q2,5.1,4.933333333333334,-0.16666666666666607
1972-07-12,unrate,4,1973Q3,5.0,4.8,-0.20000000000000018
1972-07-12,unrate,5,1973Q4,5.0,4.766666666666667,-0.2333333333333334
1972-08-09,gdp_price,0,1972Q3,3.3,3.672307841374866,0.3723078413748664
1972-08-09,gdp_price,1,1972Q4,2.9,4.643248001593792,1.7432480015937917
1972-08-09,gdp_price,2,1973Q1,3.8,5.200110954961623,1.4001109549616233
1972-08-09,gdp_price,3,1973Q2,3.2,6.78892837900924,3.58892837900924
1972-08-09,gdp_price,4,1973Q3,3.8,7.862739085684267,4.062739085684267
1972-08-09,gdp_price,5,1973Q4,4.1,7.119248533333744,3.0192485333337444
1972-08-09,housing_starts,0,1972Q3,2200.0,2371.6666666666665,171.66666666666652
1972-08-09,housing_starts,1,1972Q4,2100.0,2424.0,324.0
1972-08-09,housing_starts,2,1973Q1,2000.0,2378.3333333333335,378.3333333333335
1972-08-09,housing_starts,3,1973Q2,1900.0,2139.0,239.0
1972-08-09,housing_starts,4,1973Q3,1900.0,2016.0,116.0
1972-08-09,housing_starts,5,1973Q4,1900.0,1642.3333333333333,-257.66666666666674
1972-08-09,industrial_production,0,1972Q3,7.6,5.171297060984448,-2.428702939015552
1972-08-09,industrial_production,1,1972Q4,9.3,14.598002676363308,5.298002676363307
1972-08-09,industrial_production,2,1973Q1,8.7,11.901990032307186,3.2019900323071866
1972-08-09,industrial_production,3,1973Q2,7.4,3.476681190720421,-3.9233188092795794
1972-08-09,industrial_production,4,1973Q3,6.0,3.440019223702273,-2.559980776297727
1972-08-09,industrial_production,5,1973Q4,5.4,6.325948874621856,0.9259488746218558
1972-08-09,real_gdp,0,1972Q3,6.2,4.036189880216923,-2.1638101197830775
1972-08-09,real_gdp,1,1972Q4,7.5,6.799320628966887,-0.7006793710331127
1972-08-09,real_gdp,2,1973Q1,6.5,10.66975221798765,4.16975221798765
1972-08-09,real_gdp,3,1973Q2,5.4,4.6109106848726045,-0.7890893151273959
1972-08-09,real_gdp,4,1973Q3,4.4,-1.5167083835978423,-5.916708383597843
1972-08-09,real_gdp,5,1973Q4,4.2,3.84212453881192,-0.3578754611880801
1972-08-09,unrate,0,1972Q3,5.5,5.566666666666666,0.06666666666666643
1972-08-09,unrate,1,1972Q4,5.3,5.366666666666667,0.06666666666666732
1972-08-09,unrate,2,1973Q1,5.2,4.933333333333334,-0.2666666666666666
1972-08-09,unrate,3,1973Q2,5.1,4.933333333333334,-0.16666666666666607
1972-08-09,unrate,4,1973Q3,5.0,4.8,-0.20000000000000018
1972-08-09,unrate,5,1973Q4,5.0,4.766666666666667,-0.2333333333333334
1972-09-13,gdp_price,0,1972Q3,3.3,3.672307841374866,0.3723078413748664
1972-09-13,gdp_price,1,1972Q4,2.9,4.643248001593792,1.7432480015937917
1972-09-13,gdp_price,2,1973Q1,4.0,5.200110954961623,1.2001109549616231
1972-09-13,gdp_price,3,1973Q2,3.5,6.78892837900924,3.2889283790092403
1972-09-13,gdp_price,4,1973Q3,4.2,7.862739085684267,3.662739085684267
1972-09-13,gdp_price,5,1973Q4,4.5,7.119248533333744,2.619248533333744
1972-09-13,housing_starts,0,1972Q3,2200.0,2371.6666666666665,171.66666666666652
1972-09-13,housing_starts,1,1972Q4,2100.0,2424.0,324.0
1972-09-13,industrial_production,0,1972Q3,3.5,5.171297060984448,1.6712970609844477
1972-09-13,industrial_production,1,1972Q4,9.7,14.598002676363308,4.898002676363308
1972-09-13,real_gdp,0,1972Q3,6.0,4.036189880216923,-1.9638101197830773
1972-09-13,real_gdp,1,1972Q4,7.9,6.799320628966887,-1.100679371033113
1972-09-13,real_gdp,2,1973Q1,7.0,10.66975221798765,3.66975221798765
1972-09-13,real_gdp,3,1973Q2,5.9,4.6109106848726045,-1.2890893151273959
1972-09-13,real_gdp,4,1973Q3,4.8,-1.5167083835978423,-6.316708383597842
1972-09-13,real_gdp,5,1973Q4,4.3,3.84212453881192,-0.45787546118807976
1972-09-13,unrate,0,1972Q3,5.5,5.566666666666666,0.06666666666666643
1972-09-13,unrate,1,1972Q4,5.3,5.366666666666667,0.06666666666666732
1972-09-13,unrate,2,1973Q1,5.1,4.933333333333334,-0.16666666666666607
1972-09-13,unrate,3,1973Q2,5.0,4.933333333333334,-0.06666666666666643
1972-09-13,unrate,4,1973Q3,4.9,4.8,-0.10000000000000053
1972-09-13,unrate,5,1973Q4,4.8,4.766666666666667,-0.033333333333333215
1972-10-11,gdp_price,0,1972Q4,2.7,4.643248001593792,1.9432480015937914
1972-10-11,gdp_price,1,1973Q1,4.0,5.200110954961623,1.2001109549616231
1972-10-11,gdp_price,2,1973Q2,3.7,6.78892837900924,3.08892837900924
1972-10-11,gdp_price,3,1973Q3,4.2,7.862739085684267,3.662739085684267
1972-10-11,gdp_price,4,1973Q4,4.3,7.119248533333744,2.8192485333337443
1972-10-11,housing_starts,0,1972Q4,2150.0,2424.0,274.0
1972-10-11,industrial_production,0,1972Q4,9.3,14.598002676363308,5.298002676363307
1972-10-11,real_gdp,0,1972Q4,8.1,6.799320628966887,-1.3006793710331124
1972-10-11,real_gdp,1,1973Q1,7.1,10.66975221798765,3.5697522179876504
1972-10-11,real_gdp,2,1973Q2,5.6,4.6109106848726045,-0.9890893151273952
1972-10-11,real_gdp,3,1973Q3,4.8,-1.5167083835978423,-6.316708383597842
1972-10-11,real_gdp,4,1973Q4,4.3,3.84212453881192,-0.45787546118807976
1972-10-11,unrate,0,1972Q4,5.4,5.366666666666667,-0.033333333333333215
1972-10-11,unrate,1,1973Q1,5.2,4.933333333333334,-0.2666666666666666
1972-10-11,unrate,2,1973Q2,5.0,4.933333333333334,-0.06666666666666643
1972-10-11,unrate,3,1973Q3,4.9,4.8,-0.10000000000000053
1972-10-11,unrate,4,1973Q4,4.8,4.766666666666667,-0.033333333333333215
1972-11-15,gdp_price,0,1972Q4,3.0,4.643248001593792,1.6432480015937916
1972-11-15,gdp_price,1,1973Q1,5.0,5.200110954961623,0.20011095496162312
1972-11-15,gdp_price,2,1973Q2,3.8,6.78892837900924,2.9889283790092405
1972-11-15,gdp_price,3,1973Q3,3.5,7.862739085684267,4.362739085684267
1972-11-15,gdp_price,4,1973Q4,4.0,7.119248533333744,3.119248533333744
1972-11-15,housing_starts,0,1972Q4,2280.0,2424.0,144.0
1972-11-15,industrial_production,0,1972Q4,8.8,14.598002676363308,5.798002676363307
1972-11-15,real_gdp,0,1972Q4,7.5,6.799320628966887,-0.7006793710331127
1972-11-15,real_gdp,1,1973Q1,6.6,10.66975221798765,4.06975221798765
1972-11-15,real_gdp,2,1973Q2,5.7,4.6109106848726045,-1.0890893151273957
1972-11-15,real_gdp,3,1973Q3,4.5,-1.5167083835978423,-6.016708383597843
1972-11-15,real_gdp,4,1973Q4,4.3,3.84212453881192,-0.45787546118807976
1972-11-15,unrate,0,1972Q4,5.4,5.366666666666667,-0.033333333333333215
1972-11-15,unrate,1,1973Q1,5.2,4.933333333333334,-0.2666666666666666
1972-11-15,unrate,2,1973Q2,5.1,4.933333333333334,-0.16666666666666607
1972-11-15,unrate,3,1973Q3,5.0,4.8,-0.20000000000000018
1972-11-15,unrate,4,1973Q4,4.9,4.766666666666667,-0.13333333333333375
1972-12-13,gdp_price,0,1972Q4,2.8,4.643248001593792,1.8432480015937918
1972-12-13,gdp_price,1,1973Q1,4.2,5.200110954961623,1.000110954961623
1972-12-13,gdp_price,2,1973Q2,3.5,6.78892837900924,3.2889283790092403
1972-12-13,gdp_price,3,1973Q3,3.8,7.862739085684267,4.062739085684267
1972-12-13,gdp_price,4,1973Q4,3.8,7.119248533333744,3.3192485333337443
1972-12-13,housing_starts,0,1972Q4,2310.0,2424.0,114.0
1972-12-13,housing_starts,1,1973Q1,2200.0,2378.3333333333335,178.33333333333348
1972-12-13,housing_starts,2,1973Q2,2130.0,2139.0,9.0
1972-12-13,housing_starts,3,1973Q3,2050.0,2016.0,-34.0
1972-12-13,housing_starts,4,1973Q4,1950.0,1642.3333333333333,-307.66666666666674
1972-12-13,industrial_production,0,1972Q4,11.5,14.598002676363308,3.0980026763633077
1972-12-13,industrial_production,1,1973Q1,8.9,11.901990032307186,3.0019900323071855
1972-12-13,industrial_production,2,1973Q2,7.9,3.476681190720421,-4.423318809279579
1972-12-13,industrial_production,3,1973Q3,5.9,3.440019223702273,-2.4599807762977273
1972-12-13,industrial_production,4,1973Q4,4.8,6.325948874621856,1.5259488746218564
1972-12-13,real_gdp,0,1972Q4,7.6,6.799320628966887,-0.8006793710331124
1972-12-13,real_gdp,1,1973Q1,6.8,10.66975221798765,3.8697522179876502
1972-12-13,real_gdp,2,1973Q2,5.9,4.6109106848726045,-1.2890893151273959
1972-12-13,real_gdp,3,1973Q3,4.4,-1.5167083835978423,-5.916708383597843
1972-12-13,real_gdp,4,1973Q4,4.3,3.84212453881192,-0.45787546118807976
1972-12-13,unrate,0,1972Q4,5.3,5.366666666666667,0.06666666666666732
1972-12-13,unrate,1,1973Q1,5.1,4.933333333333334,-0.16666666666666607
1972-12-13,unrate,2,1973Q2,5.0,4.933333333333334,-0.06666666666666643
1972-12-13,unrate,3,1973Q3,4.9,4.8,-0.10000000000000053
1972-12-13,unrate,4,1973Q4,4.8,4.766666666666667,-0.033333333333333215
1973-01-10,gdp_price,0,1973Q1,4.2,5.200110954961623,1.000110954961623
1973-01-10,gdp_price,1,1973Q2,3.6,6.78892837900924,3.18892837900924
1973-01-10,gdp_price,2,1973Q3,3.8,7.862739085684267,4.062739085684267
1973-01-10,gdp_price,3,1973Q4,3.9,7.119248533333744,3.219248533333744
1973-01-10,housing_starts,0,1973Q1,2250.0,2378.3333333333335,128.33333333333348
1973-01-10,housing_starts,1,1973Q2,2150.0,2139.0,-11.0
1973-01-10,housing_starts,2,1973Q3,2010.0,2016.0,6.0
1973-01-10,housing_starts,3,1973Q4,1870.0,1642.3333333333333,-227.66666666666674
1973-01-10,industrial_production,0,1973Q1,8.7,11.901990032307186,3.2019900323071866
1973-01-10,industrial_production,1,1973Q2,8.2,3.476681190720421,-4.723318809279578
1973-01-10,industrial_production,2,1973Q3,6.9,3.440019223702273,-3.4599807762977273
1973-01-10,industrial_production,3,1973Q4,5.0,6.325948874621856,1.3259488746218562
1973-01-10,real_gdp,0,1973Q1,6.8,10.66975221798765,3.8697522179876502
1973-01-10,real_gdp,1,1973Q2,6.2,4.6109106848726045,-1.5890893151273957
1973-01-10,real_gdp,2,1973Q3,5.4,-1.5167083835978423,-6.916708383597843
1973-01-10,real_gdp,3,1973Q4,4.4,3.84212453881192,-0.5578754611880803
1973-01-10,unrate,0,1973Q1,5.1,4.933333333333334,-0.16666666666666607
1973-01-10,unrate,1,1973Q2,4.9,4.933333333333334,0.033333333333333215
1973-01-10,unrate,2,1973Q3,4.8,4.8,0.0
1973-01-10,unrate,3,1973Q4,4.7,4.766666666666667,0.06666666666666643
1973-02-07,gdp_price,0,1973Q1,4.9,5.200110954961623,0.30011095496162277
1973-02-07,gdp_price,1,1973Q2,4.1,6.78892837900924,2.6889283790092406
1973-02-07,gdp_price,2,1973Q3,4.0,7.862739085684267,3.862739085684267
1973-02-07,gdp_price,3,1973Q4,4.2,7.119248533333744,2.919248533333744
1973-02-07,housing_starts,0,1973Q1,2250.0,2378.3333333333335,128.33333333333348
1973-02-07,housing_starts,1,1973Q2,2150.0,2139.0,-11.0
1973-02-07,housing_starts,2,1973Q3,1950.0,2016.0,66.0
1973-02-07,housing_starts,3,1973Q4,1800.0,1642.3333333333333,-157.66666666666674
1973-02-07,industrial_production,0,1973Q1,8.1,11.901990032307186,3.8019900323071862
1973-02-07,industrial_production,1,1973Q2,7.6,3.476681190720421,-4.123318809279579
1973-02-07,industrial_production,2,1973Q3,6.5,3.440019223702273,-3.059980776297727
1973-02-07,industrial_production,3,1973Q4,4.4,6.325948874621856,1.9259488746218558
1973-02-07,real_gdp,0,1973Q1,6.5,10.66975221798765,4.16975221798765
1973-02-07,real_gdp,1,1973Q2,6.0,4.6109106848726045,-1.3890893151273955
1973-02-07,real_gdp,2,1973Q3,4.8,-1.5167083835978423,-6.316708383597842
1973-02-07,real_gdp,3,1973Q4,4.0,3.84212453881192,-0.15787546118807994
1973-02-07,unrate,0,1973Q1,5.0,4.933333333333334,-0.06666666666666643
1973-02-07,unrate,1,1973Q2,4.9,4.933333333333334,0.033333333333333215
1973-02-07,unrate,2,1973Q3,4.8,4.8,0.0
1973-02-07,unrate,3,1973Q4,4.7,4.766666666666667,0.06666666666666643
1973-03-14,gdp_price,0,1973Q1,5.7,5.200110954961623,-0.49988904503837706
1973-03-14,gdp_price,1,1973Q2,3.9,6.78892837900924,2.8889283790092404
1973-03-14,gdp_price,2,1973Q3,4.2,7.862739085684267,3.662739085684267
1973-03-14,gdp_price,3,1973Q4,4.5,7.119248533333744,2.619248533333744
1973-03-14,housing_starts,0,1973Q1,2280.0,2378.3333333333335,98.33333333333348
1973-03-14,housing_starts,1,1973Q2,2150.0,2139.0,-11.0
1973-03-14,housing_starts,2,1973Q3,2050.0,2016.0,-34.0
1973-03-14,housing_starts,3,1973Q4,1900.0,1642.3333333333333,-257.66666666666674
1973-03-14,industrial_production,0,1973Q1,8.1,11.901990032307186,3.8019900323071862
1973-03-14,industrial_production,1,1973Q2,8.6,3.476681190720421,-5.123318809279579
1973-03-14,industrial_production,2,1973Q3,6.2,3.440019223702273,-2.759980776297727
1973-03-14,industrial_production,3,1973Q4,4.3,6.325948874621856,2.0259488746218564
1973-03-14,real_gdp,0,1973Q1,6.5,10.66975221798765,4.16975221798765
1973-03-14,real_gdp,1,1973Q2,6.2,4.6109106848726045,-1.5890893151273957
1973-03-14,real_gdp,2,1973Q3,4.8,-1.5167083835978423,-6.316708383597842
1973-03-14,real_gdp,3,1973Q4,3.9,3.84212453881192,-0.057875461188079846
1973-03-14,unrate,0,1973Q1,5.0,4.933333333333334,-0.06666666666666643
1973-03-14,unrate,1,1973Q2,4.9,4.933333333333334,0.033333333333333215
1973-03-14,unrate,2,1973Q3,4.8,4.8,0.0
1973-03-14,unrate,3,1973Q4,4.7,4.766666666666667,0.06666666666666643
1973-04-11,gdp_price,0,1973Q2,4.4,6.78892837900924,2.38892837900924
1973-04-11,gdp_price,1,1973Q3,4.3,7.862739085684267,3.5627390856842673
1973-04-11,gdp_price,2,1973Q4,4.5,7.119248533333744,2.619248533333744
1973-04-11,housing_starts,0,1973Q2,2180.0,2139.0,-41.0
1973-04-11,housing_starts,1,1973Q3,2050.0,2016.0,-34.0
1973-04-11,housing_starts,2,1973Q4,1900.0,1642.3333333333333,-257.66666666666674
1973-04-11,industrial_production,0,1973Q2,8.5,3.476681190720421,-5.023318809279579
1973-04-11,industrial_production,1,1973Q3,6.2,3.440019223702273,-2.759980776297727
1973-04-11,industrial_production,2,1973Q4,4.3,6.325948874621856,2.0259488746218564
1973-04-11,real_gdp,0,1973Q2,6.1,4.6109106848726045,-1.4890893151273952
1973-04-11,real_gdp,1,1973Q3,4.8,-1.5167083835978423,-6.316708383597842
1973-04-11,real_gdp,2,1973Q4,3.8,3.84212453881192,0.04212453881192024
1973-04-11,unrate,0,1973Q2,4.9,4.933333333333334,0.033333333333333215
1973-04-11,unrate,1,1973Q3,4.8,4.8,0.0
1973-04-11,unrate,2,1973Q4,4.7,4.766666666666667,0.06666666666666643
1973-05-09,gdp_price,0,1973Q2,5.1,6.78892837900924,1.6889283790092406
1973-05-09,gdp_price,1,1973Q3,4.4,7.862739085684267,3.462739085684267
1973-05-09,gdp_price,2,1973Q4,4.7,7.119248533333744,2.419248533333744
1973-05-09,housing_starts,0,1973Q2,2180.0,2139.0,-41.0
1973-05-09,housing_starts,1,1973Q3,2050.0,2016.0,-34.0
1973-05-09,housing_starts,2,1973Q4,1900.0,1642.3333333333333,-257.66666666666674
1973-05-09,industrial_production,0,1973Q2,8.5,3.476681190720421,-5.023318809279579
1973-05-09,industrial_production,1,1973Q3,6.3,3.440019223702273,-2.8599807762977267
1973-05-09,industrial_production,2,1973Q4,4.4,6.325948874621856,1.9259488746218558
1973-05-09,real_gdp,0,1973Q2,6.0,4.6109106848726045,-1.3890893151273955
1973-05-09,real_gdp,1,1973Q3,4.8,-1.5167083835978423,-6.316708383597842
1973-05-09,real_gdp,2,1973Q4,3.9,3.84212453881192,-0.057875461188079846
1973-05-09,unrate,0,1973Q2,4.9,4.933333333333334,0.033333333333333215
1973-05-09,unrate,1,1973Q3,4.8,4.8,0.0
1973-05-09,unrate,2,1973Q4,4.7,4.766666666666667,0.06666666666666643
1973-06-18,gdp_price,0,1973Q2,6.0,6.78892837900924,0.7889283790092403
1973-06-18,gdp_price,1,1973Q3,4.5,7.862739085684267,3.362739085684267
1973-06-18,gdp_price,2,1973Q4,4.7,7.119248533333744,2.419248533333744
1973-06-18,gdp_price,3,1974Q1,5.6,8.301752812354767,2.7017528123547674
1973-06-18,gdp_price,4,1974Q2,4.8,9.161604056697126,4.361604056697126
1973-06-18,gdp_price,5,1974Q3,4.5,12.8885616774562,8.3885616774562
1973-06-18,gdp_price,6,1974Q4,4.5,12.673600646525628,8.173600646525628
1973-06-18,housing_starts,0,1973Q2,2140.0,2139.0,-1.0
1973-06-18,housing_starts,1,1973Q3,2050.0,2016.0,-34.0
1973-06-18,housing_starts,2,1973Q4,1900.0,1642.3333333333333,-257.66666666666674
1973-06-18,housing_starts,3,1974Q1,1850.0,1586.0,-264.0
1973-06-18,housing_starts,4,1974Q2,1800.0,1515.3333333333333,-284.66666666666674
1973-06-18,housing_starts,5,1974Q3,1780.0,1202.6666666666667,-577.3333333333333
1973-06-18,housing_starts,6,1974Q4,1770.0,1023.6666666666666,-746.3333333333334
1973-06-18,industrial_production,0,1973Q2,8.2,3.476681190720421,-4.723318809279578
1973-06-18,industrial_production,1,1973Q3,6.0,3.440019223702273,-2.559980776297727
1973-06-18,industrial_production,2,1973Q4,4.4,6.325948874621856,1.9259488746218558
1973-06-18,industrial_production,3,1974Q1,2.2,-3.582396826132883,-5.782396826132883
1973-06-18,industrial_production,4,1974Q2,1.6,0.291148683718978,-1.308851316281022
1973-06-18,industrial_production,5,1974Q3,0.9,-1.3919241475645827,-2.2919241475645826
1973-06-18,industrial_production,6,1974Q4,0.7,-14.943130868988952,-15.643130868988951
1973-06-18,real_gdp,0,1973Q2,5.7,4.6109106848726045,-1.0890893151273957
1973-06-18,real_gdp,1,1973Q3,4.3,-1.5167083835978423,-5.816708383597842
1973-06-18,real_gdp,2,1973Q4,3.5,3.84212453881192,0.34212453881192006
1973-06-18,real_gdp,3,1974Q1,1.9,-2.6882894252477807,-4.588289425247781
1973-06-18,real_gdp,4,1974Q2,1.5,0.6895494235614086,-0.8104505764385914
1973-06-18,real_gdp,5,1974Q3,1.1,-4.0760903392371155,-5.176090339237115
1973-06-18,real_gdp,6,1974Q4,1.1,-2.0872493164925565,-3.1872493164925566
1973-06-18,unrate,0,1973Q2,5.0,4.933333333333334,-0.06666666666666643
1973-06-18,unrate,1,1973Q3,4.8,4.8,0.0
1973-06-18,unrate,2,1973Q4,4.8,4.766666666666667,-0.033333333333333215
1973-06-18,unrate,3,1974Q1,4.9,5.133333333333333,0.2333333333333325
1973-06-18,unrate,4,1974Q2,5.1,5.2,0.10000000000000053
1973-06-18,unrate,5,1974Q3,5.3,5.633333333333333,0.33333333333333304
1973-06-18,unrate,6,1974Q4,5.5,6.6000000000000005,1.1000000000000005
1973-07-11,gdp_price,0,1973Q3,3.6,7.862739085684267,4.262739085684267
1973-07-11,gdp_price,1,1973Q4,5.3,7.119248533333744,1.8192485333337443
1973-07-11,gdp_price,2,1974Q1,6.2,8.301752812354767,2.101752812354767
1973-07-11,gdp_price,3,1974Q2,4.9,9.161604056697126,4.261604056697125
1973-07-11,gdp_price,4,1974Q3,4.6,12.8885616774562,8.288561677456201
1973-07-11,gdp_price,5,1974Q4,4.6,12.673600646525628,8.073600646525628
1973-07-11,housing_starts,0,1973Q3,2020.0,2016.0,-4.0
1973-07-11,housing_starts,1,1973Q4,1850.0,1642.3333333333333,-207.66666666666674
1973-07-11,housing_starts,2,1974Q1,1750.0,1586.0,-164.0
1973-07-11,housing_starts,3,1974Q2,1650.0,1515.3333333333333,-134.66666666666674
1973-07-11,housing_starts,4,1974Q3,1650.0,1202.6666666666667,-447.33333333333326
1973-07-11,housing_starts,5,1974Q4,1700.0,1023.6666666666666,-676.3333333333334
1973-07-11,industrial_production,0,1973Q3,6.1,3.440019223702273,-2.6599807762977266
1973-07-11,industrial_production,1,1973Q4,4.1,6.325948874621856,2.2259488746218565
1973-07-11,industrial_production,2,1974Q1,1.8,-3.582396826132883,-5.382396826132883
1973-07-11,industrial_production,3,1974Q2,1.6,0.291148683718978,-1.308851316281022
1973-07-11,industrial_production,4,1974Q3,0.8,-1.3919241475645827,-2.191924147564583
1973-07-11,industrial_production,5,1974Q4,0.7,-14.943130868988952,-15.643130868988951
1973-07-11,real_gdp,0,1973Q3,4.4,-1.5167083835978423,-5.916708383597843
1973-07-11,real_gdp,1,1973Q4,3.3,3.84212453881192,0.5421245388119202
1973-07-11,real_gdp,2,1974Q1,1.5,-2.6882894252477807,-4.188289425247781
1973-07-11,real_gdp,3,1974Q2,1.5,0.6895494235614086,-0.8104505764385914
1973-07-11,real_gdp,4,1974Q3,0.9,-4.0760903392371155,-4.976090339237116
1973-07-11,real_gdp,5,1974Q4,1.1,-2.0872493164925565,-3.1872493164925566
1973-07-11,unrate,0,1973Q3,4.7,4.8,0.09999999999999964
1973-07-11,unrate,1,1973Q4,4.7,4.766666666666667,0.06666666666666643
1973-07-11,unrate,2,1974Q1,4.9,5.133333333333333,0.2333333333333325
1973-07-11,unrate,3,1974Q2,5.1,5.2,0.10000000000000053
1973-07-11,unrate,4,1974Q3,5.3,5.633333333333333,0.33333333333333304
1973-07-11,unrate,5,1974Q4,5.5,6.6000000000000005,1.1000000000000005
1973-08-15,gdp_price,0,1973Q3,6.0,7.862739085684267,1.8627390856842672
1973-08-15,gdp_price,1,1973Q4,6.6,7.119248533333744,0.5192485333337444
1973-08-15,gdp_price,2,1974Q1,6.1,8.301752812354767,2.2017528123547674
1973-08-15,gdp_price,3,1974Q2,5.0,9.161604056697126,4.161604056697126
1973-08-15,gdp_price,4,1974Q3,4.6,12.8885616774562,8.288561677456201
1973-08-15,gdp_price,5,1974Q4,4.6,12.673600646525628,8.073600646525628
1973-08-15,housing_starts,0,1973Q3,2000.0,2016.0,16.0
1973-08-15,housing_starts,1,1973Q4,1800.0,1642.3333333333333,-157.66666666666674
